yinzikang/torque-control/ipd_K100_D100.csv
joint1,joint2,joint3,joint4,joint5,joint6
3.192375044554132e-07,-0.5236035267837079,2.0944359728176707,0.000620064231365753,-1.5707966488490892,3.431153267305456e-07
9.807375000968579e-07,-0.523610093457367,2.094508772497343,0.0017345995433865609,-1.5707973133356479,1.014746168130737e-06
2.1140222078884954e-06,-0.523613637847435,2.094605219541797,0.003241063801959457,-1.5707983114265722,2.074131907299728e-06
3.8642422915317245e-06,-0.5236093661515658,2.0947183398220783,0.005056362999587311,-1.5707996733291074,3.594733563841214e-06
6.3498697501667195e-06,-0.5235933635856487,2.094842534276389,0.007113565316456735,-1.57080142291195,5.636181474116175e-06
9.647535717847591e-06,-0.5235628676192989,2.094973490677847,0.009359014754377929,-1.5708035705701773,8.233988374382788e-06
1.3790999896191671e-05,-0.5235162470867839,2.095108011567973,0.011749865886804482,-1.5708061120853924,1.1398514331984922e-05
1.8776773791562222e-05,-0.5234528462583016,2.0952438181188966,0.01425201744998399,-1.5708090303702937,1.5118289256142384e-05
2.457221261536602e-05,-0.5233727824152646,2.0953793610880185,0.016838403190535485,-1.5708122983543564,1.9364957828477522e-05
3.1123838395446756e-05,-0.5232767436143502,2.095513653307924,0.019487592176617035,-1.5708158820700036,2.409838887388505e-05
3.836479931136772e-05,-0.523165808922661,2.0956461287271106,0.02218265131762504,-1.5708197434679925,2.9271239837917577e-05
4.622102512812931e-05,-0.5230412995786843,2.0957765279868306,0.024910226616476787,-1.5708238427616046,3.483269426610261e-05
5.461600165091444e-05,-0.5229046620549271,2.0959048080771514,0.02765980478489697,-1.5708281402499868,4.073132670785827e-05
6.347427005179375e-05,-0.5227573802753626,2.096031072649533,0.03042312225628919,-1.5708325976507547,4.691716589510403e-05
7.272383995902015e-05,-0.5226009126841922,2.0961555194001162,0.03319369380089727,-1.5708371790080082,5.3343080545386517e-05
8.229772594270116e-05,-0.5224366495082687,2.0962784011804403,0.035966437629600674,-1.5708418512540834,5.996562356877627e-05
9.213480707706266e-05,-0.5222658858239019,2.096399997910681,0.03873737796963647,-1.5708465845018513,6.674546275210156e-05
0.00010218018575216414,-0.5220898065895906,2.0965205968377725,0.04150340959780861,-1.5708513521358232,7.36475106001371e-05
0.00011238519032243112,-0.5219094804475206,2.0966404791314783,0.04426211175952944,-1.5708561307599045,8.064084411345736e-05
0.00012270713802255663,-0.5217258597234342,2.096759911213978,0.04701160134345241,-1.5708609000480518,8.769848765043869e-05
0.00013310894660508005,-0.5215397846177781,2.096879139562759,0.049750417185885965,-1.5708656425340846,9.479711319805478e-05
0.0001435586609922586,-0.5213519900604094,2.0969983880115945,0.052477429011961514,-1.570870343367838,0.00010191669844955356
0.0001540289429457072,-0.5211631140947361,2.0971178568053563,0.05519176584168416,-1.570874990057408,0.00010904017156843001
0.0001644965569028241,-0.5209737069714442,2.097237722848387,0.057892759752241583,-1.570879572211424,0.00011615306200423645
0.0001749418735625395,-0.5207842403770971,2.0973581407306234,0.060579901739879115,-1.570884081290833,0.0001232431692928523
0.00018534840452751416,-0.5205951164100366,2.0974792442275825,0.06325280710483062,-1.5708885103762154,0.00013030025672216276
0.00019570237744852157,-0.5204066760556232,2.0976011480557903,0.06591118832440762,-1.570892853953448,0.00013731577571260246
0.00020599235246914404,-0.5202192070166217,2.0977239497308293,0.06855483380867042,-1.5708971077199747,0.00014428261899145724
0.00021620888209362212,-0.5200329508272226,2.0978477314232524,0.07118359127409114,-1.570901268411443,0.00015119490404588877
0.00022634421244317624,-0.5198481092310718,2.0979725617439184,0.0737973547396654,-1.5709053336482464,0.00015804778458536334
0.00023639202290954284,-0.5196648498382307,2.0980984974165184,0.07639605436261185,-1.5709093018009388,0.00016483728739368929
0.00024634720206101365,-0.5194833110977913,2.0982255848136813,0.07897964849867799,-1.5709131718727019,0.0001715601734401744
0.0002562056541234323,-0.5193036066367421,2.098353861346731,0.08154811750385497,-1.5709169433979147,0.00017821381813908646
0.0002659641348556247,-0.5191258290212961,2.0984833567075767,0.08410145889879217,-1.5709206163544391,0.00018479611112655315
0.0002756201116020954,-0.5189500530000358,2.098614093967764,0.08663968359854869,-1.5709241910885605,0.0001913053710778008
0.0002851716450970151,-0.5187763382868092,2.0987460905430866,0.08916281297487358,-1.5709276682508204,0.0001977402743538287
0.00029461728943178437,-0.5186047319388778,2.098879359034447,0.09167087656853719,-1.570931048741549,0.00020409979475615744
0.0003039560086759422,-0.5184352703814841,2.0990139079563988,0.09416391030904474,-1.5709343336644532,0.00021038315401593742
0.000313187106458303,-0.5182679811260594,2.0991497423653387,0.09664195512988727,-1.5709375242875572,0.0002165897798847907
0.0003223101671112614,-0.5181028842240957,2.0992868643987186,0.09910505589206314,-1.5709406220102775,0.00022271927129743883
0.0003313250070328225,-0.5179399934940566,2.0994252737360446,0.10155326054767302,-1.5709436283355904,0.00022877136999646254
0.00034023163364840266,-0.5177793175545715,2.099564967991809,0.10398661949019164,-1.5709465448468771,0.0002347459363600388
0.00034903021170752327,-0.5176208606924868,2.0997059430492917,0.10640518504994186,-1.5709493731884234,0.00024064292986943875
0.0003577210353658578,-0.517464623590874,2.0998481933434245,0.10880901110230237,-1.570952115049132,0.00024646239301022774
0.0003663045046151697,-0.5173106039386739,2.099991712100014,0.1111981527633363,-1.5709547721491188,0.0002522044374437702
0.0003747811061970712,-0.5171587969402769,2.1001364915375276,0.11357266615326307,-1.5709573462284465,0.0002578692330824535
0.00038315139779588014,-0.5170091957409815,2.100282523037066,0.1159326082124176,-1.5709598390378035,0.00026345699902839145
0.0003914159945884234,-0.5168617917818883,2.100429797285366,0.11827803655776976,-1.5709622523309552,0.00026896799561336514
0.0003995755587352138,-0.5167165750954181,2.1005783043948294,0.12060900937087146,-1.5709645878583272,0.00027440251852196916
0.00040763079030801415,-0.5165735345513806,2.1007280340042973,0.12292558530995987,-1.570966847361888,0.00027976089344044965
0.00041558241984825735,-0.5164326580616347,2.1008789753635257,0.12522782344071784,-1.570969032570967,0.0002850434716652031
0.0004234312024250366,-0.5162939327501772,2.1010311174039393,0.12751578318140885,-1.57097114519879,0.0002902506266813446
0.0004311779125584009,-0.5161573450945184,2.1011844487979205,0.12978952425902737,-1.5709731869397507,0.0002953827510953144
0.000438823340102331,-0.5160228810431172,2.1013389580084496,0.13204910667392927,-1.570975159467207,0.0003004402541513651
0.00044636828693557604,-0.5158905261129167,2.101494633330674,0.1342945906709669,-1.570977064431701,0.0003054235597478224
0.0004538135641928714,-0.5157602654703889,2.101651462926745,0.136526036715596,-1.5709789034595816,0.0003103331047153204
0.0004611599898572549,-0.5156320839989232,2.1018094348550496,0.1387435054737807,-1.570980678151991,0.0003151693372109456
0.0004684083868608551,-0.5155059663548484,2.1019685370947343,0.14094705779482372,-1.5709823900840731,0.0003199327154593548
0.0004755595815683124,-0.515381897014049,2.1021287575663123,0.143136754696431,-1.5709840408043778,0.00032462370673672807
0.0004826144024687402,-0.5152598603108236,2.1022900841490233,0.1453126573514784,-1.570985631834467,0.000329242786428623
0.000489573679223626,-0.5151398404702798,2.1024525046954627,0.1474748270760996,-1.570987164668617,0.0003337904373684983
0.0004964382414851747,-0.5150218216355088,2.1026160070440145,0.14962332531874503,-1.5709886407738027,0.0003382671487868152
0.0005032089183748462,-0.5149057878902442,2.1027805790293335,0.1517582136500651,-1.570990061589582,0.00034267341595009256
0.0005098865377686753,-0.514791723277961,2.1029462084913106,0.15387955375337134,-1.5709914285281867,0.0003470097394922639
0.0005164719258398308,-0.5146796118179323,2.1031128832827135,0.15598740741558798,-1.5709927429746176,0.0003512766249891059
0.0005229659065011409,-0.5145694375188457,2.1032805912757695,0.15808183651856703,-1.5709940062868677,0.0003554745823628321
0.0005293693013055494,-0.5144611843902719,2.1034493203677895,0.16016290303074382,-1.5709952197960342,0.0003596041257891229
0.0005356829287630337,-0.5143548364525817,2.1036190584861267,0.16223066899899177,-1.570996384806722,0.00036366577287845036
0.0005419076044114685,-0.5142503777452888,2.1037897935924046,0.16428519654075135,-1.5709975025971932,0.0003676600447259576
0.0005480441403127475,-0.5141477923343643,2.1039615136863,0.16632654783629242,-1.5709985744197854,0.0003715874652579579
0.0005540933451772659,-0.5140470643184418,2.1041342068088,0.16835478512119068,-1.570999601501107,0.0003754485613073186
0.000560056023941488,-0.5139481778343465,2.1043078610451618,0.17036997067890552,-1.5710005850424802,0.0003792438620271057
0.0005659329776758305,-0.513851117061877,2.1044824645275138,0.17237216683352213,-1.5710015262202703,0.00038297389868637715
0.000571725003480233,-0.5137558662280306,2.104658005437191,0.1743614359426215,-1.5710024261862348,0.00038663920444330455
0.0005774328942901771,-0.5136624096107782,2.104834472006855,0.17633784039026756,-1.5710032860679217,0.00039024031400681743
0.0005830574388773455,-0.5135707315423982,2.105011852522392,0.17830144258013064,-1.5710041069689982,0.00039377776352463235
0.0005885994217685746,-0.5134808164124928,2.1051901353246527,0.18025230492872207,-1.5710048899696176,0.0003972520903715739
0.0005940596230332792,-0.5133926486707502,2.1053693088110657,0.18219048985873554,-1.5710056361268514,0.0004006638327810395
0.0005994388183387097,-0.5133062128294007,2.105549361437084,0.18411605979252496,-1.5710063464750081,0.00040401352979232996
0.0006047377788686133,-0.5132214934654938,2.10573028171754,0.1860290771456863,-1.5710070220260142,0.00040730172103601285
0.0006099572712258792,-0.5131384752229975,2.105912058227899,0.1879296043207522,-1.5710076637698032,0.00041052894650108195
0.0006150980574121781,-0.5130571428147201,2.1060946796054183,0.1898177037010064,-1.5710082726746728,0.0004136957463938756
0.0006201608947352783,-0.5129774810241107,2.106278134550232,0.19169343764440583,-1.5710088496876722,0.000416802660912773
0.0006251465357291462,-0.5128994747069313,2.106462411826362,0.19355686847761672,-1.5710093957349838,0.00041985023003965533
0.0006300557281938887,-0.5128231087927921,2.106647500262646,0.19540805849017173,-1.5710099117222511,0.00042283899347428383
0.0006348892151701772,-0.5127483682866013,2.106833388753615,0.19724706992873392,-1.571010398534933,0.00042576949049305394
0.0006396477347954321,-0.5126752382699519,2.107020066260326,0.19907396499146301,-1.571010857038709,0.00042864225967065154
0.0006443320203554259,-0.5126037039023813,2.1072075218111195,0.20088880582250684,-1.5710112880797944,0.0004314578388341172
0.0006489428003414227,-0.5125337504225527,2.107395744502324,0.2026916545066024,-1.5710116924852515,0.00043421676502506046
0.000653480798154872,-0.5124653631494475,2.1075847234989653,0.2044825730637607,-1.5710120710634554,0.0004369195740495823
0.0006579467322672573,-0.5123985274833871,2.107774448035364,0.20626162344409274,-1.5710124246043529,0.00043956680056636056
0.0006623413162440546,-0.5123332289070234,2.1079649074157145,0.20802886752273247,-1.5710127538797776,0.00044215897801622677
0.0006666652585628857,-0.5122694529863183,2.1081560910146506,0.20978436709485146,-1.5710130596438572,0.0004446966383124625
0.0006709192627227771,-0.5122071853714011,2.108347988277732,0.21152818387079947,-1.5710133426332844,0.0004471803118756259
0.0006751040272054727,-0.5121464117974064,2.108540588721916,0.21326037947133877,-1.5710136035676516,0.0004496105274962678
0.0006792202454496375,-0.512087118085259,2.1087338819359935,0.2149810154229824,-1.5710138431497758,0.0004519878122152223
0.0006832686057938419,-0.5120292901424178,2.1089278575809898,0.21669015315343254,-1.5710140620660362,0.00045431269116945843
0.0006872497914645626,-0.5119729139635627,2.1091225053905354,0.2183878539871231,-1.5710142609866866,0.00045658568749293977
0.0006911644806158501,-0.5119179756312248,2.1093178151711904,0.22007417914086536,-1.5710144405661395,0.000458807322280007
0.0006950133463177765,-0.5118644613163849,2.1095137768027503,0.2217491897195887,-1.571014601443271,0.0004609781144906588
0.0006987970565841618,-0.5118123572790219,2.109710380238514,0.22341294671218148,-1.5710147442417037,0.00046309858090387546
0.0007025162743125063,-0.5117616498686404,2.109907615505539,0.22506551098742222,-1.571014869570127,0.0004651692359700955
0.0007061716572448392,-0.511712325524755,2.110105472704864,0.22670694329000776,-1.5710149780226048,0.0004671905916903238
0.000709763857943045,-0.5116643707773335,2.1103039420117025,0.22833730423667628,-1.5710150701788734,0.00046916315751412987
0.00071329352393632,-0.5116177722471635,2.1105030136755882,0.22995665431243387,-1.5710151466045508,0.00047108744044059006
0.000716761297590037,-0.5115725166462476,2.110702678020535,0.23156505386685464,-1.5710152078514779,0.00047296394479510095
0.0007201678161983736,-0.5115285907781121,2.110902925445139,0.23316256311048547,-1.5710152544579485,0.00047479317226990954
0.000723513711900771,-0.5114859815381239,2.111103746422683,0.23474924211132878,-1.57101528694902,0.0004765756217602466
0.0007267996117208075,-0.5114446759137455,2.1113051315012035,0.23632515079142086,-1.5710153058367615,0.0004783117893454046
0.000730026137585345,-0.5114046609847642,2.111507071303534,0.23789034892349564,-1.5710153116205086,0.0004800021682481874
0.0007331939063277023,-0.511365923923493,2.111709556527335,0.2394448961277328,-1.5710153047871205,0.00048164724877735704
0.0007363035296854279,-0.5113284519949438,2.1119125779450987,0.2409888518685898,-1.571015285811239,0.0004832475182653811
0.0007393556143346206,-0.5112922325569635,2.112116126404132,0.24252227545171934,-1.5710152551555232,0.00048480346105031117
0.0007423507618264101,-0.5112572530603641,2.1123201928265343,0.24404522602096265,-1.571015213270931,0.0004863155583451697
0.0007452895686785962,-0.51122350104899,2.112524768209133,0.2455577625554329,-1.5710151605969194,0.0004877842882896064
0.0007481726263066146,-0.5111909641597964,2.1127298436234248,0.24705994386666844,-1.5710150975617214,0.0004892101258157295
0.0007510005211495396,-0.5111596301228567,2.1129354102154725,0.24855182859587568,-1.5710150245825218,0.0004905935427424318
0.000753773834559682,-0.5111294867613998,2.113141459205817,0.25003347521123553,-1.5710149420657484,0.0004919350075958609
0.0007564931429070316,-0.5111005219917737,2.113347981889344,0.2515049420052981,-1.5710148504072516,0.0004932349856813537
0.000759159017567173,-0.5110727238234127,2.1135549696351523,0.2529662870924454,-1.5710147499925398,0.0004944939390208363
0.0007617720249119333,-0.511046080358782,2.1137624138864033,0.25441756840642793,-1.5710146411970087,0.0004957123262948902
0.0007643327263087575,-0.5110205797932974,2.1139703061601587,0.2558588436979747,-1.5710145243861657,0.0004968906027962418
0.0007668416781788675,-0.5109962104152117,2.114178638047194,0.2572901705324772,-1.5710143999158177,0.0004980292204525788
0.0007692994320434504,-0.5109729606054818,2.114387401211799,0.2587116062877435,-1.571014268132264,0.0004991286278364737
0.0007717065344959575,-0.5109508188376344,2.1145965873915786,0.26012320815181655,-1.571014129372523,0.000500189270090783
0.0007740635272148983,-0.5109297736776024,2.114806188397232,0.26152503312086384,-1.5710139839645345,0.0005012115889022789
0.0007763709470000853,-0.510909813783538,2.1150161961123186,0.2629171379971343,-1.5710138322273484,0.0005021960225034137
0.0007786293258304222,-0.5108909279056023,2.1152266024930104,0.2642995793869826,-1.5710136744712966,0.0005031430056999568
0.0007808391908045339,-0.5108731048857656,2.115437399567847,0.2656724136989519,-1.571013510998225,0.0005040529697640807
0.0007830010642092717,-0.5108563336575609,2.1156485794374618,0.2670356971419267,-1.5710133421016543,0.0005049263424765843
0.0007851154635983654,-0.5108406032458188,2.1158601342743,0.2683894857233492,-1.571013168066933,0.0005057635481814626
0.0007871829016709316,-0.5108259027664341,2.116072056322352,0.2697338352474864,-1.5710129891714921,0.0005065650076101505
0.0007892038864258132,-0.5108122214260528,2.116284337896838,0.27106880131377226,-1.5710128056849522,0.0005073311380257346
0.0007911789211189031,-0.5107995485217907,2.116496971383912,0.2723944393151991,-1.5710126178693304,0.0005080623531399472
0.0007931085042985305,-0.5107878734409202,2.11670994924035,0.27371080443677115,-1.5710124259792053,0.0005087590631215229
0.0007949931298656293,-0.5107771856605384,2.1169232639932187,0.27501795165401705,-1.5710122302618628,0.0005094216746338272
0.0007968332870644949,-0.510767474747237,2.1171369082395524,0.2763159357315549,-1.5710120309574787,0.0005100505907931402
0.0007986294605017212,-0.5107587303567552,2.1173508746460157,0.27760481122171454,-1.571011828299282,0.0005106462111604099
0.0008003821301768764,-0.5107509422336173,2.117565155948558,0.2788846324632147,-1.5710116225137094,0.0005112089317472526
0.000802091771541493,-0.5107441002107521,2.1177797449520557,0.2801554535798947,-1.5710114138205424,0.0005117391450552329
0.0008037588554975358,-0.5107381942091163,2.117994634529959,0.2814173284794959,-1.5710112024330731,0.0005122372400461233
0.0008053838484132852,-0.5107332142373023,2.118209817623929,0.28267031085249567,-1.571010988558259,0.0005127036021330585
0.0008069672121758715,-0.5107291503911292,2.1184252872434595,0.28391445417099337,-1.571010772396855,0.0005131386132144888
0.0008085094042211007,-0.5107259928532276,2.1186410364655046,0.2851498116876451,-1.5710105541435542,0.0005135426516825791
0.000810010877525991,-0.5107237318926258,2.1188570584340995,0.2863764364346454,-1.5710103339871482,0.0005139160923894702
0.0008114720806675713,-0.5107223578643104,2.119073346359969,0.28759438122275993,-1.5710101121106466,0.0005142593066903662
0.0008128934578555411,-0.510721861208786,2.119289893520135,0.28880369864040384,-1.5710098886914103,0.0005145726624570358
0.0008142754489349946,-0.5107222324516331,2.1195066932575246,0.2900044410527646,-1.571009663901297,0.0005148565240576274
0.0008156184894473046,-0.5107234622030448,2.1197237389805643,0.29119666060097305,-1.571009437906773,0.0005151112524038246
0.0008169230106056782,-0.5107255411573773,2.119941024162783,0.2923804092013144,-1.5710092108690699,0.0005153372049006107
0.0008181894393740112,-0.5107284600926689,2.1201585423423963,0.2935557385444881,-1.5710089829442815,0.0005155347355151501
0.0008194181984937417,-0.5107322098701641,2.1203762871218945,0.2947227000949068,-1.571008754283487,0.0005157041947863738
0.0008206097065112925,-0.5107367814338326,2.1205942521676286,0.29588134509003833,-1.5710085250328711,0.0005158459298358227
0.0008217643777586476,-0.5107421658098928,2.1208124312093988,0.29703172453978577,-1.5710082953338695,0.0005159602843254024
0.0008228826224594921,-0.5107483541063009,2.121030818040022,0.2981738892259134,-1.57100806532324,0.0005160475985593546
0.0008239648467056258,-0.5107553375122647,2.121249406514916,0.2993078897015065,-1.5710078351332057,0.0005161082094380469
0.0008250114525188731,-0.5107631072977332,2.1214681905516692,0.300433776290473,-1.5710076048915467,0.0005161424505102256
0.0008260228378532089,-0.5107716548128957,2.121687164129615,0.3015515990870809,-1.5710073747217235,0.000516150651957212
0.0008269993966458922,-0.5107809714876642,2.1219063212894,0.3026614079555341,-1.571007144742972,0.0005161331406336275
0.0008279415188436106,-0.5107910488311594,2.1221256561325523,0.303763252529584,-1.5710069150704087,0.0005160902400798996
0.0008288495904187781,-0.5108018784311938,2.1223451628210492,0.3048571822121761,-1.5710066858151395,0.0005160222705239682
0.0008297239934037529,-0.5108134519537482,2.122564835576881,0.30594324617513163,-1.5710064570843583,0.0005159295489038707
0.0008305651059365695,-0.5108257611424416,2.1227846686816143,0.3070214933588643,-1.5710062289814344,0.0005158123889037865
0.0008313733023001573,-0.510838797818001,2.123004656475951,0.3080919724721297,-1.5710060016060032,0.0005156711009829493
0.0008321489529209081,-0.5108525538777365,2.123224793359296,0.30915473199180576,-1.571005775054078,0.0005155059923586384
0.0008328924244058145,-0.5108670212950062,2.1234450737893167,0.31020982016270676,-1.571005549418137,0.0005153173670335357
0.0008336040795979809,-0.5108821921186737,2.1236654922814986,0.31125728499742933,-1.5710053247871987,0.0005151055258442506
0.0008342842775816618,-0.5108980584725764,2.1238860434087097,0.3122971742762268,-1.571005101246924,0.0005148707664526739
0.0008349333737225913,-0.5109146125549833,2.1241067218007585,0.31332953554691506,-1.5710048788796964,0.0005146133833778992
0.0008355517197082096,-0.5109318466380511,2.1243275221439513,0.31435441612480747,-1.5710046577647003,0.0005143336680282572
0.0008361396635610085,-0.5109497530672859,2.124548439180653,0.3153718630926775,-1.5710044379780126,0.0005140319087030694
0.0008366975496834777,-0.5109683242609954,2.1247694677088456,0.31638192330075027,-1.5710042195926746,0.0005137083906306792
0.0008372257188771089,-0.5109875527097477,2.124990602581688,0.31738464336672084,-1.571004002678778,0.0005133633959771948
0.0008377245083894042,-0.5110074309758214,2.1252118387070746,0.3183800696757998,-1.5710037873035312,0.000512997203887362
0.000838194251914362,-0.5110279516926663,2.125433171047198,0.3193682483807836,-1.5710035735313528,0.0005126100904728564
0.0008386352796462222,-0.5110491075643526,2.125654594618107,0.3203492254021524,-1.5710033614239307,0.0005122023288613202
0.0008390479183124193,-0.5110708913650224,2.125876104489268,0.3213230464281916,-1.5710031510402933,0.0005117741892219639
0.0008394324911949366,-0.5110932959383458,2.1260976957831264,0.32228975691513784,-1.5710029424368843,0.0005113259387782944
0.0008397893181560499,-0.5111163141969753,2.126319363674673,0.32324940208734854,-1.5710027356676346,0.0005108578418260717
0.0008401187156828817,-0.5111399391219958,2.126541103391003,0.3242020269374956,-1.5710025307840214,0.000510370159772764
0.00084042099690526,-0.5111641637623818,2.126762910210883,0.32514767622678076,-1.5710023278351406,0.0005098631511469753
0.0008406964716287065,-0.5111889812344511,2.1269847794643177,0.3260863944851734,-1.5710021268677696,0.0005093370716252654
0.0008409454463628601,-0.5112143847213204,2.127206706532116,0.32701822601167013,-1.5710019279264316,0.0005087921740539637
0.0008411682243570687,-0.5112403674723603,2.1274286868454593,0.3279432148745754,-1.5710017310534525,0.000508228708479288
0.000841365105623183,-0.5112669228026538,2.127650715885471,0.3288614049118024,-1.5710015362890266,0.0005076469221631842
0.0008415363869702152,-0.5112940440924528,2.1278727891827884,0.3297728397311943,-1.5710013436712713,0.0005070470596127712
0.0008416823620306216,-0.5113217247866387,2.1280949023171356,0.3306775627108649,-1.5710011532362866,0.0005064293626004957
0.0008418033212907326,-0.5113499583941824,2.128317050916896,0.33157561699955823,-1.571000965018211,0.0005057940701891369
0.0008419012993656412,-0.5113787380789996,2.128539230413301,0.3324670455620663,-1.5710007780083455,0.0005051433886379937
0.0008419781407011334,-0.5114080571061976,2.128761436310343,0.33335189112277275,-1.5710005913068468,0.0005044793046293932
0.0008420353421745561,-0.5114379088801221,2.1289836642069093,0.3342301961638719,-1.571000404220545,0.0005038034110266247
0.0008420733794391749,-0.5114682871032673,2.1292059098913967,0.33510200291123876,-1.5710002166669175,0.0005031161493015127
0.0008420915635406526,-0.5114991858129292,2.129428169362267,0.33596735333612565,-1.571000029261235,0.0005024166515996716
0.0008420893985235521,-0.5115305990664694,2.1296504386378983,0.33682628919307755,-1.5709998425011886,0.0005017042715155419
0.0008420665416439953,-0.5115625209484597,2.12987271376134,0.3376788520178067,-1.5709996567882565,0.0005009785370476957
0.0008420227716519176,-0.5115949455764178,2.1300949908040523,0.3385250831257517,-1.5709994724465746,0.0005002391146290658
0.0008419579635202855,-0.5116278671053678,2.1303172658688307,0.33936502361112464,-1.5709992897380642,0.0004994857804716539
0.0008418720683296633,-0.51166127973144,2.1305395350920726,0.34019871434633386,-1.5709991088745485,0.0004987183977581186
0.0008417650972420567,-0.5116951776946979,2.1307617946455206,0.34102619598169637,-1.5709989300274687,0.0004979368984709097
0.0008416371087362503,-0.5117295552813353,2.1309840407375846,0.34184750894537314,-1.5709987533356764,0.000497141268919764
0.0008414881984464937,-0.5117644068253641,2.1312062696143275,0.342662693443477,-1.5709985789116812,0.0004963315382209469
0.0008413184910755438,-0.5117997267098852,2.131428477560177,0.3434717894603136,-1.570998406846661,0.0004955077691281707
0.0008411281339508026,-0.511835509368029,2.1316506608984236,0.34427483675872494,-1.5709982372144862,0.0004946700507261816
0.0008409172918977119,-0.511871749283622,2.131872815991546,0.34507187488051355,-1.570998070074951,0.0004938184926174031
0.0008406861431632016,-0.5119084409916339,2.132094939241393,0.34586294314692906,-1.570997905476366,0.0004929532202986024
0.0008404348761719483,-0.5119455790784478,2.132317027089259,0.3466480806592039,-1.5709977434576434,0.0004920743714813238
0.0008401636869397936,-0.5119831581819885,2.1325390760158696,0.3474273262991281,-1.5709975840499788,0.0004911820931570113
0.0008398727770430124,-0.5120211729917288,2.1327610825412937,0.3482007187296557,-1.57099742727819,0.0004902765392915837
0.0008395623519659864,-0.5120596182486132,2.132983043224805,0.3489682963955355,-1.5709972731618203,0.0004893578689491677
0.0008392326198258503,-0.5120984887448969,2.1332049546646936,0.34973009752396395,-1.570997121716006,0.000488426244842353
0.0008388837903397686,-0.5121377793239298,2.133426813498045,0.3504861601252544,-1.5709969729521913,0.0004874818321575435
0.000838516074015454,-0.5121774848798908,2.133648616400491,0.35123652199352207,-1.5709968268787018,0.0004865247976329969
0.0008381296815018263,-0.5122176003574855,2.1338703600859397,0.351981220707381,-1.570996683501215,0.0004855553088183424
0.0008377248231052522,-0.5122581207516064,2.1340920413062823,0.3527202936306537,-1.5709965428231258,0.0004845735335211429
0.0008373017083685008,-0.5122990411069788,2.1343136568510963,0.3534537779130893,-1.570996404845869,0.0004835796393250809
0.0008368605457696119,-0.5123403565177808,2.134535203547332,0.3541817104910922,-1.5709962695691655,0.00048257379324345245
0.0008364015424805348,-0.5123820621272497,2.134756678258993,0.35490412808845906,-1.5709961369912275,0.0004815561614404233
0.0008359249041659615,-0.5124241531272808,2.134978077886812,0.35562106721712305,-1.570996007108938,0.0004805269089980043
0.000835430834837867,-0.5124666247580146,2.1351993993679232,0.3563325641779063,-1.570995879917991,0.000479486199745958
0.0008349195367448978,-0.5125094723074174,2.135420639675531,0.3570386550612793,-1.5709957554130103,0.0004784341961311379
0.0008343912103075733,-0.5125526911108532,2.135641795818573,0.3577393757481272,-1.5709956335876354,0.00047737105913836004
0.0008338460540339991,-0.5125962765506628,2.1358628648413904,0.3584347619105221,-1.5709955144346206,0.00047629694818991745
0.0008332842644778635,-0.5126402240557342,2.1360838438233936,0.3591248490125017,-1.5709953979459033,0.0004752120210926301
0.0008327060362143889,-0.5126845291010721,2.136304729878727,0.3598096723108541,-1.5709952841126615,0.0004741164340051217
0.000832111561803758,-0.5127291872073725,2.136525520155941,0.36048926685590804,-1.5709951729253777,0.0004730103413913678
0.0008315010317985494,-0.5127741939405892,2.1367462118376555,0.361163667492329,-1.5709950643738726,0.0004718938960234921
0.0008308746347291551,-0.5128195449115092,2.1369668021402335,0.36183290885992003,-1.570994958447353,0.00047076724896014376
0.0008302325571001699,-0.5128652357753272,2.1371872883134526,0.3624970253944282,-1.570994855134451,0.00046963054953727274
0.0008295749833942869,-0.512911262231222,2.1374076676401805,0.3631560513283552,-1.5709947544232579,0.0004684839453673956
0.0008289020961009863,-0.5129576200219298,2.1376279374360463,0.36381002069177387,-1.5709946563013406,0.0004673275823664913
0.000828214075708235,-0.5130043049333292,2.137848095049123,0.36445896731314764,-1.5709945607557825,0.0004661616047398693
0.0008275111007140395,-0.5130513127940242,2.1380681378596083,0.36510292482015516,-1.5709944677732084,0.0004649861549902165
0.000826793347638322,-0.5130986394749311,2.1382880632795054,0.36574192664051886,-1.5709943773398107,0.00046380137392611876
0.0008260609910569403,-0.5131462808888623,2.138507868752309,0.3663760060028376,-1.5709942894413593,0.0004626074006951725
0.0008253142035973601,-0.5131942329901229,2.1387275517526936,0.3670051959374226,-1.5709942040632363,0.00046140437277460535
0.0008245531559752919,-0.513242491774101,2.1389471097862023,0.36762952927713716,-1.5709941211904428,0.0004601924260074525
0.0008237780170049508,-0.5132910532768663,2.1391665403889397,0.3682490386582399,-1.5709940408076228,0.0004589716946094586
0.0008229889536063258,-0.513339913574774,2.139385841127269,0.3688637565212306,-1.5709939628990883,0.0004577423111727616
0.0008221861308470363,-0.513389068784063,2.1396050095975063,0.36947371511169974,-1.5709938874488212,0.00045650440670800326
0.0008213697119424544,-0.5134385150604668,2.1398240434256235,0.3700789464811804,-1.5709938144405011,0.0004552581106401277
0.0008205398582765338,-0.5134882485988237,2.1400429402669507,0.37067948248800275,-1.5709937438575208,0.0004540035508272809
0.0008196967294214976,-0.5135382656326897,2.1402616978058813,0.3712753547981516,-1.5709936756829999,0.0004527408535784376
0.0008188404831528703,-0.5135885624339559,2.1404803137555812,0.3718665948861255,-1.570993609899802,0.00045147014366594366
0.0008179712754945545,-0.5136391353124625,2.140698785857694,0.37245323403579905,-1.5709935464905331,0.0004501915443712975
0.0008170892606992041,-0.5136899806156304,2.140917111882061,0.37303530334128593,-1.570993485437578,0.00044890517745939135
0.0008161945912780535,-0.5137410947280849,2.1411352896264337,0.3736128337078048,-1.5709934267231078,0.00044761116320757733
0.0008152874180406534,-0.5137924740712806,2.14135331691619,0.3741858558525466,-1.5709933703290788,0.00044630962044565453
0.0008143678901074723,-0.5138441151031349,2.141571191604054,0.37475440030554347,-1.5709933162372478,0.0004450006665658347
0.0008134361549095164,-0.5138960143176685,2.1417889115698237,0.37531849741053874,-1.5709932644291973,0.00044368441751848264
0.0008124923582078581,-0.5139481682446443,2.142006474720094,0.37587817732585854,-1.570993214886345,0.0004423609878299134
0.0008115366441377184,-0.5140005734492032,2.1422238789879833,0.37643347002528477,-1.5709931675899398,0.00044103049064729094
0.0008105691551972767,-0.5140532265315171,2.1424411223328654,0.3769844052989284,-1.5709931225210898,0.0004396930377224794
0.000809590032284383,-0.5141061241264322,2.142658202740102,0.3775310127541044,-1.5709930796607618,0.00043834873944892925
0.0008085994147174592,-0.5141592629031206,2.1428751182207764,0.37807332181620684,-1.570993038989789,0.00043699770488101825
0.0008075974402162872,-0.5142126395647438,2.143091866811437,0.3786113617295848,-1.5709930004889048,0.00043564004170925687
0.00080658424496146,-0.5142662508481007,2.1433084465738306,0.3791451615584191,-1.5709929641387248,0.0004342758563223097
0.0008055599636096719,-0.5143200935232894,2.1435248555946464,0.3796747501875989,-1.570992929919758,0.00043290525382020756
0.0008045247292789545,-0.5143741643933789,2.1437410919852646,0.3802001563235987,-1.5709928978124357,0.00043152833799456905
0.0008034786735860584,-0.5144284602940714,2.143957153881501,0.3807214084953559,-1.570992867797107,0.0004301452113663662
0.000802421926667126,-0.5144829780933724,2.144173039443357,0.38123853505514776,-1.5709928398540451,0.00042875597520518696
0.0008013546171790521,-0.5145377146912673,2.144388746854772,0.3817515641794687,-1.5709928139634657,0.0004273607295273394
0.0008002768723372459,-0.5145926670193932,2.1446042743233766,0.38226052386990755,-1.5709927901055196,0.0004259595731340344
0.0007991888179193841,-0.5146478320407214,2.14481962008025,0.38276544195402395,-1.5709927682603102,0.000424552603612128
0.0007980905782777895,-0.5147032067492407,2.1450347823796787,0.38326634608622495,-1.5709927484079023,0.00042313991734443674
0.0007969822763352678,-0.5147587881696479,2.1452497594989235,0.3837632637486406,-1.5709927305283427,0.0004217216095019148
0.000795864033641771,-0.5148145733570267,2.1454645497379747,0.3842562222519997,-1.5709927146016402,0.00042029777410272087
0.0007947359703708092,-0.5148705593965438,2.145679151419321,0.384745248736504,-1.570992700607786,0.00041886850400498
0.000793598205355795,-0.5149267434031382,2.145893562887715,0.38523037017270256,-1.570992688526745,0.00041743389094353074
0.0007924508560713322,-0.5149831225212269,2.146107782509949,0.38571161336236426,-1.5709926783384849,0.00041599402550619014
0.0007912940386650807,-0.5150396939244012,2.146321808674623,0.38618900493935016,-1.5709926700229724,0.0004145489971656544
0.0007901278679578704,-0.515096454815133,2.146535639791925,0.3866625713704843,-1.5709926635601874,0.00041309889427651334
0.0007889524574723626,-0.515153402424478,2.146749274293401,0.38713233895642407,-1.5709926589301204,0.00041164380410366175
0.0007877679194563999,-0.5152105340117826,2.1469627106317386,0.3875983338325286,-1.5709926561127723,0.00041018381284484216
0.0007865743648892294,-0.5152678468643971,2.1471759472805436,0.3880605819697266,-1.5709926550881648,0.0004087190056344384
0.0007853719034981589,-0.5153253382973899,2.1473889827341277,0.3885191091753821,-1.5709926558363443,0.0004072494665587461
0.0007841606437645591,-0.5153830056532669,2.147601815507292,0.38897394109415967,-1.5709926583373923,0.0004057752786595877
0.0007829406929295962,-0.5154408463016932,2.147814444135116,0.3894251032088871,-1.5709926625714359,0.00040429652393769944
0.0007817121570138235,-0.5154988576392148,2.1480268671727494,0.38987262084141777,-1.570992668518648,0.0004028132833713026
0.0007804751408686702,-0.515557037088975,2.1482390831951945,0.3903165191534903,-1.5709926761592274,0.0004013256369695957
0.0007792297481430887,-0.5156153821004544,2.148451090797108,0.3907568231475871,-1.5709926854734346,0.00039983366373332166
0.00077797608131027,-0.5156738901491976,2.1486628885925967,0.3911935576677909,-1.570992696441586,0.00039833744168125474
0.0007767142416826166,-0.5157325587365472,2.1488744752150115,0.3916267474006398,-1.5709927090440574,0.00039683704786377754
0.0007754443294121666,-0.5157913853893829,2.149085849316752,0.39205641687598,-1.5709927232612968,0.00039533255836058073
0.0007741664435344305,-0.5158503676598527,2.1492970095690622,0.39248259046781686,-1.5709927390738072,0.0003938240483258577
0.0007728806819666901,-0.5159095031251186,2.1495079546618374,0.39290529239516414,-1.5709927564621597,0.00039231159198369135
0.000771587141519993,-0.5159687893871,2.1497186833034294,0.39332454672289063,-1.5709927754069977,0.00039079526263845963
0.000770285917892031,-0.5160282240722253,2.149929194220456,0.39374037736256523,-1.5709927958890533,0.0003892751326643991
0.0007689771057024604,-0.5160878048311757,2.1501394861576086,0.39415280807329955,-1.5709928178891353,0.0003877512735415706
0.0007676607985163679,-0.5161475293386343,2.1503495578774623,0.39456186246258856,-1.570992841388125,0.0003862237558788249
0.0007663370888201798,-0.5162073952930486,2.150559408160292,0.3949675639871488,-1.5709928663670025,0.00038469264938488724
0.0007650060680667968,-0.5162674004163795,2.1507690358038865,0.39536993595375414,-1.5709928928068289,0.0003831580229150929
0.0007636678266823987,-0.5163275424538616,2.150978439623363,0.3957690015200697,-1.5709929206887512,0.0003816199444762101
0.00076232245404211,-0.5163878191737732,2.151187618450992,0.3961647836954828,-1.5709929499940294,0.0003800784811973685
0.0007609700385184553,-0.5164482283671917,2.151396571136014,0.39655730534193184,-1.5709929807040144,0.0003785336993804782
0.0007596106674775455,-0.5165087678477637,2.151605296544463,0.3969465891747326,-1.5709930128001608,0.00037698566449353803
0.0007582444273175013,-0.5165694354514668,2.151813793558987,0.397332657763402,-1.5709930462640107,0.0003754344412100768
0.0007568714034180893,-0.5166302290363961,2.152022061078683,0.39771553353247935,-1.570993081077238,0.0003738800933517827
0.0007554916802532683,-0.5166911464825131,2.1522300980189106,0.39809523876234487,-1.570993117221581,0.000372322684008801
0.0007541053413016861,-0.5167521856914453,2.1524379033111356,0.3984717955900357,-1.5709931546789133,0.00037076227543970144
0.0007527124691213382,-0.5168133445862493,2.152645475902752,0.3988452260100592,-1.5709931934312023,0.0003691989291505234
0.0007513131453214807,-0.5168746211112001,2.152852814756921,0.3992155518752034,-1.570993233460537,0.0003676327058617791
0.0007499074505921098,-0.5169360132315693,2.1530599188524024,0.3995827948973453,-1.570993274749117,0.0003660636655382619
0.0007484954647150883,-0.5169975189334101,2.153266787183392,0.39994697664825535,-1.5709933172792545,0.0003644918673988217
0.0007470772665669159,-0.5170591362233453,2.153473418759359,0.4003081185604004,-1.5709933610333795,0.0003629173699170966
0.0007456529341240138,-0.5171208631283589,2.153679812604888,0.4006662419277427,-1.570993405994046,0.0003613402308249965
0.0007442225444770423,-0.5171826976955854,2.1538859677595186,0.4010213679065368,-1.5709934521439304,0.00035976050712606075
0.0007427861738636536,-0.5172446379920989,2.154091883277585,0.40137351751612305,-1.5709934994658166,0.00035817825512882547
0.0007413438976610451,-0.5173066821047119,2.154297558228065,0.40172271163971845,-1.5709935479426098,0.0003565935304364687
0.0007398957903863052,-0.5173688281397762,2.154502991694424,0.4020689710252046,-1.5709935975573441,0.0003550063879450502
0.000738441925693958,-0.5174310742229855,2.154708182774468,0.4024123162859128,-1.5709936482931912,0.0003534168818386976
0.0007369823764624929,-0.5174934184991588,2.1549131305801796,0.4027527679014053,-1.5709937001334102,0.0003518250656814385
0.0007355172147000633,-0.5175558591320691,2.1551178342375845,0.40309034621825507,-1.570993753061418,0.0003502309923125827
0.0007340465116295583,-0.5176183943042321,2.1553222928865927,0.403425071450821,-1.5709938070607394,0.0003486347139371079
0.0007325703376677461,-0.5176810222167204,2.155526505680856,0.40375696368202113,-1.5709938621150288,0.0003470362821008234
0.0007310887624010009,-0.5177437410889825,2.155730471787629,0.40408604286410243,-1.5709939182080923,0.0003454357476620319
0.000729601854640211,-0.5178065491586432,2.15593419038762,0.4044123288194074,-1.5709939753238589,0.0003438331608491193
0.0007281096824526335,-0.517869444681313,2.1561376606748444,0.40473584124113754,-1.5709940334463643,0.00034222857129300165
0.0007266123131138337,-0.517932425930417,2.1563408818564924,0.40505659969411384,-1.5709940925597914,0.00034062202797294975
0.0007251098131807527,-0.5179954911969975,2.1565438531527836,0.40537462361553395,-1.5709941526484261,0.0003390135792938775
0.0007236022484267047,-0.5180586387895514,2.1567465737968377,0.40568993231572664,-1.5709942136967083,0.00033740327301381474
0.0007220896838828623,-0.5181218670338441,2.156949043034534,0.4060025449789027,-1.5709942756892101,0.00033579115628704293
0.0007205721838510168,-0.518185174272732,2.1571512601243774,0.40631248066390263,-1.5709943386106333,0.0003341772756759339
0.0007190498118986756,-0.5182485588659909,2.1573532243373656,0.40661975830494146,-1.570994402445818,0.0003325616771437332
0.000717522630889904,-0.518312019190138,2.1575549349568552,0.4069243967123499,-1.5709944671797287,0.0003309444060860698
0.0007159907029801676,-0.5183755536382643,2.157756391278433,0.40722641457331266,-1.570994532797463,0.00032932550732346904
0.0007144540896337357,-0.5184391606198626,2.1579575926097854,0.40752583045260327,-1.5709945992842453,0.00032770502511831907
0.0007129128516451,-0.5185028385606577,2.158158538270568,0.40782266279331564,-1.5709946666254186,0.0003260830031961822
0.0007113670490511444,-0.5185665859024625,2.1583592275922934,0.4081169299175933,-1.5709947348065088,0.00032445948464895425
0.0007098167412721699,-0.5186304011029836,2.1585596599181875,0.40840865002735366,-1.5709948038131347,0.0003228345120857207
0.000708261987071678,-0.5186942826356697,2.158759834603072,0.4086978412050102,-1.570994873631041,0.0003212081275872989
0.0007067028445085262,-0.5187582289895646,2.1589597510132488,0.40898452141419145,-1.5709949442461353,0.00031958037265276983
0.000705139371009264,-0.5188222386691328,2.159159408526371,0.40926870850045605,-1.5709950156444443,0.00031795128827601045
0.0007035716233647399,-0.5188863101941054,2.159358806531323,0.4095504201920048,-1.5709950878121215,0.0003163209149402048
0.0007019996577016251,-0.5189504420993327,2.159557944428109,0.4098296741003898,-1.570995160735471,0.00031468929258535145
0.0007004235295455056,-0.5190146329346178,2.159756821627724,0.4101064877212192,-1.5709952344009097,0.0003130564606747667
0.0006988432937998754,-0.5190788812645701,2.159955437552044,0.4103808784348601,-1.5709953087949862,0.00031142245817061896
0.0006972590047416704,-0.5191431856684585,2.160153791633712,0.4106528635071369,-1.5709953839043882,0.00030978732352745955
0.0006956707160359882,-0.5192075447400597,2.160351883316023,0.41092246009002725,-1.5709954597159381,0.00030815109470647736
0.000694078480752766,-0.5192719570875092,2.160549712052808,0.41118968522235394,-1.570995536216585,0.00030651380919184413
0.0006924823513731125,-0.519336421333155,2.1607472773083245,0.4114545558304739,-1.5709956133934055,0.0003048755039959175
0.0006908823797809861,-0.5194009361134175,2.1609445785571486,0.41171708872896395,-1.5709956912336132,0.0003032362156486355
0.0006892786172874228,-0.5194655000786418,2.1611416152840603,0.41197730062130283,-1.570995769724547,0.00030159598022209304
0.0006876711146125674,-0.5195301118929626,2.161338386983942,0.4122352081005503,-1.570995848853687,0.0002999548333095414
0.0006860599219287823,-0.519594770234156,2.1615348931616643,0.41249082765002265,-1.57099592860863,0.00029831281007035337
0.0006844450888365926,-0.5196594737935081,2.161731133331984,0.412744175643965,-1.5709960089771084,0.00029666994520248627
0.0006828266643989686,-0.5197242212756716,2.1619271070194372,0.41299526834822003,-1.570996089946973,0.0002950262729779312
0.0006812046970851232,-0.5197890113985453,2.1621228137582422,0.4132441219208944,-1.5709961715062335,0.0002933818271805956
0.0006795792348749942,-0.5198538428931165,2.162318253092185,0.41349075241301986,-1.5709962536429911,0.00029173664121747014
0.0006779503251969767,-0.5199187145033456,2.162513424574525,0.4137351757692131,-1.570996336345486,0.00029009074804991987
0.00067631801493053,-0.5199836249860346,2.1627083277678967,0.41397740782833126,-1.5709964196020978,0.0002884441801950964
0.0006746823504548931,-0.5200485731106879,2.162902962244203,0.414217464324124,-1.5709965034013171,0.00028679696977694345
0.0006730433776111037,-0.5201135576593943,2.1630973275845236,0.41445536088588275,-1.5709965877317744,0.00028514914848382496
0.0006714011417675288,-0.5201785774266857,2.163291423379009,0.414691113039086,-1.5709966725821987,0.0002835007476376617
0.0006697556877465737,-0.5202436312194303,2.163485249226794,0.4149247362060424,-1.570996757941471,0.00028185179811357285
0.0006681070598812794,-0.520308717856696,2.1636788047358966,0.41515624570652937,-1.57099684379859,0.00028020233039946496
0.0006664553020224826,-0.5203738361696273,2.1638720895231227,0.4153856567584288,-1.5709969301426687,0.00027855237460228745
0.0006648004575409482,-0.5204389850013241,2.164065103213973,0.4156129844783596,-1.5709970169629381,0.0002769019604489415
0.0006631425692765158,-0.5205041632067348,2.164257845442557,0.41583824388230745,-1.570997104248784,0.00027525111723024885
0.0006614816796263861,-0.5205693696525174,2.1644503158514925,0.4160614498862499,-1.57099719198969,0.0002735998738946127
0.0006598178305256842,-0.520634603216928,2.1646425140918164,0.416282617306779,-1.5709972801752534,0.0002719482590256664
0.0006581510634518756,-0.5206998627897035,2.1648344398228954,0.4165017608617209,-1.5709973687951864,0.00027029630084571846
0.0006564814194250542,-0.520765147271948,2.1650260927123384,0.4167188951707517,-1.5709974578393178,0.0002686440272147393
0.0006548089389622473,-0.5208304555760305,2.165217472435916,0.416934034756011,-1.570997547297628,0.0002669914655799896
0.000653133662170945,-0.5208957866254509,2.165408578677459,0.41714719404271017,-1.5709976371601875,0.00026533864307529554
0.0006514556286973805,-0.5209611393547418,2.1655994111287837,0.41735838735973957,-1.5709977274171945,0.00026368558646412503
0.0006497748777562419,-0.5210265127093519,2.1657899694896003,0.417567628940271,-1.5709978180589583,0.00026203232217028593
0.000648091448152533,-0.5210919056455329,2.165980253467428,0.41777493292235734,-1.5709979090758868,0.0002603788763001244
0.0006464053781824527,-0.5211573171302554,2.1661702627775257,0.41798031334953034,-1.570998000458557,0.00025872527453488605
0.0006447167057903054,-0.5212227461410662,2.1663599971427865,0.4181837841713922,-1.5709980921976099,0.0002570715422980396
0.0006430254684727992,-0.521288191666006,2.1665494562936733,0.41838535924420656,-1.5709981842838188,0.00025541770465121284
0.0006413317033086211,-0.5213536527034984,2.1667386399681314,0.4185850523314853,-1.5709982767080715,0.00025376378632480676
0.0006396354469954075,-0.5214191282622387,2.166927547911506,0.41878287710457174,-1.5709983694613476,0.0002521098117564608
0.0006379367358055769,-0.5214846173611027,2.167116179876469,0.41897884714322153,-1.5709984625347513,0.00025045580504248007
0.0006362356055975522,-0.5215501190290439,2.1673045356229386,0.41917297593618,-1.570998555919506,0.00024880178994875077
0.0006345320918630782,-0.5216156323049822,2.167492614917998,0.41936527688175573,-1.5709986496069241,0.000247147789960352
0.0006328262296655389,-0.5216811562377207,2.167680417535826,0.4195557632883921,-1.570998743588452,0.0002454938282142476
0.0006311180537315514,-0.5217466898858264,2.1678679432576105,0.4197444483752342,-1.5709988378556088,0.00024383992759639215
0.0006294075983767932,-0.5218122323175516,2.168055191871481,0.41993134527269416,-1.5709989324000402,0.00024218611066104373
0.0006276948975091219,-0.5218777826107376,2.16824216317244,0.4201164670230127,-1.5709990272135188,0.00024053239963309951
0.0006259799846877541,-0.5219433398527067,2.1684288569622745,0.42029982658081694,-1.5709991222879045,0.00023887881647044723
0.0006242628931237917,-0.5220089031401687,2.16861527304949,0.42048143681367534,-1.570999217615147,0.0002372253828633629
0.0006225436556629462,-0.5220744715791324,2.168801411249238,0.4206613105026501,-1.5709993131873,0.00023557212021493745
0.0006208223047655795,-0.5221400442848194,2.168987271383248,0.4208394603428465,-1.570999408996536,0.00023391904961868128
0.0006190988725386394,-0.5222056203815657,2.169172853279754,0.4210158989439586,-1.5709995050351278,0.00023226619189170233
0.0006173733907263331,-0.522271199002735,2.1693581567734266,0.4211906388308117,-1.570999601295456,0.00023061356756368876
0.0006156458907654588,-0.5223367792906166,2.169543181705295,0.4213636924439019,-1.5709996977699725,0.0002289611969350962
0.0006139164036928699,-0.5224023603963601,2.169727927922693,0.4215350721399338,-1.5709997944512675,0.00022730909997708887
0.0006121849602689742,-0.5224679414798595,2.1699123952791743,0.42170479019235224,-1.5709998913319847,0.00022565729646275
0.0006104515908733788,-0.5225335217096919,2.1700965836344617,0.42187285879187464,-1.5709999884048962,0.00022400580585434158
0.0006087163255530183,-0.5225991002630215,2.1702804928543724,0.4220392900470179,-1.571000085662871,0.00022235464735392951
0.0006069791940188529,-0.5226646763255164,2.170464122810754,0.42220409598462283,-1.571000183098879,0.00022070383989884434
0.000605240225677013,-0.5227302490912584,2.170647473381416,0.42236728855037536,-1.5710002807059706,0.0002190534021940598
0.0006034994496103541,-0.5227958177626648,2.170830544450068,0.42252887960932517,-1.5710003784772926,0.0002174033526914624
0.0006017568945768367,-0.5228613815504076,2.1710133359062582,0.42268888094640145,-1.5710004764060892,0.00021575370958721874
0.0006000125890109669,-0.5229269396733329,2.1711958476453073,0.4228473042669253,-1.5710005744857047,0.00021410449082240004
0.0005982665610830261,-0.5229924913583671,2.171378079568242,0.4230041611971185,-1.5710006727095425,0.00021245571414534693
0.0005965188386139385,-0.5230580358404581,2.171560031581743,0.4231594632846113,-1.5710007710711262,0.00021080739701975705
0.0005947694491537783,-0.523123572362479,2.1717417035980744,0.4233132219989451,-1.5710008695640478,0.00020915955670772145
0.000593018419904515,-0.5231891001751691,2.1719230955350346,0.42346544873207437,-1.5710009681820214,0.0002075122101862855
0.0005912657777814368,-0.523254618537043,2.172104207315887,0.4236161547988635,-1.5710010669188432,0.0002058653742122531
0.0005895115494134634,-0.5233201267143156,2.172285038869303,0.42376535143758187,-1.5710011657683924,0.00020421906532161577
0.0005877557611437855,-0.5233856239808262,2.1724655901293013,0.42391304981039574,-1.571001264724632,0.00020257329982935766
0.0005859984390425337,-0.5234511096179623,2.1726458610351917,0.42405926100385716,-1.5710013637816018,0.0002009280938421388
0.0005842396088961671,-0.5235165829145884,2.1728258515315164,0.4242039960293905,-1.5710014629334272,0.00019928346324609103
0.0005824792961857628,-0.5235820431669791,2.1730055615679977,0.4243472658237763,-1.5710015621743356,0.0001976394236828672
0.0005807175261216822,-0.5236474896787391,2.173184991099478,0.42448908124963114,-1.5710016614986342,0.000195995990585828
0.0005789543236653475,-0.523712921760727,2.1733641400858605,0.42462945309588507,-1.5710017609006952,0.00019435317920243848
0.0005771897134968876,-0.5237783387309931,2.173543008492059,0.42476839207825706,-1.5710018603749811,0.00019271100455892128
0.0005754237200230192,-0.5238437399147076,2.173721596287943,0.42490590883972695,-1.5710019599160394,0.0001910694814679043
0.0005736563673902305,-0.523909124644089,2.1738999034482815,0.42504201395100466,-1.5710020595184953,0.0001894286245416965
0.0005718876794600844,-0.5239744922583421,2.1740779299526944,0.4251767179109969,-1.57100215917707,0.000187788448165181
0.0005701176798927786,-0.5240398421035709,2.1742556757855875,0.4253100311472698,-1.5710022588865238,0.0001861489665841341
0.000568346392032446,-0.5241051735327386,2.174433140936116,0.42544196401651135,-1.5710023586417377,0.0001845101937821495
0.0005665738389760144,-0.524170485905586,2.174610325398125,0.4255725268049891,-1.571002458437666,0.00018287214355339245
0.0005648000435952282,-0.5242357785885611,2.1747872291700934,0.4257017297290048,-1.5710025582693226,0.00018123482952526953
0.0005630250284952872,-0.5243010509547638,2.1749638522550905,0.42582958293534795,-1.5710026581318106,0.00017959826511360912
0.0005612488160689264,-0.5243663023838696,2.175140194660719,0.4259560965017451,-1.5710027580202863,0.00017796246357956123
0.0005594714284380222,-0.5244315322620803,2.1753162563990713,0.4260812804373079,-1.5710028579300008,0.00017632743796665355
0.0005576928875249677,-0.524496739982044,2.175492037486674,0.4262051446829768,-1.5710029578562512,0.00017469320117613333
0.0005559132149670691,-0.5245619249428143,2.175667537944448,0.4263276991119644,-1.5710030577944423,0.00017305976587506238
0.0005541324321919291,-0.5246270865497702,2.1758427577976516,0.42644895353019335,-1.5710031577400336,0.00017142714457596306
0.0005523505604106992,-0.5246922242145579,2.176017697075835,0.42656891767673344,-1.5710032576885469,0.00016979534962889494
0.0005505676205737705,-0.5247573373550406,2.176192355812798,0.42668760122423616,-1.5710033576355968,0.0001681643931736054
0.0005487836334329806,-0.5248224253952252,2.176366734046534,0.4268050137793651,-1.5710034575768492,0.00016653428720512142
0.0005469986194803407,-0.5248874877652171,2.176540831819195,0.4269211648832258,-1.571003557508065,0.00016490504350784673
0.0005452125990340959,-0.5249525239011426,2.176714649177032,0.42703606401179045,-1.5710036574250403,0.00016327667374651153
0.000543425592186763,-0.5250175332451026,2.176888186170358,0.42714972057632244,-1.5710037573236448,0.00016164918941016665
0.0005416376187889456,-0.5250825152451204,2.177061442853505,0.42726214392379763,-1.5710038571998335,0.0001600226017943793
0.0005398486984909092,-0.5251474693550748,2.1772344192847743,0.42737334333732213,-1.5710039570496184,0.00015839692204484018
0.0005380588507276128,-0.5252123950346483,2.177407115526395,0.4274833280365484,-1.5710040568690806,0.00015677216114079774
0.0005362680947596534,-0.5252772917492619,2.1775795316444753,0.42759210717808804,-1.5710041566543422,0.00015514832993796703
0.0005344764496214915,-0.5253421589700326,2.1777516677089648,0.42769968985592327,-1.5710042564016033,0.00015352543911283765
0.0005326839341124335,-0.5254069961737217,2.177923523793616,0.427806085101816,-1.5710043561071498,0.00015190349915254284
0.0005308905668583206,-0.5254718028426666,2.1780950999759314,0.4279113018857121,-1.5710044557673106,0.0001502825204198608
0.0005290963663182163,-0.5255365784647262,2.178266396337123,0.42801534911614464,-1.5710045553784537,0.00014866251315965508
0.0005273013506989529,-0.5256013225332485,2.1784374129620807,0.4281182356406367,-1.5710046549370476,0.00014704348740746798
0.0005255055380177637,-0.525666034547004,2.178608149939325,0.4282199702460984,-1.5710047544396177,0.00014542545305559746
0.0005237089461480234,-0.5257307140101234,2.1787786073609587,0.42832056165922205,-1.5710048538827155,0.00014380841990106413
0.0005219115926971931,-0.5257953604320758,2.1789487853226444,0.42842001854687806,-1.5710049532630048,0.0001421923975153512
0.0005201134951723032,-0.5258599733275792,2.179118683923542,0.42851834951650275,-1.5710050525771464,0.0001405773954197257
0.0005183146708186837,-0.5259245522165884,2.179288303266292,0.4286155631164904,-1.571005151821912,0.00013896342291326873
0.0005165151367450249,-0.5259890966242169,2.1794576434569595,0.428711667836577,-1.5710052509940973,0.00013735048920526278
0.0005147149098828654,-0.5260536060806967,2.1796267046050004,0.42880667210822493,-1.5710053500905516,0.00013573860337155063
0.0005129140069305606,-0.526118080121344,2.1797954868232323,0.42890058430500577,-1.5710054491082177,0.00013412777429453306
0.0005111124444682108,-0.5261825182864839,2.1799639902277805,0.4289934127429771,-1.5710055480440515,0.00013251801078471062
0.0005093102388975661,-0.5262469201214172,2.180132214938049,0.4290851656810605,-1.5710056468950653,0.0001309093215162685
0.0005075074064325225,-0.5263112851763758,2.1803001610766852,0.42917585132141634,-1.5710057456583357,0.00012930171501650858
0.0005057039630916219,-0.5263756130064784,2.1804678287695434,0.42926547780981616,-1.5710058443310093,0.00012769519965742893
0.0005038999247504267,-0.5264399031716718,2.1806352181456434,0.4293540532360115,-1.571005942910266,0.00012608978371078073
0.0005020953070957456,-0.5265041552366965,2.180802329337139,0.4294415856341023,-1.571006041393353,0.0001244854752990003
0.0005002901256721837,-0.5265683687710307,2.180969162479277,0.42952808298290124,-1.5710061397775517,0.00012288228244410578
0.0004984843958382338,-0.5266325433488565,2.1811357177103683,0.42961355320629785,-1.57100623806021,0.00012128021302062199
0.0004966781327991477,-0.5266966785490069,2.181301995171749,0.4296980041736185,-1.5710063362387194,0.00011967927478998907
0.0004948713515866265,-0.5267607739549286,2.181467995007747,0.4297814436999851,-1.5710064343105306,0.0001180794753785409
0.000493064067112872,-0.5268248291546247,2.1816337173656426,0.42986387954667066,-1.571006532273115,0.00011648082233435892
0.0004912562940945928,-0.5268888437406306,2.1817991623956443,0.42994531942145453,-1.5710066301240204,0.00011488332304618864
0.0004894480471257825,-0.5269528173099542,2.1819643302508456,0.430025770978973,-1.5710067278608189,0.00011328698482019847
0.00048763934062330875,-0.5270167494640471,2.1821292210871994,0.4301052418210698,-1.5710068254811465,0.00011169181482179374
0.00048583018889180967,-0.5270806398087474,2.1822938350634757,0.43018373949714245,-1.5710069229826582,0.00011009782014398837
0.0004840206060101454,-0.5271444879542659,2.182458172341246,0.4302612715044898,-1.5710070203631086,0.00010850500768660548
0.0004822106059381153,-0.5272082935151203,2.182622233084836,0.4303378452886529,-1.5710071176202771,0.00010691338426900992
0.00048040020253652636,-0.5272720561100896,2.182786017461291,0.4304134682437555,-1.5710072147519545,0.00010532295665086443
0.0004785894095014607,-0.5273357753621907,2.1829495256403533,0.4304881477128442,-1.5710073117559893,0.00010373373146202773
0.00047677824035074367,-0.527399450898641,2.183112757794433,0.4305618909882256,-1.5710074086302988,0.00010214571518784737
0.00047496670849116537,-0.527463082350805,2.1832757140985684,0.4306347053117992,-1.5710075053728219,0.00010055891423997071
0.0004731548272040663,-0.5275266693541576,2.183438394730398,0.4307065978753903,-1.5710076019815293,9.89733349406143e-05
0.0004713426095762124,-0.5275902115482631,2.1836007998701374,0.4307775758210818,-1.5710076984544743,9.738898344895908e-05
0.000469530068592045,-0.5276537085767153,2.1837629297005394,0.43084764624154065,-1.5710077947897263,9.58058658585163e-05
0.0004677172171016207,-0.5277171600871076,2.1839247844068677,0.43091681618034466,-1.5710078909853953,9.422398816270694e-05
0.0004659040678120422,-0.5277805657309976,2.1840863641768675,0.4309850926323067,-1.571007987039638,9.264335624541136e-05
0.0004640906333220984,-0.5278439251638628,2.1842476692007344,0.43105248254379624,-1.5710080829506343,9.106397591724367e-05
0.00046227692605289264,-0.52790723804508,2.184408699671093,0.4311189928130609,-1.5710081787166363,8.948585284174777e-05
0.00046046295834185024,-0.5279705040378674,2.1845694557829565,0.4311846302905423,-1.5710082743359024,8.790899263455697e-05
0.0004586487423852818,-0.5280337228092625,2.1847299377337057,0.4312494017791937,-1.5710083698067387,8.633340080214743e-05
0.00045683429023116385,-0.5280968940300884,2.1848901457230623,0.4313133140347937,-1.571008465127505,8.475908273389815e-05
0.0004550196138347154,-0.5281600173749058,2.185050079953055,0.43137637376625765,-1.5710085602965747,8.318604376052388e-05
0.00045320472502975386,-0.5282230925219852,2.185209740627993,0.4314385876359477,-1.5710086553123568,8.16142891233621e-05
0.0004513896354895492,-0.5282861191532815,2.1853691279544485,0.43149996225998244,-1.5710087501733239,8.004382393263328e-05
0.00044957435676434046,-0.528349096954392,2.18552824214122,0.43156050420854175,-1.5710088448779858,7.847465320682102e-05
0.0004477589003297114,-0.5284120256145107,2.1856870833993036,0.4316202200061702,-1.5710089394248552,7.69067819234516e-05
0.0004459432775136879,-0.5284749048264126,2.185845651941873,0.43167911613208076,-1.5710090338125011,7.534021494161047e-05
0.00044412749950205305,-0.5285377342864191,2.186003947984255,0.4317371990204553,-1.5710091280395444,7.37749570073005e-05
0.000442311577407863,-0.52860051369435,2.1861619717438936,0.4317944750607412,-1.5710092221046095,7.221101282658768e-05
0.00044049552223464155,-0.5286632427534987,2.186319723440329,0.43185095059794876,-1.5710093160063507,7.064838702630677e-05
0.0004386793448429122,-0.5287259211706089,2.1864772032951776,0.43190663193294676,-1.5710094097434768,6.908708411837043e-05
0.00043686305600839,-0.5287885486558288,2.186634411532099,0.43196152532275384,-1.5710095033147093,6.752710856099081e-05
0.00043504666637262355,-0.5288511249226918,2.1867913483767762,0.43201563698083056,-1.5710095967188193,6.596846470613561e-05
0.000433230186468044,-0.5289136496880795,2.186948014056891,0.4320689730773679,-1.5710096899546089,6.441115682574718e-05
0.0004314136267360215,-0.5289761226721864,2.1871044088020937,0.432121539739574,-1.5710097830208993,6.28551891304781e-05
0.0004295969974972754,-0.5290385435984969,2.1872605328439856,0.43217334305196037,-1.571009875916552,6.130056573812005e-05
0.0004277803089694091,-0.5291009121937507,2.1874163864160914,0.4322243890566249,-1.5710099686404573,5.974729069183397e-05
0.00042596357125279714,-0.5291632281879164,2.1875719697538383,0.4322746837535341,-1.571010061191544,5.819536794492507e-05
0.0004241467943608027,-0.5292254913141552,2.1877272830945276,0.4323242331008022,-1.571010153568759,5.6644801392490144e-05
0.0004223299881951964,-0.5292877013087969,2.1878823266773155,0.4323730430149699,-1.5710102457710844,5.509559484514037e-05
0.00042051316257461335,-0.5293498579113046,2.1880371007431867,0.43242111937128025,-1.5710103377975184,5.354775205876786e-05
0.00041869632719018855,-0.5294119608642565,2.188191605534937,0.432468468003954,-1.5710104296471068,5.200127668738689e-05
0.00041687949163955827,-0.5294740099133092,2.1883458412971466,0.43251509470646204,-1.5710105213189196,5.0456172318808114e-05
0.0004150626654522378,-0.5295360048071639,2.188499808276154,0.4325610052317956,-1.5710106128120325,4.891244250111086e-05
0.00041324585802503494,-0.5295979452975537,2.1886535067200437,0.4326062052927372,-1.5710107041255743,4.7370090674164055e-05
0.00041142907866054904,-0.5296598311392069,2.188806936878617,0.43265070056212757,-1.5710107952586991,4.5829120210043625e-05
0.00040961233657069537,-0.5297216620898191,2.188960099003373,0.43269449667313137,-1.5710108862105845,4.428953441646256e-05
0.000407795640877958,-0.5297834379100254,2.189112993347484,0.4327375992195013,-1.5710109769804306,4.2751336537841504e-05
0.00040597900063601565,-0.5298451583633693,2.189265620165774,0.4327800137558401,-1.5710110675674462,4.1214529776769344e-05
0.0004041624247592042,-0.5299068232162926,2.1894179797147055,0.4328217457978633,-1.5710111579708994,3.9679117219313877e-05
0.00040234592209177514,-0.5299684322380925,2.18957007225235,0.43286280082265666,-1.5710112481900682,3.814510190789997e-05
0.00040052950140249624,-0.5300299852008976,2.189721898038369,0.43290318426893354,-1.571011338224245,3.661248683530221e-05
0.0003987131713659488,-0.5300914818796458,2.1898734573339937,0.4329429015372914,-1.57101142807275,3.508127492467988e-05
0.0003968969405677843,-0.5301529220520582,2.190024750402007,0.4329819579904659,-1.5710115177349282,3.355146903484916e-05
0.0003950808174788517,-0.5302143054986194,2.190175777506725,0.4330203589535839,-1.5710116072101676,3.202307193279021e-05
0.00039326481050400614,-0.5302756320025412,2.190326538913972,0.43305810971441344,-1.5710116964978653,3.0496086344884978e-05
0.00039144892795937777,-0.5303369013497437,2.190477034891062,0.43309521552361346,-1.5710117855974437,2.8970514932684327e-05
0.0003896331780760038,-0.5303981133288289,2.1906272657067816,0.43313168159498144,-1.5710118745083481,2.7446360296507955e-05
0.0003878175690328447,-0.5304592677310496,2.1907772316313636,0.4331675131056986,-1.571011963230024,2.592362501002216e-05
0.0003860021088630139,-0.5305203643503067,2.1909269329364824,0.433202715196577,-1.5710120517619832,2.4402311521110863e-05
0.00038418680557052,-0.5305814029830984,2.1910763698952183,0.43323729297229924,-1.5710121401037225,2.2882422274800293e-05
0.00038237166708444265,-0.5306423834285072,2.1912255427820457,0.4332712515016612,-1.5710122282547552,2.136395966465284e-05
0.0003805567012137632,-0.530703305488187,2.191374451872821,0.4333045958178129,-1.5710123162146443,1.9846925984943453e-05
0.00037874191570066746,-0.5307641689663277,2.191523097444756,0.43333733091849547,-1.571012403982965,1.8331323486665068e-05
0.00037692731823193054,-0.5308249736696293,2.1916714797763985,0.43336946176627766,-1.5710124915592958,1.6817154389274638e-05
0.000375112916394112,-0.53088571940729,2.191819599147621,0.43340099328879206,-1.5710125789432523,1.5304420833247625e-05
0.0003732987176959513,-0.5309464059909784,2.1919674558396,0.43343193037896816,-1.57101266613447,1.3793124903518651e-05
0.00037148472957411406,-0.5310070332348097,2.1921150501347966,0.43346227789526454,-1.5710127531326017,1.2283268635295426e-05
0.00036967095939534366,-0.5310676009553232,2.19226238231694,0.4334920406618994,-1.571012839937315,1.077485401611151e-05
0.0003678574144390816,-0.5311281089714649,2.192409452671011,0.4335212234690801,-1.5710129265483066,9.267882967327114e-06
0.0003660441019400937,-0.531188557104555,2.1925562614832206,0.4335498310732299,-1.5710130129652704,7.762357388826396e-06
0.0003642310290440897,-0.5312489451782778,2.192702809040999,0.4335778681972151,-1.5710130991879305,6.258279112043106e-06
0.00036241820282986443,-0.5313092730186546,2.192849095632974,0.43360533953056934,-1.5710131852160258,4.755649923123206e-06
0.00036060563028399433,-0.5313695404540292,2.1929951215489596,0.4336322497297176,-1.5710132710493276,3.254471536049854e-06
0.0003587933183542919,-0.5314297473150338,2.1931408870799327,0.43365860341819656,-1.5710133566876023,1.7547456487821834e-06
0.00035698127390919787,-0.5314898934345785,2.193286392518021,0.4336844051868761,-1.57101344213064,2.5647390023789744e-07
0.0003551695037309459,-0.5315499786478324,2.1934316381564876,0.4337096595941785,-1.5710135273782608,-1.2403421370292896e-06
0.00035335801452213183,-0.5316100027922015,2.1935766242897152,0.43373437116629565,-1.5710136124303087,-2.7357009501077076e-06
0.0003515468129618162,-0.5316699657072956,2.193721351213182,0.4337585443974039,-1.5710136972866133,-4.22960102683193e-06
0.0003497359056494869,-0.5317298672349218,2.193865819223454,0.43378218374988015,-1.5710137819470291,-5.7220409150147755e-06
0.0003479252990849004,-0.5317897072190693,2.1940100286181723,0.4338052936545158,-1.5710138664114508,-7.213019243813218e-06
0.0003461149997457939,-0.5318494855058716,2.1941539796960257,0.43382787851072663,-1.5710139506797576,-8.702534642077677e-06
0.00034430501401399704,-0.5319092019436051,2.194297672756748,0.4338499426867652,-1.5710140347518662,-1.0190585816351355e-05
0.0003424953482194508,-0.531968856382659,2.1944411081010946,0.4338714905199291,-1.5710141186276998,-1.167717150466434e-05
0.00034068600864449006,-0.5320284486755154,2.1945842860308287,0.43389252631676867,-1.5710142023071854,-1.3162290472226035e-05
0.00033887700148984255,-0.5320879786767387,2.19472720684871,0.4339130543532941,-1.5710142857902776,-1.4645941547377661e-05
0.0003370683329132202,-0.5321474462429484,2.1948698708584757,0.4339330788751798,-1.5710143690769323,-1.6128123581153322e-05
0.0003352600089790692,-0.5322068512328115,2.195012278364832,0.4339526040979696,-1.571014452167142,-1.7608835500302378e-05
0.00033345203572438437,-0.5322661935070095,2.19515442967343,0.4339716342072773,-1.57101453506089,-1.9088076238208882e-05
0.0003316444190926336,-0.5323254729282357,2.195296325090864,0.4339901733589898,-1.5710146177581958,-2.0565844804566394e-05
0.0003298371650294779,-0.5323846893611546,2.1954379649246394,0.43400822567946423,-1.5710147002590495,-2.2042140184836087e-05
0.0003280302793469428,-0.5324438426724164,2.195579349483181,0.43402579526573015,-1.5710147825635072,-2.3516961483329995e-05
0.0003262237678330596,-0.5325029327306134,2.1957204790758027,0.434042886185684,-1.5710148646716138,-2.4990307807968217e-05
0.00032441763620512105,-0.5325619594062739,2.1958613540127008,0.43405950247828623,-1.5710149465834362,-2.6462178319631622e-05
0.0003226118901310553,-0.5326209225718395,2.1960019746049366,0.43407564815375554,-1.5710150282990485,-2.7932572209830303e-05
0.0003208065352359804,-0.5326798221016465,2.1961423411644234,0.434091327193762,-1.5710151098185268,-2.940148869394385e-05
0.00031900157707395906,-0.5327386578719163,2.1962824540039154,0.4341065435516198,-1.5710151911419707,-3.086892704112162e-05
0.00031719702115514287,-0.5327974297607313,2.1964223134369925,0.43412130115247793,-1.5710152722694837,-3.2334886545834e-05
0.00031539287293841497,-0.5328561376480205,2.1965619197780466,0.4341356038935095,-1.5710153532011777,-3.379936653579481e-05
0.0003135891378183967,-0.5329147814155462,2.196701273342272,0.43414945564410096,-1.5710154339371842,-3.5262366385738184e-05
0.0003117858211281262,-0.5329733609468867,2.196840374445651,0.43416286024603884,-1.5710155144776512,-3.6723885514748605e-05
0.00030998292817288305,-0.5330318761274127,2.196979223404937,0.43417582151369505,-1.57101559482272,-3.8183923350843115e-05
0.00030818046416609236,-0.5330903268442855,2.197117820537652,0.43418834323421335,-1.5710156749725706,-3.964247939849101e-05
0.0003063784342947191,-0.533148712986427,2.1972561661620627,0.4342004291676911,-1.5710157549273758,-4.109955316998005e-05
0.00030457684370571535,-0.533207034444506,2.197394260597172,0.43421208304736186,-1.5710158346873102,-4.2555144199835004e-05
0.00030277569750499324,-0.5332652911109235,2.197532104162706,0.4342233085797767,-1.5710159142525522,-4.400925204603847e-05
0.0003009750007034683,-0.5333234828798097,2.19766969717911,0.4342341094449856,-1.5710159936233221,-4.546187634685082e-05
0.0002991747582889805,-0.5333816096469921,2.197807039967526,0.4342444892967142,-1.571016072799831,-4.691301674533936e-05
0.0002973749752293442,-0.5334396713099794,2.1979441328497806,0.43425445176254157,-1.5710161517822785,-4.836267288633062e-05
0.0002955756563794027,-0.5334976677679684,2.1980809761483866,0.4342640004440789,-1.57101623057092,-4.981084451420714e-05
0.0002937768065685403,-0.5335555989218085,2.198217570186518,0.43427313891714275,-1.571016309166004,-5.1257531381027844e-05
0.0002919784305762326,-0.533613464673993,2.198353915288004,0.4342818707319296,-1.5710163875677894,-5.270273327235682e-05
0.00029018053316826774,-0.5336712649286355,2.1984900117773103,0.43429019941318797,-1.5710164657765198,-5.4146449969368785e-05
0.00028838311905269513,-0.5337289995914661,2.198625859979535,0.43429812846039145,-1.571016543792456,-5.558868129525531e-05
0.00028658619287718387,-0.5337866685698179,2.1987614602203984,0.4343056613479096,-1.5710166216158772,-5.702942711809639e-05
0.00028478975922770504,-0.5338442717726126,2.1988968128262307,0.43431280152517765,-1.5710166992470824,-5.846868735233968e-05
0.0002829938226672726,-0.5339018091103378,2.199031918123956,0.4343195524168638,-1.5710167766863632,-5.9906461918247716e-05
0.0002811983877328908,-0.5339592804950333,2.199166776441084,0.43432591742303694,-1.5710168539340053,-6.1342750745228e-05
0.00027940345887243805,-0.5340166858402925,2.1993013881057037,0.4343318999193345,-1.5710169309903348,-6.277755383822817e-05
0.0002776090405256046,-0.5340740250612297,2.199435753446466,0.4343375032571256,-1.5710170078556596,-6.421087119282671e-05
0.000275815137073609,-0.5341312980744781,2.1995698727925768,0.4343427307636764,-1.5710170845303062,-6.564270284819244e-05
0.00027402175286041957,-0.5341885047981715,2.199703746473786,0.4343475857423128,-1.5710171610146042,-6.707304886488704e-05
0.000272228892166456,-0.5342456451519372,2.1998373748203788,0.4343520714725831,-1.571017237308906,-6.850190935257223e-05
0.00027043655927395276,-0.5343027190568673,2.199970758163158,0.43435619121041685,-1.5710173134135388,-6.992928440149862e-05
0.00026864475838947477,-0.5343597264355241,2.200103896833443,0.4343599481882873,-1.571017389328862,-7.135517416399103e-05
0.0002668534936817855,-0.5344166672119178,2.2002367911630563,0.434363345615369,-1.5710174650552384,-7.277957881476964e-05
0.0002650627692677657,-0.5344735413114976,2.200369441484314,0.4343663866776958,-1.5710175405930464,-7.420249856582894e-05
0.0002632725892365343,-0.5345303486611327,2.2005018481300125,0.43436907453831713,-1.5710176159426612,-7.562393364122723e-05
0.00026148295767356935,-0.5345870891890941,2.2006340114334177,0.434371412337453,-1.571017691104438,-7.70438842518938e-05
0.00025969387857345506,-0.5346437628250632,2.2007659317282644,0.43437340319265105,-1.5710177660787759,-7.846235068729222e-05
0.00025790535591370715,-0.5347003695001011,2.200897609348738,0.4343750501989382,-1.5710178408660633,-7.987933323803302e-05
0.0002561173936036641,-0.5347569091466493,2.201029044629472,0.43437635642897476,-1.5710179154667163,-8.129483224960712e-05
0.0002543299955635807,-0.5348133816984983,2.201160237905527,0.43437732493320386,-1.5710179898811212,-8.27088480394857e-05
0.00025254316565310786,-0.5348697870907926,2.201291189512393,0.4343779587400041,-1.571018064109686,-8.412138097228943e-05
0.0002507569077075624,-0.53492612526001,2.2014218997859736,0.4343782608558382,-1.571018138152815,-8.553243142180669e-05
0.0002489712254870374,-0.5349823961439623,2.201552369062583,0.4343782342654031,-1.5710182120109448,-8.694199982449268e-05
0.0002471861227468381,-0.5350385996817661,2.20168259767893,0.4343778819317758,-1.5710182856844948,-8.835008660562686e-05
0.00024540160319556545,-0.5350947358138421,2.2018125859721116,0.43437720679656106,-1.5710183591738964,-8.975669222341398e-05
0.00024361767050552373,-0.5351508044819003,2.2019423342796065,0.43437621178003705,-1.5710184324795866,-9.116181715814413e-05
0.0002418343283098715,-0.5352068056289295,2.2020718429392634,0.4343748997813001,-1.5710185056020094,-9.256546191526781e-05
0.00024005158020811248,-0.5352627391991848,2.2022011122892926,0.43437327367840867,-1.5710185785416122,-9.396762701974251e-05
0.00023826942977079848,-0.535318605138175,2.202330142668257,0.43437133632852565,-1.571018651298843,-9.53683130111672e-05
0.00023648788051725987,-0.5353744033926571,2.2024589344150667,0.4343690905680614,-1.5710187238741662,-9.676752046724248e-05
0.00023470693596959683,-0.5354301339106122,2.202587487868963,0.4343665392128129,-1.5710187962680238,-9.816524994721861e-05
0.0002329265995871103,-0.5354857966412504,2.202715803369518,0.4343636850581059,-1.5710188684808828,-9.956150206077542e-05
0.000231146874788907,-0.5355413915349944,2.202843881256625,0.43436053087893356,-1.5710189405132193,-0.00010095627744436254
0.00022936776497648565,-0.5355969185434631,2.2029717218704863,0.4343570794300937,-1.5710190123655021,-0.00010234957673760312
0.00022758927348539806,-0.5356523776194735,2.2030993255516114,0.4343533334463279,-1.5710190840382274,-0.00010374140063407024
0.0002258114036977819,-0.5357077687170022,2.203226692640794,0.43434929564245445,-1.5710191555318387,-0.00010513174976338379
0.0002240341588778006,-0.5357630917912147,2.203353823479126,0.43434496871350864,-1.5710192268468446,-0.00010652062486384731
0.00022225754228604694,-0.535818346798428,2.2034807184079748,0.4343403553348743,-1.571019297983737,-0.00010790802666251304
0.00022048155716767261,-0.5358735336961026,2.203607377768976,0.4343354581624177,-1.5710193689429994,-0.00010929395588776313
0.00021870620673207811,-0.5359286524428375,2.2037338019040296,0.43433027983262096,-1.5710194397251225,-0.00011067841329066749
0.00021693149414414733,-0.5359837029983624,2.203859991155293,0.4343248229627145,-1.5710195103306093,-0.00011206139965427305
0.00021515742253041956,-0.5360386853235258,2.203985945865172,0.434319090150808,-1.5710195807599718,-0.00011344291578715516
0.0002133839950258079,-0.5360935993802743,2.2041116663763076,0.4343130839760188,-1.5710196510136976,-0.00011482296247456045
0.00021161121472650508,-0.5361484451316539,2.204237153031575,0.4343068069986033,-1.5710197210922827,-0.00011620154052787037
0.00020983908465850869,-0.5362032225418076,2.20436240617408,0.43430026176008607,-1.571019790996256,-0.00011757865081761091
0.0002080676078378899,-0.5362579315759516,2.204487426147143,0.4342934507833859,-1.5710198607261343,-0.00011895429421037052
0.0002062967872821178,-0.536312572200363,2.2046122132942934,0.43428637657294206,-1.5710199302824157,-0.00012032847155702154
0.00020452662593489724,-0.5363671443823883,2.2047367679592673,0.434279041614843,-1.571019999665633,-0.00012170118377156
0.000202757126718173,-0.5364216480904215,2.2048610904859975,0.4342714483769495,-1.571020068876317,-0.00012307243177665564
0.00020098829254265566,-0.5364760832938922,2.2049851812186043,0.4342635993090189,-1.5710201379149877,-0.00012444221649269438
0.00019922012632371238,-0.5365304499632529,2.205109040501385,0.43425549684282827,-1.5710202067821446,-0.00012581053882124317
0.0001974526308703591,-0.536584748069996,2.2052326686788235,0.43424714339230014,-1.571020275478346,-0.00012717739976139827
0.00019568580901464515,-0.5366389775866138,2.2053560660955647,0.4342385413536208,-1.571020344004116,-0.00012854280027427596
0.00019391966355368202,-0.5366931384866039,2.2054792330964164,0.43422969310536286,-1.5710204123599862,-0.0001299067413438398
0.00019215419725407643,-0.5367472307444586,2.2056021700263426,0.4342206010086057,-1.571020480546493,-0.00013126922397230565
0.00019038941287020925,-0.5368012543356521,2.2057248772304527,0.4342112674070541,-1.5710205485641637,-0.0001326302491610852
0.0001886253130856976,-0.5368552092366453,2.205847355054004,0.434201694627159,-1.5710206164135605,-0.00013398981797214279
0.00018686190061828101,-0.5369090954248529,2.2059696038423806,0.43419188497823197,-1.571020684095203,-0.0001353479314181988
0.00018509917811339405,-0.536962912878659,2.2060916239411026,0.43418184075256566,-1.5710207516096462,-0.0001367045905742953
0.00018333714818672932,-0.5370166615773996,2.206213415695811,0.434171564225549,-1.5710208189574497,-0.0001380597965332371
0.00018157581345054993,-0.5370703415013469,2.2063349794522615,0.4341610576557818,-1.571020886139159,-0.0001394135503781049
0.00017981517651498142,-0.5371239526317014,2.2064563155563155,0.4341503232851895,-1.571020953155304,-0.00014076585318099932
0.00017805523993187804,-0.5371774949505965,2.206577424353942,0.4341393633391391,-1.5710210200064407,-0.0001421167060618805
0.00017629600622436054,-0.5372309684410832,2.206698306191208,0.4341281800265515,-1.5710210866931287,-0.00014346611015767007
0.00017453747791324067,-0.537284373087116,2.2068189614142693,0.43411677554001316,-1.571021153215913,-0.00014481406659465427
0.00017277965749155439,-0.5373377088735503,2.2069393903693655,0.4341051520558887,-1.571021219575343,-0.0001461605765152078
0.000171022547385676,-0.5373909757861441,2.2070595934028225,0.4340933117344333,-1.5710212857719992,-0.0001475056411185682
0.00016926615005106985,-0.5374441738115275,2.2071795708610322,0.43408125671989983,-1.5710213518064255,-0.00014884926156062084
0.00016751046791162592,-0.5374973029372083,2.2072993230904543,0.4340689891406506,-1.5710214176791726,-0.0001501914390175291
0.00016575550335490763,-0.5375503631515662,2.2074188504376115,0.43405651110926613,-1.5710214833908014,-0.0001515321746907151
0.00016400125871656856,-0.5376033544438483,2.2075381532490863,0.43404382472265385,-1.5710215489418946,-0.0001528714698232392
0.00016224773637202593,-0.5376562768041397,2.207657231871503,0.43403093206215276,-1.5710216143329905,-0.00015420932560388978
0.00016049493864297423,-0.5377091302233783,2.207776086651535,0.4340178351936429,-1.5710216795646506,-0.00015554574326512327
0.0001587428678169907,-0.5377619146933422,2.2078947179358943,0.43400453616765083,-1.5710217446374455,-0.00015688072406257907
0.00015699152616913616,-0.5378146302066374,2.208013126071326,0.43399103701945424,-1.5710218095519395,-0.0001582142692525124
0.00015524091595273863,-0.5378672767566925,2.2081313114046033,0.4339773397691869,-1.5710218743086972,-0.00015954638010150926
0.00015349103940865154,-0.537919854337749,2.2082492742825193,0.4339634464219422,-1.5710219389082771,-0.00016087705787683944
0.00015174189873987256,-0.5379723629448603,2.2083670150518873,0.43394935896787706,-1.5710220033512499,-0.00016220630387309167
0.00014999349615208137,-0.5380248025738743,2.208484534059528,0.43393507938231346,-1.5710220676381692,-0.0001635341193697994
0.00014824583379664035,-0.5380771732214404,2.208601831652274,0.4339206096258418,-1.5710221317696134,-0.00016486050569112257
0.0001464989138290918,-0.5381294748849882,2.2087189081769547,0.43390595164442036,-1.5710221957461423,-0.00016618546414470507
0.00014475273835842163,-0.5381817075627322,2.2088357639804,0.4338911073694775,-1.5710222595683352,-0.00016750899607479843
0.0001430073094955413,-0.538233871253654,2.2089523994094264,0.4338760787180097,-1.5710223232367548,-0.00016883110281158713
0.00014126262931398316,-0.538285965957504,2.2090688148108395,0.4338608675926823,-1.5710223867519768,-0.0001701517857123641
0.00013951869989346836,-0.5383379916747846,2.2091850105314217,0.4338454758819262,-1.5710224501145578,-0.00017147104611601072
0.00013777552326620844,-0.5383899484067559,2.209300986917935,0.4338299054600378,-1.571022513325074,-0.00017278888539921494
0.0001360331014777251,-0.5384418361554146,2.209416744317109,0.43381415818727415,-1.5710225763840777,-0.0001741053049128962
0.000134291436509885,-0.5384936549235056,2.209532283075643,0.4337982359099518,-1.5710226392921534,-0.00017542030606277305
0.00013255053033422055,-0.5385454047145027,2.2096476035401986,0.4337821404605413,-1.5710227020498786,-0.0001767338902536133
0.0001308103849233906,-0.5385970855325993,2.2097627060573894,0.4337658736577618,-1.571022764657816,-0.00017804605887730126
0.00012907100223038843,-0.5386486973827065,2.2098775909737824,0.43374943730667664,-1.5710228271165287,-0.0001793568133346419
0.00012733238418695977,-0.5387002402704474,2.209992258635891,0.43373283319878714,-1.5710228894265812,-0.00018066615503706926
0.00012559453268569767,-0.5387517142021547,2.2101067093901743,0.43371606311212674,-1.571022951588552,-0.00018197408542540812
0.00012385744962389734,-0.5388031191848542,2.210220943583026,0.4336991288113523,-1.5710230136030034,-0.0001832806059240491
0.00012212113686852982,-0.5388544552262664,2.210334961560775,0.4336820320478374,-1.5710230754705052,-0.00018458571797762925
0.00012038559626630728,-0.5389057223347979,2.2104487636696795,0.43366477455976343,-1.5710231371916288,-0.00018588942304055786
0.00011865082965370359,-0.5389569205195334,2.2105623502559206,0.4336473580722104,-1.571023198766939,-0.00018719172256656576
0.00011691683884058112,-0.5390080497902324,2.2106757216656017,0.4336297842972476,-1.5710232601970069,-0.00018849261802589466
0.0001151836256270006,-0.5390591101573202,2.2107888782447396,0.4336120549340228,-1.5710233214823974,-0.00018979211088774816
0.00011345119179322426,-0.5391101016318834,2.2109018203392634,0.4335941716688517,-1.5710233826236764,-0.00019109020263078955
0.00011171953908064324,-0.5391610242256688,2.2110145482950125,0.43357613617530727,-1.5710234436214243,-0.00019238689476311653
0.00010998866926126241,-0.539211877951061,2.2111270624577224,0.43355795011430504,-1.5710235044761869,-0.0001936821887496686
0.00010825858404672741,-0.5392626628210976,2.2112393631730334,0.43353961513419365,-1.5710235651885405,-0.00019497608610740278
0.00010652928513802713,-0.5393133788494523,2.2113514507864798,0.43352113287084,-1.571023625759056,-0.00019626858835332245
0.00010480077423735812,-0.5393640260504257,2.211463325643484,0.433502504947715,-1.5710236861882905,-0.00019755969699215384
0.00010307305303560655,-0.5394146044389427,2.2115749880893536,0.4334837329759795,-1.5710237464767969,-0.0001988494135294699
0.00010134612321601952,-0.5394651140305461,2.211686438469278,0.4334648185545693,-1.5710238066251208,-0.0002001377394679139
9.961998639606041e-05,-0.5395155548414042,2.211797677128332,0.4334457632702816,-1.5710238666338427,-0.00020142467636798347
9.789464420479085e-05,-0.5395659268882876,2.2119087044114605,0.4334265686978563,-1.5710239265035224,-0.0002027102257671826
9.617009825285168e-05,-0.5396162301885702,2.21201952066348,0.4334072364000602,-1.5710239862347202,-0.0002039943892114579
9.444635011156662e-05,-0.5396664647602286,2.212130126229077,0.4333877679277707,-1.5710240458280127,-0.00020527716827706786
9.27234013931586e-05,-0.5397166306218181,2.2122405214527934,0.43336816482005525,-1.5710241052839347,-0.0002065585644867786
9.100125365398179e-05,-0.5397667277924897,2.2123507066790356,0.4333484286042563,-1.5710241646030487,-0.00020783857941107146
8.927990842686411e-05,-0.5398167562919772,2.2124606822520665,0.43332856079607146,-1.5710242237859229,-0.00020911721463434094
8.75593672609386e-05,-0.5398667161405827,2.212570448515997,0.4333085628996325,-1.5710242828331007,-0.00021039447171332094
8.583963165345899e-05,-0.539916607359187,2.2126800058147915,0.4332884364075879,-1.5710243417451517,-0.00021167035224838515
8.412070311403524e-05,-0.5399664299692296,2.2127893544922546,0.43326818280118035,-1.5710244005226244,-0.0002129448578164461
8.240258311678718e-05,-0.5400161839927144,2.212898494892035,0.433247803550327,-1.5710244591660807,-0.00021421799002100064
8.068527313226452e-05,-0.5400658694521974,2.213007427357617,0.4332273001136972,-1.5710245176760738,-0.00021548975045880949
7.896877460338705e-05,-0.5401154863707868,2.2131161522323213,0.4332066739387911,-1.571024576053165,-0.00021676014074506068
7.725308899025309e-05,-0.5401650347721276,2.2132246698592946,0.4331859264620155,-1.571024634297891,-0.00021802916246659948
7.553821773340442e-05,-0.5402145146804055,2.213332980581511,0.4331650591087621,-1.571024692410792,-0.00021929681722038341
7.382416223770896e-05,-0.540263926120345,2.2134410847417714,0.43314407329348437,-1.5710247503924217,-0.00022056310663032364
7.21109239057062e-05,-0.5403132691171973,2.2135489826826955,0.4331229704197724,-1.5710248082433245,-0.00022182803231246784
7.039850413101101e-05,-0.5403625436967365,2.2136566747467192,0.4331017518804284,-1.5710248659640396,-0.00022309159588196058
6.868690427026399e-05,-0.5404117498852616,2.2137641612760954,0.4330804190575425,-1.5710249235551217,-0.00022435379898235675
6.69761256733863e-05,-0.5404608877095846,2.2138714426128865,0.4330589733225664,-1.571024981017119,-0.00022561464325405442
6.526616970288931e-05,-0.5405099571970204,2.2139785190989585,0.43303741603638607,-1.5710250383505597,-0.00022687413031416718
6.355703770980665e-05,-0.5405589583753889,2.2140853910759812,0.43301574854939634,-1.571025095555969,-0.0002281322617817047
6.184873099449057e-05,-0.5406078912730187,2.21419205888543,0.432993972201575,-1.5710251526338979,-0.00022938903931856206
6.014125084872602e-05,-0.5406567559187326,2.214298522868578,0.4329720883225537,-1.5710252095848922,-0.00023064446458553612
5.843459856049716e-05,-0.5407055523418424,2.2144047833664913,0.43295009823168984,-1.5710252664094901,-0.0002318985392373854
5.672877540405326e-05,-0.5407542805721458,2.2145108407200276,0.4329280032381383,-1.5710253231082285,-0.00023315126493325862
5.502378263619291e-05,-0.5408029406399234,2.2146166952698345,0.4329058046409225,-1.5710253796816462,-0.00023440264334059183
5.331962151017043e-05,-0.5408515325759305,2.2147223473563433,0.4328835037290043,-1.5710254361302738,-0.00023565267612062968
5.16162932655009e-05,-0.5409000564113953,2.2148277973197685,0.4328611017813546,-1.5710254924546414,-0.0002369013649391058
4.991379911916389e-05,-0.5409485121780161,2.2149330455001057,0.43283860006702296,-1.5710255486552844,-0.00023814871147546007
4.8212140275424874e-05,-0.5409968999079552,2.215038092237127,0.4328159998452064,-1.5710256047327371,-0.00023939471741261383
4.651131795028735e-05,-0.5410452196338281,2.2151429378703758,0.43279330236531727,-1.5710256606875148,-0.0002406393844114591
4.481133335250916e-05,-0.5410934713887041,2.215247582739165,0.43277050886705193,-1.5710257165201278,-0.00024188271413075658
4.3112187634206786e-05,-0.5411416552061135,2.2153520271825835,0.43274762058046007,-1.5710257722311165,-0.0002431247082787018
4.141388194647057e-05,-0.5411897711200302,2.2154562715394825,0.4327246387260103,-1.5710258278210125,-0.00024436536855488694
3.971641745190577e-05,-0.5412378191648645,2.2155603161484736,0.4327015645146563,-1.5710258832903283,-0.00024560469663724487
3.8019795293279945e-05,-0.5412857993754662,2.21566416134793,0.4326783991479043,-1.5710259386395806,-0.00024684269421483904
3.632401658016799e-05,-0.541333711787124,2.2157678074759843,0.43265514381787945,-1.5710259938693003,-0.00024807936300179676
3.462908244025486e-05,-0.5413815564355486,2.215871254870521,0.4326317997073895,-1.571026048979995,-0.00024931470468380875
3.293499399033617e-05,-0.541429333356876,2.2159745038691763,0.43260836798999086,-1.57102610397217,-0.0002505487209484409
3.124175231123348e-05,-0.5414770425876692,2.2160775548093388,0.43258484983005385,-1.571026158846347,-0.00025178141351133555
2.9549358473014616e-05,-0.541524684164908,2.216180408028144,0.4325612463828263,-1.5710262136030455,-0.00025301278408990574
2.7857813569026727e-05,-0.5415722581259772,2.2162830638624684,0.43253755879449574,-1.5710262682427585,-0.0002542428343678501
2.6167118648825904e-05,-0.5416197645086787,2.2163855226489337,0.4325137882022554,-1.5710263227660006,-0.00025547156606522194
2.4477274742077423e-05,-0.5416672033512212,2.216487784723902,0.43248993573436584,-1.5710263771732913,-0.0002566989809134647
2.2788282902488422e-05,-0.5417145746922066,2.2165898504234693,0.43246600251021616,-1.571026431465123,-0.0002579250806095908
2.110014415724182e-05,-0.5417618785706378,2.2166917200834666,0.43244198964038766,-1.5710264856419978,-0.00025914986686902255
1.9412859517356262e-05,-0.5418091150259124,2.216793394039459,0.43241789822671506,-1.57102653970442,-0.0002603733414147925
1.7726429968749843e-05,-0.5418562840978213,2.2168948726267423,0.4323937293623481,-1.5710265936529026,-0.00026159550598689647
1.6040856520952307e-05,-0.5419033858265327,2.216996156180336,0.4323694841318106,-1.571026647487932,-0.0002628163622914709
1.4356140138576482e-05,-0.5419504202526055,2.21709724503499,0.4323451636110632,-1.5710267012100174,-0.00026403591207235734
1.2672281797086532e-05,-0.5419973874169716,2.217198139525172,0.43232076886756127,-1.5710267548196517,-0.00026525415705292967
1.0989282488688335e-05,-0.5420442873609311,2.217298839985069,0.4322963009603146,-1.5710268083173058,-0.00026647109892998704
9.307143128322161e-06,-0.5420911201261713,2.217399346748594,0.43227176093994935,-1.5710268617034973,-0.000267686739471855
7.625864655188065e-06,-0.5421378857547383,2.217499660149372,0.43224714984876383,-1.5710269149787175,-0.0002689010804124775
5.945448018183331e-06,-0.5421845842890374,2.2175997805207395,0.4322224687207869,-1.5710269681434412,-0.0002701141234666684
4.2658941307434685e-06,-0.54223121577184,2.217699708195747,0.43219771858183786,-1.57102702119816,-0.0002713258703772347
2.5872038869756484e-06,-0.5422777802462763,2.2177994435071575,0.43217290044958323,-1.5710270741433707,-0.0002725363228981718
9.093782001958745e-07,-0.5423242777558226,2.2178989867874366,0.4321480153335928,-1.571027126979547,-0.0002737454827544794
-7.67582043924596e-07,-0.542370708344309,2.217998338368758,0.43212306423539804,-1.5710271797071738,-0.0002749533516910882
-2.4436759652000683e-06,-0.5424170720559107,2.2180974985829987,0.43209804814854763,-1.5710272323267311,-0.0002761599314497655
-4.1189026915619515e-06,-0.5424633689351451,2.218196467761736,0.4320729680586638,-1.5710272848386961,-0.00027736522377187994
-5.793261330193162e-06,-0.5425095990268617,2.2182952462362424,0.43204782494349686,-1.5710273372435224,-0.00027856923036833394
-7.4667510663742695e-06,-0.5425557623762619,2.218393834337498,0.432022619772984,-1.571027389541711,-0.00027977195302269066
-9.139371044607792e-06,-0.5426018590288679,2.21849223239617,0.43199735350930013,-1.5710274417337253,-0.0002809733934671699
-1.0811120416860789e-05,-0.5426478890305304,2.2185904407426205,0.431972027106914,-1.5710274938200253,-0.0002821735534330542
-1.2481998379752558e-05,-0.5426938524274343,2.218688459706906,0.43194664151264384,-1.5710275458010947,-0.0002833724346894638
-1.4152004130667097e-05,-0.5427397492660851,2.2187862896187727,0.4319211976657095,-1.5710275976774097,-0.0002845700389976015
-1.5821136847946898e-05,-0.5427855795933011,2.21888393080765,0.4318956964977855,-1.571027649449424,-0.00028576636809013987
-1.748939574728482e-05,-0.542831343456223,2.218981383602657,0.43187013893305565,-1.57102770111761,-0.00028696142373006473
-1.9156780024611336e-05,-0.5428770409022977,2.219078648332593,0.43184452588826433,-1.5710277526824172,-0.0002881552076511312
-2.0823288895095326e-05,-0.5429226719792843,2.2191757253259414,0.4318188582727699,-1.5710278041443013,-0.00028934772159856337
-2.2488921604165675e-05,-0.5429682367352534,2.2192726149108677,0.4317931369885971,-1.5710278555037316,-0.0002905389673405826
-2.4153677380186164e-05,-0.5430137352185728,2.219369317415213,0.4317673629304874,-1.5710279067611563,-0.00029172894661905294
-2.581755547351959e-05,-0.5430591674779137,2.219465833166498,0.4317415369859514,-1.5710279579170323,-0.0002929176611902742
-2.7480555159672642e-05,-0.5431045335622489,2.219562162491919,0.43171566003532014,-1.5710280089718258,-0.0002941051128282713
-2.914267569926916e-05,-0.5431498335208392,2.2196583057183434,0.4316897329517942,-1.5710280599259847,-0.0002952913032830761
-3.080391634209254e-05,-0.5431950674032324,2.2197542631723084,0.4316637566014942,-1.571028110779941,-0.0002964762342849733
-3.2464276386285575e-05,-0.5432402352592736,2.219850035180025,0.4316377318435129,-1.571028161534154,-0.00029765990760628833
-3.412375511514915e-05,-0.5432853371390877,2.2199456220673714,0.4316116595299626,-1.5710282121890635,-0.00029884232499544924
-3.5782351848369996e-05,-0.5433303730930885,2.2200410241598947,0.43158554050602627,-1.5710282627451289,-0.0003000234882304637
-3.744006588277202e-05,-0.5433753431719617,2.2201362417828037,0.4315593756100043,-1.5710283132027845,-0.0003012033990571519
-3.9096896553566244e-05,-0.5434202474266764,2.2202312752609745,0.4315331656733654,-1.5710283635624849,-0.00030238205925304395
-4.0752843137315775e-05,-0.5434650859084594,2.2203261249189366,0.43150691152079157,-1.5710284138246347,-0.0003035594705262387
-4.2407904971513934e-05,-0.5435098586688207,2.220420791080887,0.43148061397023,-1.5710284639896746,-0.00030473563464010234
-4.4062081410675245e-05,-0.5435545657595403,2.220515274070683,0.43145427383293955,-1.5710285140580502,-0.000305910553367508
-4.571537179654558e-05,-0.5435992072326581,2.220609574211836,0.4314278919135368,-1.5710285640301906,-0.00030708422845978717
-4.736777549361214e-05,-0.5436437831404797,2.2207036918275156,0.43140146901004445,-1.5710286139065335,-0.0003082566616837839
-4.9019291847267794e-05,-0.5436882935355638,2.2207976272405427,0.43137500591393635,-1.571028663687495,-0.0003094278547782718
-5.0669920244363925e-05,-0.5437327384707339,2.220891380773395,0.4313485034101863,-1.5710287133735146,-0.00031059780951709503
-5.2319660038110774e-05,-0.5437771179990573,2.220984952748197,0.43132196227731134,-1.5710287629649995,-0.00031176652763091465
-5.396851061727189e-05,-0.5438214321738593,2.221078343486726,0.4312953832874198,-1.5710288124623755,-0.00031293401087936686
-5.561647139313985e-05,-0.5438656810487174,2.2211715533104117,0.43126876720625645,-1.5710288618660773,-0.00031410026103748106
-5.726354174677637e-05,-0.5439098646774457,2.2212645825403246,0.4312421147932459,-1.5710289111765103,-0.000315265279840732
-5.890972110430213e-05,-0.5439539831141109,2.221357431497187,0.43121542680153985,-1.5710289603941059,-0.0003164290690635172
-6.055500887850946e-05,-0.5439980364130151,2.221450100501363,0.43118870397805975,-1.571029009519278,-0.0003175916304583561
-6.219940448570841e-05,-0.5440420246286977,2.22154258987286,0.4311619470635415,-1.5710290585524365,-0.0003187529657734403
-6.384290733282068e-05,-0.5440859478159291,2.2216348999313236,0.43113515679257897,-1.5710291074939768,-0.00031991307673923856
-6.548551688090311e-05,-0.5441298060297244,2.221727030996049,0.43110833389366987,-1.571029156344327,-0.00032107196513471523
-6.712723256138985e-05,-0.5441735993253197,2.2218189833859636,0.4310814790892563,-1.5710292051038868,-0.00032222963270002865
-6.876805382585353e-05,-0.5442173277581825,2.2219107574196366,0.4310545930957693,-1.5710292537730628,-0.00032338608118845087
-7.04079801478579e-05,-0.544260991384009,2.222002353415275,0.43102767662367186,-1.5710293023522715,-0.00032454131236831223
-7.204701098829225e-05,-0.5443045902587133,2.2220937716907194,0.43100073037750003,-1.5710293508419126,-0.00032569532798686215
-7.368514581646158e-05,-0.5443481244384306,2.222185012563445,0.430973755055906,-1.5710293992423856,-0.00032684812979232746
-7.53223840949775e-05,-0.5443915939795106,2.2222760763505587,0.4309467513516994,-1.571029447554078,-0.00032799971951815826
-7.695872530789858e-05,-0.5444349989385223,2.2223669633688017,0.43091971995188977,-1.5710294957773863,-0.0003291500989123992
-7.859416895736988e-05,-0.5444783393722501,2.222457673934548,0.43089266153772793,-1.571029543912713,-0.0003302992697341733
-8.02287145273525e-05,-0.5445216153376834,2.2225482083637975,0.4308655767847457,-1.5710295919604418,-0.0003314472337159335
-8.186236154944436e-05,-0.5445648268920298,2.2226385669721846,0.4308384663627991,-1.5710296399209829,-0.00033259399263206276
-8.349510952146164e-05,-0.5446079740926932,2.2227287500749666,0.4308113309361058,-1.571029687794716,-0.0003337395482140474
-8.512695797440702e-05,-0.5446510569972879,2.22281875798703,0.4307841711632878,-1.5710297355820386,-0.00033488390222029697
-8.675790643212472e-05,-0.5446940756636258,2.222908591022886,0.4307569876974101,-1.5710297832833362,-0.00033602705639412236
-8.83879543993814e-05,-0.5447370301497123,2.222998249496666,0.43072978118601957,-1.5710298308989739,-0.00033716901245134194
-9.001710141974081e-05,-0.5447799205137571,2.2230877337221293,0.4307025522711867,-1.5710298784293386,-0.0003383097721406148
-9.164534702842726e-05,-0.544822746814161,2.223177044012656,0.43067530158954304,-1.5710299258748048,-0.000339449337194324
-9.327269077857145e-05,-0.54486550910952,2.223266180681249,0.43064802977232103,-1.5710299732357536,-0.00034058770935596714
-9.489913222996346e-05,-0.5449082074586205,2.2233551440405313,0.4306207374453921,-1.5710300205125642,-0.0003417248903684398
-9.652467095006206e-05,-0.5449508419204367,2.223443934402746,0.43059342522930516,-1.571030067705616,-0.00034286088197512917
-9.814930651129346e-05,-0.5449934125541289,2.2235325520797535,0.4305660937393246,-1.5710301148152845,-0.0003439956859170908
-9.977303847052952e-05,-0.5450359194190355,2.2236209973830303,0.4305387435854673,-1.571030161841929,-0.00034512930391172734
-0.00010139586641017612,-0.5450783625746809,2.223709270623671,0.43051137537254175,-1.57103020878592,-0.0003462617376955921
-0.00010301778991661432,-0.5451207420807685,2.223797372112385,0.4304839897001846,-1.5710302556476254,-0.0003473929890019512
-0.00010463880859306167,-0.5451630579971816,2.2238853021594993,0.43045658716289814,-1.5710303024274193,-0.0003485230595742056
-0.00010625892202455894,-0.5452053103839726,2.22397306107495,0.430429168350086,-1.5710303491256559,-0.0003496519511294514
-0.00010787812983991845,-0.5452474993013761,2.2240606491682917,0.4304017338460917,-1.5710303957427156,-0.00035077966542300463
-0.00010949643161624852,-0.5452896248097839,2.224148066748684,0.43037428423023183,-1.5710304422789352,-0.0003519062041489962
-0.00011111382698625005,-0.5453316869697689,2.224235314124903,0.43034682007683567,-1.5710304887346858,-0.000353031569052148
-0.0001127303155672982,-0.5453736858420652,2.224322391605334,0.4303193419552787,-1.5710305351103213,-0.00035415576185391176
-0.00011434589700877366,-0.5454156214875788,2.224409299497973,0.4302918504300199,-1.5710305814062133,-0.00035527878430180514
-0.00011596057090769968,-0.5454574939673643,2.224496038110419,0.43026434606063374,-1.5710306276226893,-0.0003564006380815494
-0.00011757433691467569,-0.5454993033426486,2.2245826077498845,0.43023682940184954,-1.5710306737601099,-0.00035752132492744874
-0.00011918719465502065,-0.5455410496748104,2.2246690087231844,0.4302093010035832,-1.5710307198188114,-0.0003586408465402584
-0.00012079914379459427,-0.5455827330253935,2.2247552413367453,0.4301817614109742,-1.571030765799154,-0.0003597592046557617
-0.00012241018397820592,-0.5456243534560905,2.2248413058965952,0.43015421116441793,-1.5710308117014768,-0.0003608764009806539
-0.00012402031487597886,-0.545665911028752,2.22492720270837,0.4301266507996015,-1.5710308575261316,-0.0003619924372408277
-0.0001256295361309031,-0.5457074058053717,2.2250129320773055,0.4300990808475355,-1.5710309032734449,-0.00036310731512679683
-0.00012723784743821662,-0.5457488378481041,2.225098494308246,0.43007150183459103,-1.5710309489437753,-0.00036422103637636825
-0.0001288452484719664,-0.5457902072192449,2.2251838897056357,0.4300439142825301,-1.5710309945374605,-0.00036533360269818224
-0.00013045173889577008,-0.5458315139812312,2.2252691185735185,0.4300163187085394,-1.5710310400548255,-0.00036644501578295596
-0.00013205731841118418,-0.5458727581966519,2.2253541812155433,0.42998871562526514,-1.5710310854962166,-0.0003675552773538655
-0.00013366198670228802,-0.5459139399282326,2.2254390779349573,0.4299611055408437,-1.5710311308619624,-0.000368664389108851
