yinzikang/torque-control/ipd_K40_D100.csv
joint1,joint2,joint3,joint4,joint5,joint6
-3.659923028210368e-16,-0.5235987666666667,2.0943950666666664,-4.544993107417861e-17,-1.5707963,-4.3920633427245145e-16
-1.0313641834501635e-15,-0.5235987666666668,2.0943950666666664,-1.281324300379597e-16,-1.5707963000000003,-1.2376609665082246e-15
-1.941600679809994e-15,-0.523598766666667,2.0943950666666664,-2.416189795347937e-16,-1.5707963000000005,-2.330146769103495e-15
-3.052151828763003e-15,-0.5235987666666673,2.0943950666666664,-3.799905635478666e-16,-1.5707963000000007,-3.663117522890828e-15
-4.3265629334306765e-15,-0.5235987666666676,2.0943950666666664,-5.383625586583154e-16,-1.570796300000001,-5.1927860052708606e-15
-5.734988196499358e-15,-0.5235987666666679,2.0943950666666664,-7.135412360633137e-16,-1.5707963000000011,-6.883375133961162e-15
-7.253045888478e-15,-0.5235987666666683,2.0943950666666664,-9.024538315762104e-16,-1.5707963000000016,-8.705519718675995e-15
-8.860825684047348e-15,-0.5235987666666686,2.094395066666667,-1.1025297398728355e-15,-1.570796300000002,-1.0635308021246189e-14
-1.0542000925873381e-14,-0.5235987666666689,2.0943950666666673,-1.3121031538014738e-15,-1.5707963000000025,-1.2652995826984237e-14
-1.2283203194517726e-14,-0.5235987666666694,2.0943950666666677,-1.5290219062001247e-15,-1.570796300000003,-1.4742624579233094e-14
-1.4073521561976324e-14,-0.5235987666666698,2.094395066666668,-1.7516167756556243e-15,-1.5707963000000034,-1.6891080995160246e-14
-1.5903991347809134e-14,-0.5235987666666703,2.0943950666666686,-1.9794760795501993e-15,-1.5707963000000038,-1.9087702958596822e-14
-1.7767307368024292e-14,-0.5235987666666707,2.094395066666669,-2.2112125700632665e-15,-1.5707963000000043,-2.1323751951370187e-14
-1.9657497359049802e-14,-0.5235987666666712,2.0943950666666695,-2.446183817867748e-15,-1.5707963000000047,-2.359205785753257e-14
-2.1569656385997538e-14,-0.5235987666666716,2.09439506666667,-2.6839875116052926e-15,-1.5707963000000051,-2.5886733591900398e-14
-2.3499801940886407e-14,-0.523598766666672,2.0943950666666704,-2.9242647518578813e-15,-1.5707963000000056,-2.8202921128823876e-14
-2.544464446333959e-14,-0.5235987666666725,2.094395066666671,-3.166200020420512e-15,-1.570796300000006,-3.053674259691113e-14
-2.740152148806318e-14,-0.5235987666666729,2.0943950666666713,-3.409668894848084e-15,-1.5707963000000065,-3.2885026168509403e-14
-2.9368221368670424e-14,-0.5235987666666734,2.0943950666666717,-3.65419471063857e-15,-1.570796300000007,-3.524510484423576e-14
-3.1342956524239427e-14,-0.5235987666666738,2.094395066666672,-3.899862560624884e-15,-1.5707963000000074,-3.761483796442051e-14
-3.3324277190793466e-14,-0.5235987666666743,2.0943950666666726,-4.1461493478658156e-15,-1.5707963000000078,-3.999258224639906e-14
-3.53109669875084e-14,-0.5235987666666747,2.094395066666673,-4.393284010248181e-15,-1.5707963000000082,-4.237687401529132e-14
-3.730205417762922e-14,-0.5235987666666752,2.0943950666666735,-4.6405035978053106e-15,-1.5707963000000087,-4.47663802205115e-14
-3.929671147275261e-14,-0.5235987666666756,2.094395066666674,-4.888590091585929e-15,-1.5707963000000091,-4.716029784593306e-14
-4.1294311839116596e-14,-0.523598766666676,2.0943950666666744,-5.136916159289629e-15,-1.5707963000000096,-4.955774259625917e-14
-4.329433539120132e-14,-0.5235987666666765,2.094395066666675,-5.385697372318191e-15,-1.57079630000001,-5.1958079186624433e-14
-4.52963380983944e-14,-0.5235987666666769,2.0943950666666753,-5.63451943045719e-15,-1.5707963000000105,-5.4360929217175355e-14
-4.729997168765921e-14,-0.5235987666666774,2.0943950666666757,-5.8835702257909185e-15,-1.570796300000011,-5.676565408632621e-14
-4.9304951747308446e-14,-0.5235987666666778,2.094395066666676,-6.132637125551865e-15,-1.5707963000000114,-5.917182384470027e-14
-5.131102556081473e-14,-0.5235987666666783,2.0943950666666766,-6.381909278614924e-15,-1.5707963000000118,-6.157924217066268e-14
-5.331798564134568e-14,-0.5235987666666787,2.094395066666677,-6.631270380869029e-15,-1.5707963000000122,-6.398764682882126e-14
-5.532565682022059e-14,-0.5235987666666791,2.0943950666666775,-6.880839243173674e-15,-1.5707963000000127,-6.639701775275421e-14
-5.733392780765513e-14,-0.5235987666666796,2.094395066666678,-7.130517278352442e-15,-1.5707963000000131,-6.880702759535042e-14
-5.934268849873313e-14,-0.52359876666668,2.0943950666666784,-7.379978121766253e-15,-1.5707963000000136,-7.121751880965402e-14
-6.135184220318725e-14,-0.5235987666666805,2.094395066666679,-7.629488586535227e-15,-1.570796300000014,-7.362841692638822e-14
-6.336131289530659e-14,-0.5235987666666809,2.0943950666666793,-7.879139603182289e-15,-1.5707963000000145,-7.603965897197345e-14
-6.537104892415377e-14,-0.5235987666666814,2.0943950666666797,-8.12850198337066e-15,-1.570796300000015,-7.845124899052571e-14
-6.738098872014775e-14,-0.5235987666666818,2.09439506666668,-8.377991669807616e-15,-1.5707963000000154,-8.086308136320623e-14
-6.939108533151362e-14,-0.5235987666666823,2.0943950666666806,-8.627738808991181e-15,-1.5707963000000158,-8.327522668914792e-14
-7.140133521391235e-14,-0.5235987666666827,2.094395066666681,-8.877641771568013e-15,-1.5707963000000162,-8.568759087133187e-14
-7.341174080116498e-14,-0.5235987666666831,2.0943950666666815,-9.12751885006547e-15,-1.5707963000000167,-8.809998798368316e-14
-7.542224791655585e-14,-0.5235987666666836,2.094395066666682,-9.377846469098725e-15,-1.5707963000000171,-9.051253577826374e-14
-7.743284348381752e-14,-0.523598766666684,2.0943950666666824,-9.627925326177083e-15,-1.5707963000000176,-9.292505791635739e-14
-7.944349245165846e-14,-0.5235987666666845,2.094395066666683,-9.877988367360267e-15,-1.570796300000018,-9.533769135500964e-14
-8.145419509614293e-14,-0.5235987666666849,2.0943950666666833,-1.0127915498883423e-14,-1.5707963000000185,-9.775040259621307e-14
-8.346492731254737e-14,-0.5235987666666854,2.0943950666666837,-1.0377774776087743e-14,-1.570796300000019,-1.0016317565757759e-13
-8.547569380160239e-14,-0.5235987666666858,2.094395066666684,-1.0627725015574213e-14,-1.5707963000000194,-1.0257594708912014e-13
-8.748646975316119e-14,-0.5235987666666863,2.0943950666666846,-1.0877647920767944e-14,-1.5707963000000198,-1.0498877589951927e-13
-8.949727694223468e-14,-0.5235987666666867,2.094395066666685,-1.1127682840458733e-14,-1.5707963000000202,-1.0740165406720471e-13
-9.15081126141959e-14,-0.5235987666666871,2.0943950666666855,-1.1377370181361422e-14,-1.5707963000000207,-1.0981457463483952e-13
-9.351896587782404e-14,-0.5235987666666876,2.094395066666686,-1.162708552561558e-14,-1.5707963000000211,-1.1222754332083217e-13
-9.552982716603048e-14,-0.5235987666666879,2.094395066666686,-1.1877103433163152e-14,-1.5707963000000216,-1.146404651019962e-13
-9.754066900683195e-14,-0.5235987666666883,2.094395066666686,-1.2126953149876345e-14,-1.570796300000022,-1.1705349194997627e-13
-9.955150543642542e-14,-0.5235987666666886,2.094395066666686,-1.2376900026414013e-14,-1.5707963000000225,-1.194667001993723e-13
-1.0156235204075805e-13,-0.5235987666666889,2.094395066666686,-1.2626510066602626e-14,-1.570796300000023,-1.218799169734525e-13
-1.0357322540846996e-13,-0.5235987666666893,2.094395066666686,-1.287691502459073e-14,-1.5707963000000233,-1.2429314601893622e-13
-1.0558410871750114e-13,-0.5235987666666896,2.094395066666686,-1.3127280292723852e-14,-1.5707963000000238,-1.2670638401241659e-13
-1.0759500721171878e-13,-0.5235987666666899,2.094395066666686,-1.3377729531195974e-14,-1.5707963000000242,-1.2911955916143792e-13
-1.0960590404305338e-13,-0.5235987666666903,2.094395066666686,-1.3627885269988602e-14,-1.5707963000000247,-1.3153274858310986e-13
-1.1161679561850894e-13,-0.5235987666666906,2.094395066666686,-1.3878133449127376e-14,-1.5707963000000251,-1.339459450604038e-13
-1.1362770309839653e-13,-0.5235987666666909,2.094395066666686,-1.4128071323381013e-14,-1.5707963000000256,-1.3635902321746206e-13
-1.156386158625832e-13,-0.5235987666666913,2.094395066666686,-1.4377890325376985e-14,-1.570796300000026,-1.3877221084349662e-13
-1.1764953333827982e-13,-0.5235987666666916,2.094395066666686,-1.4627425290333118e-14,-1.5707963000000265,-1.411854023943702e-13
-1.1966044737155073e-13,-0.5235987666666919,2.094395066666686,-1.487675501150173e-14,-1.570796300000027,-1.4359860226548492e-13
-1.2167136874200702e-13,-0.5235987666666923,2.094395066666686,-1.5126121479057146e-14,-1.5707963000000273,-1.46011719009549e-13
-1.2368228021869857e-13,-0.5235987666666926,2.094395066666686,-1.537567324068786e-14,-1.5707963000000278,-1.4842495576826003e-13
-1.256932052612272e-13,-0.5235987666666929,2.094395066666686,-1.562543950003064e-14,-1.5707963000000282,-1.5083807124138133e-13
-1.2770413284741813e-13,-0.5235987666666932,2.094395066666686,-1.5875006870795086e-14,-1.5707963000000287,-1.532511922314402e-13
-1.297150486968892e-13,-0.5235987666666936,2.094395066666686,-1.6124741411376176e-14,-1.5707963000000291,-1.556643264308526e-13
-1.3172595961096925e-13,-0.5235987666666939,2.094395066666686,-1.6374339993552465e-14,-1.5707963000000296,-1.5807747318074625e-13
-1.3373687053197918e-13,-0.5235987666666942,2.094395066666686,-1.6624185654807907e-14,-1.57079630000003,-1.6049062555238387e-13
-1.3574779545493803e-13,-0.5235987666666946,2.094395066666686,-1.6873870652052535e-14,-1.5707963000000305,-1.6290371259000846e-13
-1.3775873241579047e-13,-0.5235987666666949,2.094395066666686,-1.712366756817182e-14,-1.570796300000031,-1.6531675376303958e-13
-1.3976966939306308e-13,-0.5235987666666952,2.094395066666686,-1.7373281909134617e-14,-1.5707963000000313,-1.6772980647249358e-13
-1.4178058427681715e-13,-0.5235987666666956,2.094395066666686,-1.7622605261459405e-14,-1.5707963000000318,-1.7014285615050377e-13
-1.4379147782906433e-13,-0.5235987666666959,2.094395066666686,-1.78729007929143e-14,-1.570796300000032,-1.7255591352386162e-13
-1.4580238848232672e-13,-0.5235987666666962,2.094395066666686,-1.8122872808991676e-14,-1.5707963000000322,-1.7496893830672801e-13
-1.478133086318888e-13,-0.5235987666666966,2.094395066666686,-1.8372856400984863e-14,-1.5707963000000325,-1.7738191468991007e-13
-1.498242225717439e-13,-0.5235987666666969,2.094395066666686,-1.862319783454431e-14,-1.5707963000000327,-1.7979490179307446e-13
-1.5183511900023816e-13,-0.5235987666666972,2.094395066666686,-1.8873225640366807e-14,-1.570796300000033,-1.8220798518249702e-13
-1.5384601501664705e-13,-0.5235987666666976,2.094395066666686,-1.912320324396188e-14,-1.5707963000000331,-1.8462097266815698e-13
-1.5585691441624769e-13,-0.5235987666666979,2.094395066666686,-1.9373284561968952e-14,-1.5707963000000333,-1.8703395808915665e-13
-1.578678217703974e-13,-0.5235987666666982,2.094395066666686,-1.9623702568542097e-14,-1.5707963000000336,-1.8944696073003176e-13
-1.5987872079522165e-13,-0.5235987666666986,2.094395066666686,-1.9873673642289728e-14,-1.5707963000000338,-1.9185998118215866e-13
-1.6188962262583166e-13,-0.5235987666666989,2.094395066666686,-2.0123759653068095e-14,-1.570796300000034,-1.9427294870836596e-13
-1.6390051750778806e-13,-0.5235987666666992,2.094395066666686,-2.0373806472958178e-14,-1.5707963000000342,-1.966859281722652e-13
-1.6591142000859542e-13,-0.5235987666666996,2.094395066666686,-2.0623638722406637e-14,-1.5707963000000345,-1.9909891471047977e-13
-1.679223384751798e-13,-0.5235987666666999,2.094395066666686,-2.0873649076046737e-14,-1.5707963000000347,-2.0151193731196883e-13
-1.699332593341827e-13,-0.5235987666667002,2.094395066666686,-2.1123311051035343e-14,-1.570796300000035,-2.0392495877183727e-13
-1.7194417388987864e-13,-0.5235987666667006,2.094395066666686,-2.1372649460278983e-14,-1.5707963000000351,-2.0633799670838338e-13
-1.7395507166373124e-13,-0.5235987666667009,2.094395066666686,-2.1622043989273822e-14,-1.5707963000000353,-2.0875111997533404e-13
-1.7596598187182228e-13,-0.5235987666667012,2.094395066666686,-2.1871590611743217e-14,-1.5707963000000356,-2.1116425622023898e-13
-1.7797689537475381e-13,-0.5235987666667016,2.094395066666686,-2.2120806470618473e-14,-1.5707963000000358,-2.1357731786019625e-13
-1.79987800617752e-13,-0.5235987666667019,2.094395066666686,-2.2370053636279016e-14,-1.570796300000036,-2.1599049929596359e-13
-1.8199867460669331e-13,-0.5235987666667022,2.094395066666686,-2.261916538383246e-14,-1.5707963000000362,-2.184037378916565e-13
-1.8400952645273413e-13,-0.5235987666667026,2.094395066666686,-2.2868542538320242e-14,-1.5707963000000364,-2.2081712708444692e-13
-1.8602037573331092e-13,-0.5235987666667029,2.094395066666686,-2.3117849961473954e-14,-1.5707963000000367,-2.2323066916307673e-13
-1.8803123335898854e-13,-0.5235987666667032,2.094395066666686,-2.3367135509234138e-14,-1.570796300000037,-2.2564419484074316e-13
-1.9004210149875776e-13,-0.5235987666667036,2.094395066666686,-2.361673515160722e-14,-1.5707963000000371,-2.280576242113966e-13
-1.9205297672588395e-13,-0.5235987666667039,2.094395066666686,-2.3866206420291587e-14,-1.5707963000000373,-2.30470957989777e-13
-1.940638592731699e-13,-0.5235987666667042,2.094395066666686,-2.411580511173787e-14,-1.5707963000000376,-2.328842804159189e-13
-1.9607473861540636e-13,-0.5235987666667046,2.094395066666686,-2.4365094613584438e-14,-1.5707963000000378,-2.352976802321877e-13
-1.9808564238373676e-13,-0.5235987666667049,2.094395066666686,-2.4614505261428853e-14,-1.570796300000038,-2.3771101024476954e-13
-2.000965653039427e-13,-0.5235987666667052,2.094395066666686,-2.4864082028607218e-14,-1.5707963000000382,-2.401243308790486e-13
-2.0210747716859967e-13,-0.5235987666667056,2.094395066666686,-2.511335725750945e-14,-1.5707963000000384,-2.4253771719600686e-13
-2.0411835988364053e-13,-0.5235987666667059,2.094395066666686,-2.5362557600862173e-14,-1.5707963000000387,-2.4495122815069655e-13
-2.0612924905431253e-13,-0.5235987666667062,2.094395066666686,-2.5611926236612506e-14,-1.570796300000039,-2.4736481379424465e-13
-2.081401500229896e-13,-0.5235987666667066,2.094395066666686,-2.586082020500993e-14,-1.5707963000000391,-2.4977838325595297e-13
-2.1015104910485168e-13,-0.5235987666667069,2.094395066666686,-2.6110055994548846e-14,-1.5707963000000393,-2.521919201506354e-13
-2.1216194669251915e-13,-0.5235987666667072,2.094395066666686,-2.6359374997934942e-14,-1.5707963000000396,-2.5460542465030273e-13
-2.1417284805358436e-13,-0.5235987666667076,2.094395066666686,-2.6608638209972078e-14,-1.5707963000000398,-2.5701889575976295e-13
-2.1618375552964122e-13,-0.5235987666667079,2.094395066666686,-2.685804743254801e-14,-1.57079630000004,-2.5943233460710617e-13
-2.181946642412234e-13,-0.5235987666667082,2.094395066666686,-2.710788761477389e-14,-1.5707963000000402,-2.618458492188111e-13
-2.2020556971366864e-13,-0.5235987666667086,2.094395066666686,-2.7357443516538452e-14,-1.5707963000000404,-2.642593594391312e-13
-2.2221646455163921e-13,-0.5235987666667088,2.094395066666686,-2.7606706549926065e-14,-1.5707963000000407,-2.6667290891938416e-13
-2.2422733967959867e-13,-0.523598766666709,2.094395066666686,-2.785636253139154e-14,-1.570796300000041,-2.6908642065217964e-13
-2.2623822618238316e-13,-0.5235987666667092,2.094395066666686,-2.8105791294274353e-14,-1.5707963000000411,-2.715000709997071e-13
-2.282491212715346e-13,-0.5235987666667095,2.094395066666686,-2.835501629036799e-14,-1.5707963000000413,-2.7391366654992276e-13
-2.3026003770317174e-13,-0.5235987666667097,2.094395066666686,-2.8604173767445584e-14,-1.5707963000000416,-2.7632723717121046e-13
-2.322709180920356e-13,-0.5235987666667099,2.094395066666686,-2.885386193081745e-14,-1.5707963000000418,-2.787407743452246e-13
-2.342818115109375e-13,-0.5235987666667101,2.094395066666686,-2.9103411025843476e-14,-1.570796300000042,-2.8115416807804127e-13
-2.3629268686445027e-13,-0.5235987666667103,2.094395066666686,-2.93530165035404e-14,-1.5707963000000422,-2.835675360873834e-13
-2.383035605017748e-13,-0.5235987666667106,2.094395066666686,-2.960266532634142e-14,-1.5707963000000424,-2.8598091395859137e-13
-2.403144273691515e-13,-0.5235987666667108,2.094395066666686,-2.985229732891547e-14,-1.5707963000000427,-2.8839426062841736e-13
-2.4232529848539645e-13,-0.523598766666711,2.094395066666686,-3.010227982041301e-14,-1.5707963000000429,-2.908076854703385e-13
-2.443361606815679e-13,-0.5235987666667112,2.094395066666686,-3.0351817912633666e-14,-1.570796300000043,-2.9322109801201894e-13
-2.463470142392045e-13,-0.5235987666667115,2.094395066666686,-3.060134194021114e-14,-1.5707963000000433,-2.9563449082345483e-13
-2.483578776329524e-13,-0.5235987666667117,2.094395066666686,-3.0850946940307074e-14,-1.5707963000000436,-2.980477983489647e-13
-2.503687376151411e-13,-0.5235987666667119,2.094395066666686,-3.110101238086883e-14,-1.5707963000000438,-3.0046117688742813e-13
-2.5237961030809e-13,-0.5235987666667121,2.094395066666686,-3.135093203753562e-14,-1.570796300000044,-3.0287455915031157e-13
-2.5439049082560333e-13,-0.5235987666667123,2.094395066666686,-3.1600810127994346e-14,-1.5707963000000442,-3.052879269182663e-13
-2.5640137162688796e-13,-0.5235987666667126,2.094395066666686,-3.1850208169715224e-14,-1.5707963000000444,-3.0770127618079504e-13
-2.584122621524991e-13,-0.5235987666667128,2.094395066666686,-3.209998060189197e-14,-1.5707963000000447,-3.101146096157874e-13
-2.604231438105407e-13,-0.523598766666713,2.094395066666686,-3.234983899277886e-14,-1.5707963000000449,-3.125279356302552e-13
-2.6243404421811515e-13,-0.5235987666667132,2.094395066666686,-3.259971490790675e-14,-1.570796300000045,-3.149412452904888e-13
-2.644449583540166e-13,-0.5235987666667135,2.094395066666686,-3.284934024212734e-14,-1.5707963000000453,-3.1735453959323446e-13
-2.6645587624021056e-13,-0.5235987666667137,2.094395066666686,-3.3098691147003676e-14,-1.5707963000000456,-3.1976783491712235e-13
-2.6846680969345256e-13,-0.5235987666667139,2.094395066666686,-3.334799127597196e-14,-1.5707963000000458,-3.2218111128015516e-13
-2.7047774282965513e-13,-0.5235987666667141,2.094395066666686,-3.3597579356853427e-14,-1.570796300000046,-3.2459439094473357e-13
-2.724886851927947e-13,-0.5235987666667143,2.094395066666686,-3.384708675287584e-14,-1.5707963000000462,-3.2700766481318206e-13
-2.744996175363481e-13,-0.5235987666667146,2.094395066666686,-3.4096742361450463e-14,-1.5707963000000464,-3.294209967716585e-13
-2.76510547115419e-13,-0.5235987666667148,2.094395066666686,-3.434654121444743e-14,-1.5707963000000467,-3.318343198701931e-13
-2.785214818829652e-13,-0.523598766666715,2.094395066666686,-3.459633886345763e-14,-1.5707963000000469,-3.3424764452275877e-13
-2.805324020969959e-13,-0.5235987666667152,2.094395066666686,-3.484623213458419e-14,-1.570796300000047,-3.3666086551545905e-13
-2.8254332496999055e-13,-0.5235987666667155,2.094395066666686,-3.509568314853932e-14,-1.5707963000000473,-3.3907408993462804e-13
-2.845542328807692e-13,-0.5235987666667157,2.094395066666686,-3.534482311783643e-14,-1.5707963000000476,-3.414873916621232e-13
-2.8656513798765885e-13,-0.5235987666667159,2.094395066666686,-3.55941983344737e-14,-1.5707963000000478,-3.439006912148383e-13
-2.8857604387436013e-13,-0.5235987666667161,2.094395066666686,-3.584389956936335e-14,-1.570796300000048,-3.4631397282761074e-13
-2.9058695492343387e-13,-0.5235987666667163,2.094395066666686,-3.6093686884612513e-14,-1.5707963000000482,-3.487272515485417e-13
-2.925978602308161e-13,-0.5235987666667166,2.094395066666686,-3.634304954105045e-14,-1.5707963000000484,-3.511404299732239e-13
-2.946087368137963e-13,-0.5235987666667168,2.094395066666686,-3.659249348419169e-14,-1.5707963000000487,-3.5355370284185403e-13
-2.9661958961838205e-13,-0.523598766666717,2.094395066666686,-3.68420627441055e-14,-1.5707963000000489,-3.559670521586931e-13
-2.986304488079144e-13,-0.5235987666667172,2.094395066666686,-3.70913564790127e-14,-1.570796300000049,-3.583803922182648e-13
-3.006412993446071e-13,-0.5235987666667175,2.094395066666686,-3.734088600464557e-14,-1.5707963000000493,-3.607937184447076e-13
-3.0265216573926186e-13,-0.5235987666667177,2.094395066666686,-3.759058500818173e-14,-1.5707963000000496,-3.6320703550597686e-13
-3.0466305287510455e-13,-0.5235987666667179,2.094395066666686,-3.784009893498522e-14,-1.5707963000000498,-3.6562034806199177e-13
-3.0667393649498323e-13,-0.5235987666667181,2.094395066666686,-3.808948248897275e-14,-1.57079630000005,-3.6803364652312697e-13
-3.086848430192836e-13,-0.5235987666667183,2.094395066666686,-3.833896679339428e-14,-1.5707963000000502,-3.704469398974933e-13
-3.1069574971805844e-13,-0.5235987666667186,2.094395066666686,-3.858811175572095e-14,-1.5707963000000504,-3.7286023131239485e-13
-3.1270667331187006e-13,-0.5235987666667188,2.094395066666686,-3.883729399948891e-14,-1.5707963000000507,-3.7527344738766356e-13
-3.1471759974842817e-13,-0.523598766666719,2.094395066666686,-3.908660434868114e-14,-1.5707963000000509,-3.7768665609538767e-13
-3.167285056793685e-13,-0.5235987666667192,2.094395066666686,-3.9336042020099184e-14,-1.570796300000051,-3.800999362923577e-13
-3.1873940898796043e-13,-0.5235987666667195,2.094395066666686,-3.958566569352704e-14,-1.5707963000000513,-3.8251322190627594e-13
-3.2075032241711814e-13,-0.5235987666667197,2.094395066666686,-3.983558394098866e-14,-1.5707963000000515,-3.849264198894947e-13
-3.22761233015398e-13,-0.5235987666667199,2.094395066666686,-4.008538582184659e-14,-1.5707963000000518,-3.87339716057476e-13
-3.2477214006855217e-13,-0.5235987666667201,2.094395066666686,-4.0334823634047684e-14,-1.570796300000052,-3.8975299579916325e-13
-3.267830433938074e-13,-0.5235987666667203,2.094395066666686,-4.058440912444777e-14,-1.5707963000000522,-3.921662539839246e-13
-3.2879395314621227e-13,-0.5235987666667206,2.094395066666686,-4.0834281827007335e-14,-1.5707963000000524,-3.9457952489483487e-13
-3.3080485911876383e-13,-0.5235987666667208,2.094395066666686,-4.108375608072443e-14,-1.5707963000000527,-3.9699277908271586e-13
-3.3281576659541005e-13,-0.523598766666721,2.094395066666686,-4.1333796963904537e-14,-1.5707963000000529,-3.994059513481466e-13
-3.348266789587648e-13,-0.5235987666667212,2.094395066666686,-4.1583583614669496e-14,-1.570796300000053,-4.018191417794393e-13
-3.3683757710114323e-13,-0.5235987666667214,2.094395066666686,-4.1833332061220525e-14,-1.5707963000000533,-4.042324195612168e-13
-3.3884849066150596e-13,-0.5235987666667217,2.094395066666686,-4.208307913350264e-14,-1.5707963000000535,-4.066456150422207e-13
-3.4085940440536965e-13,-0.5235987666667219,2.094395066666686,-4.233315344769212e-14,-1.5707963000000538,-4.090587982705185e-13
-3.428703084376327e-13,-0.5235987666667221,2.094395066666686,-4.258274327919921e-14,-1.570796300000054,-4.114719697524873e-13
-3.448812094969237e-13,-0.5235987666667223,2.094395066666686,-4.283232474950816e-14,-1.5707963000000542,-4.138851614191092e-13
-3.468921126425314e-13,-0.5235987666667226,2.094395066666686,-4.308231427493713e-14,-1.5707963000000544,-4.162983504638234e-13
-3.4890302097984385e-13,-0.5235987666667228,2.094395066666686,-4.333166276978939e-14,-1.5707963000000547,-4.187114755780914e-13
-3.509139215104699e-13,-0.523598766666723,2.094395066666686,-4.358128929054795e-14,-1.5707963000000549,-4.2112458984905324e-13
-3.529248259238743e-13,-0.5235987666667232,2.094395066666686,-4.3830552297081934e-14,-1.570796300000055,-4.235377086451907e-13
-3.5493571905053586e-13,-0.5235987666667234,2.094395066666686,-4.40799659310358e-14,-1.5707963000000553,-4.2595090368956216e-13
-3.569466071910427e-13,-0.5235987666667237,2.094395066666686,-4.432932429986583e-14,-1.5707963000000555,-4.283642071095495e-13
-3.5895750820711563e-13,-0.5235987666667239,2.094395066666686,-4.457857045067476e-14,-1.5707963000000558,-4.307774202002639e-13
-3.6096841587380837e-13,-0.5235987666667241,2.094395066666686,-4.4827886013367285e-14,-1.570796300000056,-4.3319062974334424e-13
-3.6297930759808497e-13,-0.5235987666667243,2.094395066666686,-4.5077133617004554e-14,-1.5707963000000562,-4.3560400836902324e-13
-3.649902113601425e-13,-0.5235987666667246,2.094395066666686,-4.5326714370322377e-14,-1.5707963000000564,-4.380172903463985e-13
-3.670011126875899e-13,-0.5235987666667248,2.094395066666686,-4.557653996368194e-14,-1.5707963000000567,-4.404307186103247e-13
-3.6901202282725807e-13,-0.523598766666725,2.094395066666686,-4.582624823385181e-14,-1.5707963000000569,-4.4284413812859847e-13
-3.7102293794916134e-13,-0.5235987666667252,2.094395066666686,-4.607640771146075e-14,-1.570796300000057,-4.452575286239607e-13
-3.7303383473278345e-13,-0.5235987666667254,2.094395066666686,-4.6326338750734235e-14,-1.5707963000000573,-4.4767089540128183e-13
-3.7504473842373733e-13,-0.5235987666667257,2.094395066666686,-4.657630269838773e-14,-1.5707963000000575,-4.5008424701494465e-13
-3.7705563807819174e-13,-0.5235987666667259,2.094395066666686,-4.6826030476544154e-14,-1.5707963000000578,-4.5249760035594093e-13
-3.790665392526893e-13,-0.5235987666667261,2.094395066666686,-4.707566331120887e-14,-1.570796300000058,-4.549108679761663e-13
-3.810774560515383e-13,-0.5235987666667263,2.094395066666686,-4.73256556461081e-14,-1.5707963000000582,-4.573240063138868e-13
-3.8308837512853097e-13,-0.5235987666667266,2.094395066666686,-4.757524247518159e-14,-1.5707963000000584,-4.59737162498058e-13
-3.850992943013672e-13,-0.5235987666667268,2.094395066666686,-4.782516970212313e-14,-1.5707963000000587,-4.621503127579996e-13
-3.871102151865163e-13,-0.523598766666727,2.094395066666686,-4.8075149043723756e-14,-1.5707963000000589,-4.645634657899799e-13
-3.8912113828730985e-13,-0.5235987666667272,2.094395066666686,-4.83248539110198e-14,-1.570796300000059,-4.669765484679085e-13
-3.9113206835404413e-13,-0.5235987666667274,2.094395066666686,-4.857436596868767e-14,-1.5707963000000593,-4.693896319285045e-13
-3.9314300730382446e-13,-0.5235987666667277,2.094395066666686,-4.8823757776951004e-14,-1.5707963000000595,-4.718027100962752e-13
-3.951539592363218e-13,-0.5235987666667279,2.094395066666686,-4.907360468519202e-14,-1.5707963000000598,-4.742157969521522e-13
-3.9716489069087803e-13,-0.5235987666667281,2.094395066666686,-4.932379529139545e-14,-1.57079630000006,-4.766289929424737e-13
-3.991758226648412e-13,-0.5235987666667283,2.094395066666686,-4.957409781750496e-14,-1.5707963000000602,-4.790421654796205e-13
-4.011867495274207e-13,-0.5235987666667286,2.094395066666686,-4.982415043470872e-14,-1.5707963000000604,-4.814553406403002e-13
-4.0319766998915105e-13,-0.5235987666667288,2.094395066666686,-5.0074175835217194e-14,-1.5707963000000607,-4.838685130510596e-13
-4.0520857953342543e-13,-0.523598766666729,2.094395066666686,-5.032379253085006e-14,-1.5707963000000609,-4.862817559373389e-13
-4.072194982417016e-13,-0.5235987666667292,2.094395066666686,-5.057348174626182e-14,-1.570796300000061,-4.886950174499069e-13
-4.0923040177992425e-13,-0.5235987666667293,2.094395066666686,-5.0823180803001325e-14,-1.5707963000000613,-4.911083460154591e-13
-4.1124130172732116e-13,-0.5235987666667294,2.094395066666686,-5.1072733297446357e-14,-1.5707963000000615,-4.935216708606964e-13
-4.132522153579029e-13,-0.5235987666667296,2.094395066666686,-5.132222528896026e-14,-1.5707963000000618,-4.959349249200186e-13
-4.1526314109908913e-13,-0.5235987666667297,2.094395066666686,-5.157217290966547e-14,-1.570796300000062,-4.983480788506899e-13
-4.172740632495933e-13,-0.5235987666667298,2.094395066666686,-5.182166454867705e-14,-1.5707963000000622,-5.007613375266483e-13
-4.192849787993479e-13,-0.5235987666667299,2.094395066666686,-5.207131070194704e-14,-1.5707963000000624,-5.031745907493728e-13
-4.212958906128411e-13,-0.52359876666673,2.094395066666686,-5.2320829206583953e-14,-1.5707963000000627,-5.055878187237707e-13
-4.233067753324304e-13,-0.5235987666667301,2.094395066666686,-5.25704900943432e-14,-1.5707963000000629,-5.080010279028462e-13
-4.253176372505171e-13,-0.5235987666667302,2.094395066666686,-5.281988287354979e-14,-1.570796300000063,-5.104143209290885e-13
-4.273284904603128e-13,-0.5235987666667303,2.094395066666686,-5.306942509974706e-14,-1.5707963000000633,-5.128275935687403e-13
-4.2933934921432785e-13,-0.5235987666667304,2.094395066666686,-5.3319131955350276e-14,-1.5707963000000635,-5.152408628969919e-13
-4.3135020822876117e-13,-0.5235987666667306,2.094395066666686,-5.3568468235494964e-14,-1.5707963000000638,-5.176541402195791e-13
-4.3336105075287525e-13,-0.5235987666667307,2.094395066666686,-5.3818369788676465e-14,-1.570796300000064,-5.200675524030235e-13
-4.3537190548463926e-13,-0.5235987666667308,2.094395066666686,-5.4068026364762226e-14,-1.5707963000000642,-5.224809641536882e-13
-4.3738276592783613e-13,-0.5235987666667309,2.094395066666686,-5.4317812777131615e-14,-1.5707963000000644,-5.248943559698542e-13
-4.3939362986896783e-13,-0.523598766666731,2.094395066666686,-5.4567547680989946e-14,-1.5707963000000646,-5.273077511754687e-13
-4.414044975600147e-13,-0.5235987666667311,2.094395066666686,-5.4816952757339525e-14,-1.5707963000000649,-5.297210160665028e-13
-4.4341536400595485e-13,-0.5235987666667312,2.094395066666686,-5.506664356206808e-14,-1.570796300000065,-5.321342684147551e-13
-4.45426225140751e-13,-0.5235987666667313,2.094395066666686,-5.531590557180618e-14,-1.5707963000000653,-5.345475006861084e-13
-4.474370778951406e-13,-0.5235987666667314,2.094395066666686,-5.556560312997272e-14,-1.5707963000000655,-5.3696074080176e-13
-4.494479234416647e-13,-0.5235987666667316,2.094395066666686,-5.581546600052325e-14,-1.5707963000000658,-5.393740634577249e-13
-4.5145877205554073e-13,-0.5235987666667317,2.094395066666686,-5.606525569939545e-14,-1.570796300000066,-5.417875446240875e-13
-4.534696402815899e-13,-0.5235987666667318,2.094395066666686,-5.631499656839913e-14,-1.5707963000000662,-5.442009988185899e-13
-4.55480505836232e-13,-0.5235987666667319,2.094395066666686,-5.65647082953745e-14,-1.5707963000000664,-5.4661443304793e-13
-4.574913788100843e-13,-0.523598766666732,2.094395066666686,-5.681461858960884e-14,-1.5707963000000666,-5.490278458505989e-13
-4.595022835818469e-13,-0.5235987666667321,2.094395066666686,-5.706399378021844e-14,-1.5707963000000669,-5.514411493284137e-13
-4.615132098391343e-13,-0.5235987666667322,2.094395066666686,-5.731327216703212e-14,-1.570796300000067,-5.538543288378401e-13
-4.635241420770676e-13,-0.5235987666667323,2.094395066666686,-5.756270413404813e-14,-1.5707963000000673,-5.562675051979936e-13
-4.655350744192076e-13,-0.5235987666667324,2.094395066666686,-5.781212226750978e-14,-1.5707963000000675,-5.586806705857927e-13
-4.675460059969444e-13,-0.5235987666667326,2.094395066666686,-5.806145765858462e-14,-1.5707963000000678,-5.610938244789906e-13
-4.695569379190889e-13,-0.5235987666667327,2.094395066666686,-5.831096885777898e-14,-1.570796300000068,-5.635069729618804e-13
-4.71567851890503e-13,-0.5235987666667328,2.094395066666686,-5.856072578261708e-14,-1.5707963000000682,-5.659202095648727e-13
-4.735787552986793e-13,-0.5235987666667329,2.094395066666686,-5.881073402227099e-14,-1.5707963000000684,-5.683335390567825e-13
-4.755896678398995e-13,-0.523598766666733,2.094395066666686,-5.906051159202762e-14,-1.5707963000000686,-5.707467911336684e-13
-4.776005667304279e-13,-0.5235987666667331,2.094395066666686,-5.931012653587284e-14,-1.5707963000000689,-5.731600281024121e-13
-4.796114547704724e-13,-0.5235987666667332,2.094395066666686,-5.955985864972827e-14,-1.570796300000069,-5.75573410632356e-13
-4.816223500202481e-13,-0.5235987666667333,2.094395066666686,-5.980912570859036e-14,-1.5707963000000693,-5.779867108110646e-13
-4.836332476760488e-13,-0.5235987666667334,2.094395066666686,-6.005851478515087e-14,-1.5707963000000695,-5.803999948314964e-13
-4.856441477470398e-13,-0.5235987666667336,2.094395066666686,-6.030798334619725e-14,-1.5707963000000698,-5.828132853236156e-13
-4.876550446246672e-13,-0.5235987666667337,2.094395066666686,-6.055747675950517e-14,-1.57079630000007,-5.852265545446388e-13
-4.896659525156384e-13,-0.5235987666667338,2.094395066666686,-6.080726954090292e-14,-1.5707963000000702,-5.876397574767741e-13
-4.916768689913022e-13,-0.5235987666667339,2.094395066666686,-6.10569789029071e-14,-1.5707963000000704,-5.900528721319299e-13
-4.936877627348282e-13,-0.523598766666734,2.094395066666686,-6.130701484657166e-14,-1.5707963000000706,-5.924660813181832e-13
-4.956986504231018e-13,-0.5235987666667341,2.094395066666686,-6.1557261179412e-14,-1.5707963000000709,-5.948792791433738e-13
-4.977095319289192e-13,-0.5235987666667342,2.094395066666686,-6.180767828408576e-14,-1.570796300000071,-5.972924923630015e-13
-4.99720413179774e-13,-0.5235987666667343,2.094395066666686,-6.20578275697476e-14,-1.5707963000000713,-5.997056969238554e-13
-5.017313056795649e-13,-0.5235987666667344,2.094395066666686,-6.230795315290173e-14,-1.5707963000000715,-6.021188908951663e-13
-5.037422036806278e-13,-0.5235987666667345,2.094395066666686,-6.255769850633972e-14,-1.5707963000000718,-6.045321005842356e-13
-5.05753112320579e-13,-0.5235987666667347,2.094395066666686,-6.280780605329348e-14,-1.570796300000072,-6.06945226850988e-13
-5.077640122599536e-13,-0.5235987666667348,2.094395066666686,-6.305793394480833e-14,-1.5707963000000722,-6.093583579956112e-13
-5.09774909947376e-13,-0.5235987666667349,2.094395066666686,-6.330851666351934e-14,-1.5707963000000724,-6.117714225635967e-13
-5.11785805477051e-13,-0.523598766666735,2.094395066666686,-6.355869504632639e-14,-1.5707963000000726,-6.141845068519036e-13
-5.137967026300328e-13,-0.5235987666667351,2.094395066666686,-6.38089104893396e-14,-1.5707963000000729,-6.165975971764311e-13
-5.158076108004443e-13,-0.5235987666667352,2.094395066666686,-6.40593160206167e-14,-1.570796300000073,-6.190107013562968e-13
-5.178185019336952e-13,-0.5235987666667353,2.094395066666686,-6.430966256979329e-14,-1.570796300000073,-6.214238005505057e-13
-5.198293900477023e-13,-0.5235987666667354,2.094395066666686,-6.45596144834314e-14,-1.570796300000073,-6.238368888658627e-13
-5.218402776495029e-13,-0.5235987666667355,2.094395066666686,-6.480936134839113e-14,-1.570796300000073,-6.262499776897743e-13
-5.238511689191118e-13,-0.5235987666667357,2.094395066666686,-6.505912760803073e-14,-1.570796300000073,-6.286630598088853e-13
-5.258620758841201e-13,-0.5235987666667358,2.094395066666686,-6.530868500017219e-14,-1.570796300000073,-6.310761556398727e-13
-5.278729876131876e-13,-0.5235987666667359,2.094395066666686,-6.555821074344489e-14,-1.570796300000073,-6.334892603007959e-13
-5.298839106082358e-13,-0.523598766666736,2.094395066666686,-6.580771620150712e-14,-1.570796300000073,-6.359023649235522e-13
-5.318948434346482e-13,-0.5235987666667361,2.094395066666686,-6.605716435645282e-14,-1.570796300000073,-6.383154677257949e-13
-5.339057799869274e-13,-0.5235987666667362,2.094395066666686,-6.630672132195047e-14,-1.570796300000073,-6.407285495286118e-13
-5.35916720483932e-13,-0.5235987666667363,2.094395066666686,-6.655633787029556e-14,-1.570796300000073,-6.431416439248373e-13
-5.379276678888573e-13,-0.5235987666667364,2.094395066666686,-6.680578062951546e-14,-1.570796300000073,-6.45554739379838e-13
-5.399386039506557e-13,-0.5235987666667365,2.094395066666686,-6.705540095186017e-14,-1.570796300000073,-6.479678936002659e-13
-5.419495350227857e-13,-0.5235987666667367,2.094395066666686,-6.730501701176796e-14,-1.570796300000073,-6.503810383786372e-13
-5.439604659127195e-13,-0.5235987666667368,2.094395066666686,-6.755461078778278e-14,-1.570796300000073,-6.527942646862303e-13
-5.459713960240281e-13,-0.5235987666667369,2.094395066666686,-6.780408675888323e-14,-1.570796300000073,-6.552075738358471e-13
-5.479822877462221e-13,-0.523598766666737,2.094395066666686,-6.805330616657099e-14,-1.570796300000073,-6.576209394475753e-13
-5.499931695471908e-13,-0.5235987666667371,2.094395066666686,-6.8302828110016e-14,-1.570796300000073,-6.600343596786788e-13
-5.520040517627215e-13,-0.5235987666667372,2.094395066666686,-6.855243160256038e-14,-1.570796300000073,-6.624477770629229e-13
-5.540149053352759e-13,-0.5235987666667373,2.094395066666686,-6.880204654726554e-14,-1.570796300000073,-6.648613210033577e-13
-5.560257639485812e-13,-0.5235987666667374,2.094395066666686,-6.905153069528669e-14,-1.570796300000073,-6.672748323518207e-13
-5.580366277100204e-13,-0.5235987666667375,2.094395066666686,-6.930092022506122e-14,-1.570796300000073,-6.69688307692189e-13
-5.600474861449887e-13,-0.5235987666667377,2.094395066666686,-6.955012606768895e-14,-1.570796300000073,-6.721018485639736e-13
-5.620583298830492e-13,-0.5235987666667378,2.094395066666686,-6.97997541502588e-14,-1.570796300000073,-6.745153314847607e-13
-5.640691632213468e-13,-0.5235987666667379,2.094395066666686,-7.004969832452433e-14,-1.570796300000073,-6.769287793432762e-13
-5.660800062899452e-13,-0.523598766666738,2.094395066666686,-7.029935362871862e-14,-1.570796300000073,-6.793423116505983e-13
-5.680908378138782e-13,-0.5235987666667381,2.094395066666686,-7.054909696081372e-14,-1.570796300000073,-6.817559530509404e-13
-5.701016711005096e-13,-0.5235987666667382,2.094395066666686,-7.079911008766861e-14,-1.570796300000073,-6.841697085157257e-13
-5.721125217085834e-13,-0.5235987666667383,2.094395066666686,-7.104900672961226e-14,-1.570796300000073,-6.865834260854941e-13
-5.741233790085664e-13,-0.5235987666667384,2.094395066666686,-7.12988634952083e-14,-1.570796300000073,-6.889971055132543e-13
-5.761342503767155e-13,-0.5235987666667385,2.094395066666686,-7.154845464797487e-14,-1.570796300000073,-6.914107468389716e-13
-5.781451362697369e-13,-0.5235987666667387,2.094395066666686,-7.179794422003764e-14,-1.570796300000073,-6.938242938761668e-13
-5.801560393988126e-13,-0.5235987666667388,2.094395066666686,-7.204755414656715e-14,-1.570796300000073,-6.962376725478097e-13
-5.821669223401903e-13,-0.5235987666667389,2.094395066666686,-7.229747181479571e-14,-1.570796300000073,-6.986511107872808e-13
-5.841777873173045e-13,-0.523598766666739,2.094395066666686,-7.254753220503016e-14,-1.570796300000073,-7.010646065153231e-13
-5.861886640246952e-13,-0.5235987666667391,2.094395066666686,-7.279686901382675e-14,-1.570796300000073,-7.03478077574752e-13
-5.881995297280866e-13,-0.5235987666667392,2.094395066666686,-7.3046694039946e-14,-1.570796300000073,-7.058915337602514e-13
-5.902103981212461e-13,-0.5235987666667393,2.094395066666686,-7.32964973277797e-14,-1.570796300000073,-7.083049627193653e-13
-5.922212693731667e-13,-0.5235987666667394,2.094395066666686,-7.354613424912496e-14,-1.570796300000073,-7.107183670970874e-13
-5.942321467505546e-13,-0.5235987666667395,2.094395066666686,-7.379565324912961e-14,-1.570796300000073,-7.131317444214531e-13
-5.962430424102473e-13,-0.5235987666667397,2.094395066666686,-7.404516142977964e-14,-1.570796300000073,-7.155451155936154e-13
-5.982539492389388e-13,-0.5235987666667398,2.094395066666686,-7.429478438361737e-14,-1.570796300000073,-7.179583507840461e-13
-6.002648557940886e-13,-0.5235987666667399,2.094395066666686,-7.454422635467787e-14,-1.570796300000073,-7.203715662617246e-13
-6.022757667174414e-13,-0.52359876666674,2.094395066666686,-7.479358887633589e-14,-1.570796300000073,-7.227847652309572e-13
-6.042866732241014e-13,-0.5235987666667401,2.094395066666686,-7.504286441653852e-14,-1.570796300000073,-7.251979588721669e-13
-6.062975711580062e-13,-0.5235987666667402,2.094395066666686,-7.529248854725214e-14,-1.570796300000073,-7.27611128459057e-13
-6.083084657116514e-13,-0.5235987666667403,2.094395066666686,-7.554237675016263e-14,-1.570796300000073,-7.300243008890109e-13
-6.103193796990924e-13,-0.5235987666667404,2.094395066666686,-7.57920132388127e-14,-1.570796300000073,-7.324374607607726e-13
-6.123303011021851e-13,-0.5235987666667405,2.094395066666686,-7.604154197775883e-14,-1.570796300000073,-7.348507053215924e-13
-6.143412124414376e-13,-0.5235987666667407,2.094395066666686,-7.629107411541499e-14,-1.570796300000073,-7.372640881588459e-13
-6.163521222898979e-13,-0.5235987666667408,2.094395066666686,-7.654053500983545e-14,-1.570796300000073,-7.396774450952954e-13
-6.183630314995595e-13,-0.5235987666667409,2.094395066666686,-7.678994940406172e-14,-1.570796300000073,-7.420908017889714e-13
-6.203739617906294e-13,-0.523598766666741,2.094395066666686,-7.703941228443186e-14,-1.570796300000073,-7.445040698821176e-13
-6.223849013139261e-13,-0.5235987666667411,2.094395066666686,-7.728890112927757e-14,-1.570796300000073,-7.469173156207459e-13
-6.2439583935773e-13,-0.5235987666667412,2.094395066666686,-7.75384223967926e-14,-1.570796300000073,-7.493306235054806e-13
-6.264067848657017e-13,-0.5235987666667413,2.094395066666686,-7.778787501296596e-14,-1.570796300000073,-7.517439177686284e-13
-6.284177151305425e-13,-0.5235987666667414,2.094395066666686,-7.803734205052837e-14,-1.570796300000073,-7.541573432461577e-13
-6.304286327237465e-13,-0.5235987666667415,2.094395066666686,-7.82868461604567e-14,-1.570796300000073,-7.565708957680288e-13
-6.324395643382107e-13,-0.5235987666667417,2.094395066666686,-7.853644325632146e-14,-1.570796300000073,-7.589843563173326e-13
-6.344504746008023e-13,-0.5235987666667418,2.094395066666686,-7.878613283263039e-14,-1.570796300000073,-7.613978579092129e-13
-6.364613758653904e-13,-0.5235987666667419,2.094395066666686,-7.903569600410358e-14,-1.570796300000073,-7.638114049756786e-13
-6.384722691016632e-13,-0.523598766666742,2.094395066666686,-7.928475237023437e-14,-1.570796300000073,-7.662249034304901e-13
-6.404831570902658e-13,-0.5235987666667421,2.094395066666686,-7.953453843433999e-14,-1.570796300000073,-7.686383721880658e-13
-6.424940488536923e-13,-0.5235987666667422,2.094395066666686,-7.978408431582174e-14,-1.570796300000073,-7.710518064099982e-13
-6.445049393458809e-13,-0.5235987666667423,2.094395066666686,-8.003369430670196e-14,-1.570796300000073,-7.734653064399706e-13
-6.465158376924146e-13,-0.5235987666667424,2.094395066666686,-8.028376576977876e-14,-1.570796300000073,-7.75878885241555e-13
-6.485267329346989e-13,-0.5235987666667425,2.094395066666686,-8.053397929260948e-14,-1.570796300000073,-7.782923565802588e-13
-6.505376250689762e-13,-0.5235987666667427,2.094395066666686,-8.078379789254456e-14,-1.570796300000073,-7.807057268063393e-13
-6.525485085522765e-13,-0.5235987666667428,2.094395066666686,-8.103357692351397e-14,-1.570796300000073,-7.831190784974013e-13
-6.545593961729081e-13,-0.5235987666667429,2.094395066666686,-8.128393183423428e-14,-1.570796300000073,-7.855324002955466e-13
-6.565702945616405e-13,-0.523598766666743,2.094395066666686,-8.153400059931822e-14,-1.570796300000073,-7.879456465251906e-13
-6.585811777669672e-13,-0.5235987666667431,2.094395066666686,-8.178393326724267e-14,-1.570796300000073,-7.903588597072091e-13
-6.605920352313614e-13,-0.5235987666667432,2.094395066666686,-8.203367691534426e-14,-1.570796300000073,-7.927721535385997e-13
-6.626028981969313e-13,-0.5235987666667433,2.094395066666686,-8.228353923207167e-14,-1.570796300000073,-7.951854290938435e-13
-6.6461375177404e-13,-0.5235987666667434,2.094395066666686,-8.25332223483467e-14,-1.570796300000073,-7.975987776756501e-13
-6.666245985294611e-13,-0.5235987666667435,2.094395066666686,-8.278269155499254e-14,-1.570796300000073,-8.000122042162384e-13
-6.686354524821811e-13,-0.5235987666667437,2.094395066666686,-8.303236780319472e-14,-1.570796300000073,-8.024256016728403e-13
-6.706463112736499e-13,-0.5235987666667438,2.094395066666686,-8.328193705327599e-14,-1.570796300000073,-8.048390057987253e-13
-6.726571961420548e-13,-0.5235987666667439,2.094395066666686,-8.353150999684196e-14,-1.570796300000073,-8.072523175759317e-13
-6.746680934666004e-13,-0.523598766666744,2.094395066666686,-8.378107767292635e-14,-1.570796300000073,-8.096655516507309e-13
-6.766790143767669e-13,-0.5235987666667441,2.094395066666686,-8.403035930944582e-14,-1.570796300000073,-8.120786480104676e-13
-6.786899284216315e-13,-0.5235987666667442,2.094395066666686,-8.427957167118325e-14,-1.570796300000073,-8.144918285785759e-13
-6.80700837453297e-13,-0.5235987666667443,2.094395066666686,-8.452873627101585e-14,-1.570796300000073,-8.169050921003307e-13
-6.827117502271126e-13,-0.5235987666667444,2.094395066666686,-8.477781691152719e-14,-1.570796300000073,-8.19318347276119e-13
-6.847226664300209e-13,-0.5235987666667445,2.094395066666686,-8.50268188202758e-14,-1.570796300000073,-8.217315916399256e-13
-6.867335980477882e-13,-0.5235987666667447,2.094395066666686,-8.527590587864263e-14,-1.570796300000073,-8.241448243498321e-13
-6.887444951186649e-13,-0.5235987666667448,2.094395066666686,-8.552505657450496e-14,-1.570796300000073,-8.265580300661948e-13
-6.90755377780179e-13,-0.5235987666667449,2.094395066666686,-8.577436512814034e-14,-1.570796300000073,-8.289713182929582e-13
-6.927662568285183e-13,-0.523598766666745,2.094395066666686,-8.602357218549777e-14,-1.570796300000073,-8.31384524103482e-13
-6.947771320088462e-13,-0.5235987666667451,2.094395066666686,-8.627270675426706e-14,-1.570796300000073,-8.33797644831791e-13
-6.967879919802414e-13,-0.5235987666667452,2.094395066666686,-8.652189040032678e-14,-1.570796300000073,-8.362107630061977e-13
-6.987988561568263e-13,-0.5235987666667453,2.094395066666686,-8.677091025269158e-14,-1.570796300000073,-8.386238822765324e-13
-7.008097237525018e-13,-0.5235987666667454,2.094395066666686,-8.701997529750175e-14,-1.570796300000073,-8.410369945563267e-13
-7.028205857383279e-13,-0.5235987666667455,2.094395066666686,-8.726962180146048e-14,-1.570796300000073,-8.434501928198072e-13
-7.048314474517069e-13,-0.5235987666667457,2.094395066666686,-8.751935145521285e-14,-1.570796300000073,-8.458634819131915e-13
-7.068423216002028e-13,-0.5235987666667458,2.094395066666686,-8.776899948436044e-14,-1.570796300000073,-8.482767006914757e-13
-7.088531968515222e-13,-0.5235987666667459,2.094395066666686,-8.801870083254586e-14,-1.570796300000073,-8.506899989670119e-13
-7.10864074700748e-13,-0.523598766666746,2.094395066666686,-8.826842701195657e-14,-1.570796300000073,-8.531033683808123e-13
-7.128749489320157e-13,-0.5235987666667461,2.094395066666686,-8.851809517640708e-14,-1.570796300000073,-8.555168010892241e-13
-7.148858210289486e-13,-0.5235987666667462,2.094395066666686,-8.876784587743546e-14,-1.570796300000073,-8.579302073937604e-13
-7.16896691038226e-13,-0.5235987666667463,2.094395066666686,-8.901704730709116e-14,-1.570796300000073,-8.603435967250545e-13
-7.189075495599858e-13,-0.5235987666667464,2.094395066666686,-8.926614981062189e-14,-1.570796300000073,-8.627570227051975e-13
-7.209184086441675e-13,-0.5235987666667465,2.094395066666686,-8.951551089024687e-14,-1.570796300000073,-8.651704292393874e-13
-7.229292809744391e-13,-0.5235987666667467,2.094395066666686,-8.976470425415531e-14,-1.570796300000073,-8.675837567742109e-13
-7.249401555426998e-13,-0.5235987666667468,2.094395066666686,-9.00137300935241e-14,-1.570796300000073,-8.699970674938476e-13
-7.26951019311763e-13,-0.5235987666667469,2.094395066666686,-9.026273438168693e-14,-1.570796300000073,-8.724105296974436e-13
-7.289618862642971e-13,-0.523598766666747,2.094395066666686,-9.051190540406881e-14,-1.570796300000073,-8.748239599039226e-13
-7.309727689603805e-13,-0.5235987666667471,2.094395066666686,-9.076091745487045e-14,-1.570796300000073,-8.772373631722779e-13
-7.329836655280964e-13,-0.5235987666667472,2.094395066666686,-9.100993368325542e-14,-1.570796300000073,-8.796506907200336e-13
-7.349945604327864e-13,-0.5235987666667473,2.094395066666686,-9.125942228595659e-14,-1.570796300000073,-8.820639943772211e-13
-7.370054614656242e-13,-0.5235987666667474,2.094395066666686,-9.150905556935559e-14,-1.570796300000073,-8.844772213675913e-13
-7.390163640049467e-13,-0.5235987666667475,2.094395066666686,-9.17587967050444e-14,-1.570796300000073,-8.868905080101991e-13
-7.410272500319045e-13,-0.5235987666667477,2.094395066666686,-9.200887344632452e-14,-1.570796300000073,-8.893038620370327e-13
-7.430381234320583e-13,-0.5235987666667478,2.094395066666686,-9.225879839629642e-14,-1.570796300000073,-8.917172870020377e-13
-7.450490098669493e-13,-0.5235987666667479,2.094395066666686,-9.250883680805544e-14,-1.570796300000073,-8.941306314468399e-13
-7.470598881037421e-13,-0.523598766666748,2.094395066666686,-9.275906946456118e-14,-1.570796300000073,-8.965441097979986e-13
-7.490707672088552e-13,-0.5235987666667481,2.094395066666686,-9.30091783832984e-14,-1.570796300000073,-8.989574907800992e-13
-7.510816552439788e-13,-0.5235987666667482,2.094395066666686,-9.325926373856508e-14,-1.570796300000073,-9.01370794280422e-13
-7.530925596982782e-13,-0.5235987666667483,2.094395066666686,-9.350926410155592e-14,-1.570796300000073,-9.037839700404552e-13
-7.551034650825633e-13,-0.5235987666667484,2.094395066666686,-9.375929182562752e-14,-1.570796300000073,-9.061970607681249e-13
-7.571143671387429e-13,-0.5235987666667485,2.094395066666686,-9.400962947230188e-14,-1.570796300000073,-9.08610148153041e-13
-7.591252662895616e-13,-0.5235987666667486,2.094395066666686,-9.426013595642522e-14,-1.570796300000073,-9.110232279477215e-13
-7.611361704897302e-13,-0.5235987666667488,2.094395066666686,-9.451061178754201e-14,-1.570796300000073,-9.134362477400604e-13
-7.63147062011172e-13,-0.5235987666667489,2.094395066666686,-9.47610259978561e-14,-1.570796300000073,-9.158493621703271e-13
-7.651579605272434e-13,-0.523598766666749,2.094395066666686,-9.501096569447033e-14,-1.570796300000073,-9.18262479318799e-13
-7.671688771299602e-13,-0.5235987666667491,2.094395066666686,-9.52607665985702e-14,-1.570796300000073,-9.206755984522321e-13
-7.691798090954436e-13,-0.5235987666667492,2.094395066666686,-9.551089873098346e-14,-1.570796300000073,-9.230887225505445e-13
-7.711907413798094e-13,-0.5235987666667493,2.094395066666686,-9.576093578484568e-14,-1.570796300000073,-9.25501839763457e-13
-7.732016607554315e-13,-0.5235987666667494,2.094395066666686,-9.601110163622121e-14,-1.570796300000073,-9.279150298144227e-13
-7.752125779013758e-13,-0.5235987666667495,2.094395066666686,-9.62615136099873e-14,-1.570796300000073,-9.303282933988889e-13
-7.7722350137167e-13,-0.5235987666667496,2.094395066666686,-9.651164728851099e-14,-1.570796300000073,-9.327416390201102e-13
-7.792344387717758e-13,-0.5235987666667498,2.094395066666686,-9.676192193542044e-14,-1.570796300000073,-9.351548983546018e-13
-7.812453744870545e-13,-0.5235987666667499,2.094395066666686,-9.701232527152042e-14,-1.570796300000073,-9.375681322203264e-13
-7.832563181488888e-13,-0.52359876666675,2.094395066666686,-9.7262885335088e-14,-1.570796300000073,-9.399813007243058e-13
-7.852672599291962e-13,-0.5235987666667501,2.094395066666686,-9.751321040358805e-14,-1.570796300000073,-9.423943454441043e-13
-7.872781994576541e-13,-0.5235987666667501,2.094395066666686,-9.776317501871886e-14,-1.570796300000073,-9.448073228154873e-13
-7.892891367903126e-13,-0.5235987666667501,2.094395066666686,-9.80129947038023e-14,-1.570796300000073,-9.47220238071252e-13
-7.913000722159874e-13,-0.5235987666667501,2.094395066666686,-9.826265526652143e-14,-1.570796300000073,-9.496330963151742e-13
-7.933110062031768e-13,-0.5235987666667501,2.094395066666686,-9.85122050293129e-14,-1.570796300000073,-9.520459024875319e-13
-7.953219391515479e-13,-0.5235987666667501,2.094395066666686,-9.876169436614715e-14,-1.570796300000073,-9.544586610948055e-13
-7.973328710328711e-13,-0.5235987666667501,2.094395066666686,-9.901107040970042e-14,-1.570796300000073,-9.568713758078884e-13
-7.993438020473113e-13,-0.5235987666667501,2.094395066666686,-9.926034229843202e-14,-1.570796300000073,-9.59284050278364e-13
-8.013547323707332e-13,-0.5235987666667501,2.094395066666686,-9.950952071284982e-14,-1.570796300000073,-9.616966878521424e-13
-8.033656621146621e-13,-0.5235987666667501,2.094395066666686,-9.975861812803409e-14,-1.570796300000073,-9.641092915492955e-13
-8.053765913812996e-13,-0.5235987666667501,2.094395066666686,-1.0000764830546159e-13,-1.570796300000073,-9.665218641448473e-13
-8.073875204803927e-13,-0.5235987666667501,2.094395066666686,-1.0025664064888412e-13,-1.570796300000073,-9.689344084563449e-13
-8.093984493825772e-13,-0.5235987666667501,2.094395066666686,-1.0050561199354727e-13,-1.570796300000073,-9.713469266942902e-13
-8.114093780469427e-13,-0.5235987666667501,2.094395066666686,-1.0075453435740228e-13,-1.570796300000073,-9.737594208765307e-13
-8.13420306398946e-13,-0.5235987666667501,2.094395066666686,-1.0100338104177361e-13,-1.570796300000073,-9.761718928143298e-13
-8.154312346592012e-13,-0.5235987666667501,2.094395066666686,-1.012521860745268e-13,-1.570796300000073,-9.785843445234051e-13
-8.174421627257026e-13,-0.5235987666667501,2.094395066666686,-1.0150092455614175e-13,-1.570796300000073,-9.809967774891629e-13
-8.19453090779077e-13,-0.5235987666667501,2.094395066666686,-1.017496323120708e-13,-1.570796300000073,-9.834091934112403e-13
-8.214640186678752e-13,-0.5235987666667501,2.094395066666686,-1.0199828623921647e-13,-1.570796300000073,-9.8582159346831e-13
-8.234749465459894e-13,-0.5235987666667501,2.094395066666686,-1.0224692370476997e-13,-1.570796300000073,-9.882339790995966e-13
-8.254858742247984e-13,-0.5235987666667501,2.094395066666686,-1.0249552314606377e-13,-1.570796300000073,-9.906463512306617e-13
-8.274968018274174e-13,-0.5235987666667501,2.094395066666686,-1.0274407736814124e-13,-1.570796300000073,-9.930587110703812e-13
-8.295077294788871e-13,-0.5235987666667501,2.094395066666686,-1.0299262553720746e-13,-1.570796300000073,-9.954710597446218e-13
-8.315186572379608e-13,-0.5235987666667501,2.094395066666686,-1.0324116173780543e-13,-1.570796300000073,-9.978833982234407e-13
-8.335295848895378e-13,-0.5235987666667501,2.094395066666686,-1.0348966646407255e-13,-1.570796300000073,-1.000295727071767e-12
-8.355405125161289e-13,-0.5235987666667501,2.094395066666686,-1.0373813457606226e-13,-1.570796300000073,-1.0027080471507004e-12
-8.375514402197937e-13,-0.5235987666667501,2.094395066666686,-1.0398660703968785e-13,-1.570796300000073,-1.005120359282664e-12
-8.395623677493355e-13,-0.5235987666667501,2.094395066666686,-1.042350197862132e-13,-1.570796300000073,-1.0075326638075011e-12
-8.415732951769632e-13,-0.5235987666667501,2.094395066666686,-1.0448341480792157e-13,-1.570796300000073,-1.0099449614037343e-12
-8.435842225831596e-13,-0.5235987666667501,2.094395066666686,-1.0473178825212586e-13,-1.570796300000073,-1.0123572527131887e-12
-8.455951500087466e-13,-0.5235987666667501,2.094395066666686,-1.0498013677626779e-13,-1.570796300000073,-1.0147695382857978e-12
-8.476060775056166e-13,-0.5235987666667501,2.094395066666686,-1.0522850314253756e-13,-1.570796300000073,-1.0171818186449337e-12
-8.496170050995243e-13,-0.5235987666667501,2.094395066666686,-1.0547688452157224e-13,-1.570796300000073,-1.0195940942460495e-12
-8.516279328387728e-13,-0.5235987666667501,2.094395066666686,-1.0572527808677038e-13,-1.570796300000073,-1.0220063655366825e-12
-8.536388604234002e-13,-0.5235987666667501,2.094395066666686,-1.0597362182353785e-13,-1.570796300000073,-1.0244186325149524e-12
-8.556497879269318e-13,-0.5235987666667501,2.094395066666686,-1.0622195926912773e-13,-1.570796300000073,-1.0268308955973854e-12
-8.576607153856696e-13,-0.5235987666667501,2.094395066666686,-1.0647028836807725e-13,-1.570796300000073,-1.0292431551316455e-12
-8.596716427996135e-13,-0.5235987666667501,2.094395066666686,-1.067186091203864e-13,-1.570796300000073,-1.0316554111177328e-12
-8.6168257023706e-13,-0.5235987666667501,2.094395066666686,-1.0696691767189429e-13,-1.570796300000073,-1.0340676641989986e-12
-8.636934976980092e-13,-0.5235987666667501,2.094395066666686,-1.0721521402260093e-13,-1.570796300000073,-1.036479914375443e-12
-8.657044252078704e-13,-0.5235987666667501,2.094395066666686,-1.0746349508554495e-13,-1.570796300000073,-1.0388921621459169e-12
-8.677153527897862e-13,-0.5235987666667501,2.094395066666686,-1.0771180542192868e-13,-1.570796300000073,-1.0413044077360614e-12
-8.697262804437565e-13,-0.5235987666667501,2.094395066666686,-1.0796014503175211e-13,-1.570796300000073,-1.0437166511458766e-12
-8.717372082022055e-13,-0.5235987666667501,2.094395066666686,-1.0820851134396649e-13,-1.570796300000073,-1.0461288927775808e-12
-8.737481360651331e-13,-0.5235987666667501,2.094395066666686,-1.084569043585718e-13,-1.570796300000073,-1.0485411326311743e-12
-8.757590637354547e-13,-0.5235987666667501,2.094395066666686,-1.087052623186445e-13,-1.570796300000073,-1.0509533706538095e-12
-8.777699912131702e-13,-0.5235987666667501,2.094395066666686,-1.089535852241846e-13,-1.570796300000073,-1.0533656068454865e-12
-8.797809184982799e-13,-0.5235987666667501,2.094395066666686,-1.0920187307519208e-13,-1.570796300000073,-1.0557778412062055e-12
-8.817918456896027e-13,-0.5235987666667501,2.094395066666686,-1.0945012330896281e-13,-1.570796300000073,-1.0581900742382472e-12
-8.838027727871388e-13,-0.5235987666667501,2.094395066666686,-1.0969833592549681e-13,-1.570796300000073,-1.060602305941612e-12
-8.858136997908881e-13,-0.5235987666667501,2.094395066666686,-1.0994651092479404e-13,-1.570796300000073,-1.0630145363162996e-12
-8.878246267008508e-13,-0.5235987666667501,2.094395066666686,-1.1019464830685454e-13,-1.570796300000073,-1.0654267653623103e-12
-8.898355535726971e-13,-0.5235987666667501,2.094395066666686,-1.1044274550349389e-13,-1.570796300000073,-1.0678389935350938e-12
-8.91846480435544e-13,-0.5235987666667501,2.094395066666686,-1.1069084784919708e-13,-1.570796300000073,-1.0702512209343656e-12
-8.938574072893915e-13,-0.5235987666667501,2.094395066666686,-1.1093895534396409e-13,-1.570796300000073,-1.0726634475601255e-12
-8.958683341342397e-13,-0.5235987666667501,2.094395066666686,-1.1118706798779493e-13,-1.570796300000073,-1.0750756734123735e-12
-8.978792609700885e-13,-0.5235987666667501,2.094395066666686,-1.1143518578068961e-13,-1.570796300000073,-1.0774878984911096e-12
-8.99890187796938e-13,-0.5235987666667501,2.094395066666686,-1.1168330872264812e-13,-1.570796300000073,-1.0799001227963338e-12
-9.019011146231622e-13,-0.5235987666667501,2.094395066666686,-1.1193143475464347e-13,-1.570796300000073,-1.0823123466450154e-12
-9.039120414487611e-13,-0.5235987666667501,2.094395066666686,-1.1217956387667564e-13,-1.570796300000073,-1.0847245700371543e-12
-9.059229682737348e-13,-0.5235987666667501,2.094395066666686,-1.1242769608874466e-13,-1.570796300000073,-1.0871367929727506e-12
-9.079338950980833e-13,-0.5235987666667501,2.094395066666686,-1.126758313908505e-13,-1.570796300000073,-1.0895490154518043e-12
-9.099448219218065e-13,-0.5235987666667501,2.094395066666686,-1.1292396978299319e-13,-1.570796300000073,-1.0919612374743152e-12
-9.119557487449045e-13,-0.5235987666667501,2.094395066666686,-1.1317211126517271e-13,-1.570796300000073,-1.0943734590402835e-12
-9.139666755673773e-13,-0.5235987666667501,2.094395066666686,-1.1342025583738906e-13,-1.570796300000073,-1.0967856801497092e-12
-9.159776023892249e-13,-0.5235987666667501,2.094395066666686,-1.1366840349964225e-13,-1.570796300000073,-1.0991979008025922e-12
-9.179885292104472e-13,-0.5235987666667501,2.094395066666686,-1.1391655425193227e-13,-1.570796300000073,-1.1016101209989325e-12
-9.199994560125079e-13,-0.5235987666667501,2.094395066666686,-1.141647060318811e-13,-1.570796300000073,-1.1040223410445595e-12
-9.220103827954069e-13,-0.5235987666667501,2.094395066666686,-1.1441285883948875e-13,-1.570796300000073,-1.1064345609394733e-12
-9.240213095591442e-13,-0.5235987666667501,2.094395066666686,-1.1466101267475522e-13,-1.570796300000073,-1.1088467806836737e-12
-9.260322363037198e-13,-0.5235987666667501,2.094395066666686,-1.1490916753768052e-13,-1.570796300000073,-1.111259000277161e-12
-9.280431630291338e-13,-0.5235987666667501,2.094395066666686,-1.1515732342826463e-13,-1.570796300000073,-1.1136712197199348e-12
-9.300540897353861e-13,-0.5235987666667501,2.094395066666686,-1.1540548034650756e-13,-1.570796300000073,-1.1160834390119955e-12
-9.320650164224768e-13,-0.5235987666667501,2.094395066666686,-1.156536382924093e-13,-1.570796300000073,-1.1184956581533428e-12
-9.340759430904057e-13,-0.5235987666667501,2.094395066666686,-1.1590179726596988e-13,-1.570796300000073,-1.120907877143977e-12
-9.36086869739173e-13,-0.5235987666667501,2.094395066666686,-1.1614995726718928e-13,-1.570796300000073,-1.1233200959838977e-12
-9.380977963687786e-13,-0.5235987666667501,2.094395066666686,-1.1639811829606749e-13,-1.570796300000073,-1.1257323146731053e-12
-9.401087229792226e-13,-0.5235987666667501,2.094395066666686,-1.1664628035260452e-13,-1.570796300000073,-1.1281445332115995e-12
-9.421196495705049e-13,-0.5235987666667501,2.094395066666686,-1.1689444343680037e-13,-1.570796300000073,-1.1305567515993805e-12
-9.441305761426255e-13,-0.5235987666667501,2.094395066666686,-1.1714260754865504e-13,-1.570796300000073,-1.1329689698364482e-12
-9.461415026955844e-13,-0.5235987666667501,2.094395066666686,-1.1739077268816853e-13,-1.570796300000073,-1.1353811879228026e-12
-9.481524292293817e-13,-0.5235987666667501,2.094395066666686,-1.1763893885534085e-13,-1.570796300000073,-1.1377934058584438e-12
-9.501633557440173e-13,-0.5235987666667501,2.094395066666686,-1.1788710605017198e-13,-1.570796300000073,-1.1402056236433716e-12
-9.521742822394912e-13,-0.5235987666667501,2.094395066666686,-1.181352742726619e-13,-1.570796300000073,-1.1426178412775862e-12
-9.541852087158035e-13,-0.5235987666667501,2.094395066666686,-1.1838344352281065e-13,-1.570796300000073,-1.1450300587610875e-12
-9.56196135172954e-13,-0.5235987666667501,2.094395066666686,-1.1863161380061822e-13,-1.570796300000073,-1.1474422760938754e-12
-9.58207061610943e-13,-0.5235987666667501,2.094395066666686,-1.188797851060846e-13,-1.570796300000073,-1.14985449327595e-12
-9.602179880297702e-13,-0.5235987666667501,2.094395066666686,-1.191279574392098e-13,-1.570796300000073,-1.1522667103073112e-12
-9.622289144294357e-13,-0.5235987666667501,2.094395066666686,-1.1937613079999384e-13,-1.570796300000073,-1.1546789271879592e-12
-9.642398408099396e-13,-0.5235987666667501,2.094395066666686,-1.1962430518843668e-13,-1.570796300000073,-1.157091143917894e-12
-9.6625076727107e-13,-0.5235987666667501,2.094395066666686,-1.1987247855685317e-13,-1.570796300000073,-1.1595033608503191e-12
-9.682616938128269e-13,-0.5235987666667501,2.094395066666686,-1.2012065090524328e-13,-1.570796300000073,-1.1619155779852345e-12
-9.702726204352104e-13,-0.5235987666667501,2.094395066666686,-1.2036882223360703e-13,-1.570796300000073,-1.16432779532264e-12
-9.722835471382204e-13,-0.5235987666667501,2.094395066666686,-1.2061699254194442e-13,-1.570796300000073,-1.166740012862536e-12
-9.74294473921857e-13,-0.5235987666667501,2.094395066666686,-1.2086516183025543e-13,-1.570796300000073,-1.1691522306049223e-12
-9.763054007861201e-13,-0.5235987666667501,2.094395066666686,-1.2111333009854008e-13,-1.570796300000073,-1.1715644485497988e-12
-9.783163277310098e-13,-0.5235987666667501,2.094395066666686,-1.2136149734679838e-13,-1.570796300000073,-1.1739766666971656e-12
-9.80327254756526e-13,-0.5235987666667501,2.094395066666686,-1.216096635750303e-13,-1.570796300000073,-1.1763888850470227e-12
-9.823381818626688e-13,-0.5235987666667501,2.094395066666686,-1.2185782878323584e-13,-1.570796300000073,-1.1788011035993702e-12
-9.843491090494381e-13,-0.5235987666667501,2.094395066666686,-1.2210599297141502e-13,-1.570796300000073,-1.181213322354208e-12
-9.86360036316834e-13,-0.5235987666667501,2.094395066666686,-1.2235415613956783e-13,-1.570796300000073,-1.183625541311536e-12
-9.883709636648564e-13,-0.5235987666667501,2.094395066666686,-1.226023182876943e-13,-1.570796300000073,-1.1860377604713543e-12
-9.903818910935054e-13,-0.5235987666667501,2.094395066666686,-1.2285047941579437e-13,-1.570796300000073,-1.1884499798336629e-12
-9.923928186027808e-13,-0.5235987666667501,2.094395066666686,-1.2309863952386809e-13,-1.570796300000073,-1.1908621993984617e-12
-9.94403746192683e-13,-0.5235987666667501,2.094395066666686,-1.2334679861191542e-13,-1.570796300000073,-1.193274419165751e-12
-9.964146738632116e-13,-0.5235987666667501,2.094395066666686,-1.235949566799364e-13,-1.570796300000073,-1.1956866391355304e-12
2.1112022438381323e-06,-0.5236332948255137,2.0943696341646096,0.0007007527536558334,-1.5707960751249666,2.5128528095348762e-06
6.076175282868873e-06,-0.5236976915719428,2.0943199438590105,0.0020456927859345236,-1.570795713968685,7.181889058173841e-06
1.1828882252239648e-05,-0.5237843952396932,2.0942456495755954,0.003981157721230152,-1.5707953491035902,1.380069785509024e-05
1.942798382039603e-05,-0.5238839692694234,2.0941453676547015,0.006456571573034864,-1.570795143502422,2.2259719150836705e-05
2.9006970403479807e-05,-0.5239858930211565,2.0940170475544884,0.009424541714687915,-1.5707952772274831,3.250706713078764e-05
4.073759051145358e-05,-0.5240791731827305,2.093858260906439,0.012840879820514543,-1.5707959364875823,4.4520790386393596e-05
5.4803374091931535e-05,-0.524152809866425,2.0936664217170073,0.016664568450599906,-1.5707973047532577,5.828965547246247e-05
7.138082822889653e-05,-0.5241961454152023,2.093438949344942,0.02085768929650435,-1.5707995556598267,7.380026348648968e-05
9.062648722968568e-05,-0.524199118753444,2.093173384713716,0.02538532462261759,-1.5708028474734093,9.102886093508125e-05
0.00011266845705430959,-0.5241524438337833,2.0928674689979285,0.0302154400719939,-1.5708073189323615,0.00010993662330425376
0.00013760143304356655,-0.5240477272690875,2.0925191928036084,0.03531875459064127,-1.5708130863017689,0.00013046750165417677
0.00016548440356432237,-0.5238775374739639,2.0921268226878595,0.040668601560149065,-1.570820241496448,0.00015254793814737283
0.00019634042305960211,-0.5236354354350854,2.091688910759587,0.04624078412632324,-1.570828851136829,0.00017608791893665234
0.0002301579584602287,-0.5233159754630058,2.0912042920902323,0.05201342700510012,-1.5708389564070666,0.0002009829500906844
0.0002668933989579699,-0.5229146828468985,2.0906720737527427,0.057966826603996345,-1.5708505735884823,0.00022711662765553516
0.0003064743833631869,-0.5224280141566557,2.0900916185036102,0.06408330101774,-1.5708636951457102,0.0002543635373202422
0.0003488036563937073,-0.5218533049520598,2.089462525426704,0.07034704126992908,-1.5708782912470953,0.00028259227708526773
0.00039376320756894434,-0.521188708825987,2.088784609267895,0.07674396502953539,-1.5708943116089813,0.0003116684366911478
0.0004412184848505748,-0.5204331309961112,2.08805787969964,0.0832615739037055,-1.5709116875636766,0.00034145740246588455
0.0004910225252534244,-0.5195861590436737,2.0872825213551343,0.08988881528258226,-1.5709303342584113,0.00037182690386323595
0.0005430198656186778,-0.5186479928740291,2.086458875159201,0.09661594957709585,-1.5709501529089647,0.0004026492296669538
0.0005970501403095986,-0.5176193755199495,2.085587421240359,0.10343442355215224,-1.5709710330414506,0.0004338030799314759
0.0006529513021829051,-0.5165015260253792,2.0846687635302485,0.11033675031431771,-1.5709928546683563,0.0004651750409310895
0.0007105624249234623,-0.5152960753262372,2.083703616031572,0.117316396369992,-1.5710154903585634,0.0004966606826032516
0.000769726071358939,-0.514005005776548,2.082692790652264,0.1243676760328738,-1.571038807171107,0.0005281652967550108
0.000830290232187786,-0.5126305947490174,2.081637186454308,0.13148565333091286,-1.5710626684318578,0.0005596043062727829
0.0008921098545406929,-0.5111753625626244,2.0805377801421594,0.1386660514460172,-1.5710869353406014,0.0005909033832489473
0.0009550479846473882,-0.5096420248512291,2.0793956176119743,0.14590516961590644,-1.5711114684051397,0.0006219983111034621
0.0010189765632071751,-0.5080334493765324,2.07821180639024,0.15319980733940933,-1.571136128702408,0.0006528346358206521
0.0010837769181889663,-0.5063526172049717,2.076987508806711,0.1605471956526967,-1.571160778970062,0.000683367153222825
0.0011493399866339372,-0.5046025881093665,2.0757239357698607,0.16794493518294684,-1.5711852845407877,0.000713559259475294
0.0012155663220505405,-0.5027864700050979,2.074422341032338,0.17539094064184846,-1.5712095141245421,0.0007433822189063958
0.0012823659149712385,-0.5009073922053602,2.0730840158603674,0.18288339138513737,-1.571233340455286,0.0007728143669524397
0.0013496578740319143,-0.49896848225395624,2.0717102840387644,0.19042068764321893,-1.5712566408111814,0.0008018402886165634
0.001417369993967641,-0.49697284608576847,2.0703024971641417,0.19800141201327828,-1.571279297423963,0.0008304499877041245
0.0014854382472713646,-0.49492355125590204,2.0688620301923444,0.2056242957994097,-1.5713011977875062,0.0008586380746624816
0.0015538062191392276,-0.4928236129808235,2.0673902772204755,0.21328818978845154,-1.5713222348803129,0.0008864029812403672
0.0016224245164582832,-0.49067598273455043,2.0658886474912164,0.22099203905831571,-1.5713423073097317,0.000913746224287382
0.0016912501573961146,-0.48848353915400883,2.064358561616877,0.228734861426969,-1.5713613193935345,0.000940671713522721
0.001760245968581648,-0.4862490810107909,2.0628014480216494,0.23651572916844169,-1.5713791811834463,0.0009671851234004502
0.0018293799905009596,-0.48397532202246607,2.061218739606326,0.2443337536402496,-1.571395808444277,0.000993293319319709
0.001898624911904063,-0.4816648872831356,2.059611870637349,0.25218807248968933,-1.5714111225913021,0.0010190038533959029
0.0019679575262717785,-0.4793203111117098,2.057982273865362,0.2600778391279549,-1.5714250505991103,0.0010443245135177684
0.002037358227943342,-0.4769440361237675,2.056331377873433,0.26800221418640746,-1.5714375248821688,0.0010692629393453006
0.002106810538802967,-0.47453841335268826,2.0546606046569096,0.275960358692028,-1.5714484831581514,0.0010938262885629682
0.002176300677392622,-0.47210570325471185,2.0529713674315593,0.28395142872419843,-1.5714578682938531,0.0011180209622018798
0.002245817165129846,-0.46964807745050036,2.051265068666716,0.2919745713375126,-1.5714656281403603,0.0011418523785313754
0.0023153504673403907,-0.4671676210687843,2.0495430983374243,0.30002892155797317,-1.5714717153620557,0.0011653247893385864
0.0023848926728590575,-0.46466633556970055,2.047806832386546,0.30811360028169493,-1.5714760872598976,0.0011884411400694239
0.0024544372084080775,-0.46214614194015907,2.0460576313870065,0.316227712925085,-1.5714787055924233,0.0012112029670887626
0.0025239785854038895,-0.4596088841656104,2.044296839392578,0.32437034869430265,-1.5714795363967382,0.0012336103275094792
0.002593512176015505,-0.4570563328944839,2.042525782964487,0.3325405803590821,-1.5714785498117285,0.0012556617564939553
0.00266303401946297,-0.45449018922157725,2.0407457703596084,0.34073746443200825,-1.5714757199029763,0.0012773542521026496
0.002732540652827515,-0.4519120885284252,2.0389580908663865,0.34896004166841826,-1.571471024492234,0.0012986832803121328
0.002802028965015592,-0.4493236043270147,2.0371640142737064,0.3572073378151177,-1.5714644449917794,0.0013196427981404526
0.002871496071399302,-0.446726252062028,2.0353647904580727,0.3654783645475354,-1.571455966244345,0.0013402252917215907
0.0029409392092810895,-0.44412149283392355,2.0335616490742634,0.3737721205451646,-1.5714455763676032,0.0013604218293549798
0.003010355648761673,-0.44151073701338994,2.031755799335853,0.3820875926638511,-1.5714332666054098,0.0013802221233271716
0.0030797426175456573,-0.43889534772294586,2.029948429872006,0.39042375717129624,-1.5714190311857625,0.0013996145989596308
0.003149097242825294,-0.43627664416586315,2.02814070864695,0.3987795810189286,-1.5714028671823461,0.0014185864746219872
0.003218416498865622,-0.4336559047906966,2.0263337829314825,0.4071540231286486,-1.5713847743856761,0.0014371238400534836
0.0032876971682054405,-0.43103437027936753,2.0245287793139246,0.41554603567813314,-1.571364755177922,0.0014552117422843875
0.003356935813546092,-0.428413246352852,2.022726803740416,0.4239545653722696,-1.571342814411928,0.001472834276109869
0.003426128749292648,-0.42579370639336916,2.0209289415766336,0.43237855469147307,-1.5713189593008092,0.0014899746671003826
0.0034952720285274497,-0.42317689387835505,2.0191362576800107,0.4408169431107413,-1.5712931993067816,0.001506615365224356
0.0035643614301613417,-0.42056392463081327,2.0173497964770393,0.44926866828521894,-1.5712655460381881,0.0015227381322850113
0.003633392451708446,-0.41795588888756413,2.015570582038162,0.45773266719993255,-1.5712360131504612,0.00153832412970203
0.003702360304198498,-0.4153538531904102,2.013799618144951,0.4662078772827086,-1.5712046162525337,0.0015533540030650342
0.0037712599150094054,-0.41275886210424473,2.0120378883437726,0.4746932374803641,-1.5711713728138528,0.0015678079701895253
0.0038400859270477606,-0.41017193977097594,2.0102863559835282,0.48318768929900424,-1.5711363020794333,0.0015816659002001298
0.003908832704625297,-0.4075940913037563,2.0085459642326033,0.49169017780976343,-1.571099424985097,0.0015949073953931171
0.003977494338696338,-0.40502630403056433,2.0068176360734746,0.500199652621756,-1.5710607640774186,0.0016075118680312236
0.004046064656427047,-0.4024695485936694,2.0051022742722986,0.5087150688241057,-1.5710203434342769,0.001619458617805033
0.004114537226352721,-0.3999247799148259,2.0034007613234475,0.5172353878991105,-1.570978188592021,0.001630726900674439
0.004182905370801909,-0.3973929380314615,2.0017139593665014,0.5257595786083512,-1.570934326470133,0.0016412960020093608
0.004251162171477364,-0.3948749488150031,2.0000427100775493,0.5342866178537901,-1.5708887853035942,0.0016511452989297819
0.004319300482972883,-0.3923717245758002,1.998387834532827,0.5428154915152908,-1.5708415945714396,0.001660254328016086
0.004387312941977919,-0.3898841645651467,1.9967501330471462,0.5513451952662839,-1.5707927849304402,0.0016686028453053764
0.004455191977852636,-0.3874131553805911,1.9951303849872968,0.5598747353686953,-1.570742388149439,0.001676170884915039
0.004522929822612238,-0.3849595712822609,1.9935293485620524,0.5684031294482025,-1.5706904370455792,0.0016829388142851438
0.004590518521812112,-0.38252427442688486,1.991947760590185,0.5769294072505367,-1.5706369654210537,0.0016888873877516748
0.004657949944233407,-0.3801081150267415,1.9903863362486731,0.5854526113794043,-1.5705820080018953,0.0016939977963386912
0.004725215793508006,-0.37771193143928683,1.9888457688027168,0.5939717980161998,-1.5705256003761074,0.0016982517171584544
0.0047923076174588835,-0.3753365501945871,1.987326729320441,0.6024860376216873,-1.5704677789344765,0.001701631358075902
0.004859216816770563,-0.3729827859660479,1.9858298663744434,0.6109944156194133,-1.5704085808127457,0.0017041194994533537
0.004925934655176721,-0.37065144148951706,1.984355805732352,0.6194960330603902,-1.5703480438331854,0.001705699535262569
0.004992452269916583,-0.3683433074363216,1.982905150039152,0.627990007268542,-1.570286206446493,0.001706355512296349
0.005058760679965122,-0.3660591622457635,1.9814784784942818,0.6364754724662953,-1.570223107676189,0.0017060721650165663
0.005124850794499259,-0.36379977192119356,1.9800763465257898,0.6449515803793452,-1.5701587870634135,0.0017048349486242715
0.005190713421989478,-0.3615658897939759,1.978699285464136,0.6534175008195956,-1.570093284611726,0.0017026300707395352
0.00525633927933936,-0.3593582562595938,1.9773478022183624,0.6618724222452247,-1.5700266407323886,0.001699444521129592
0.005321718998451452,-0.3571775984903234,1.9760223789576212,0.6703155522968575,-1.5699588961925441,0.0016952660969311803
0.005386843136083148,-0.3550246301267518,1.97472347279972,0.6787461183083038,-1.5698900920610463,0.001690083429231598
0.005451702180692772,-0.35290005095288457,1.9734515155100882,0.6871633677909742,-1.5698202696576076,0.0016838860047345761
0.005516286560500003,-0.3508045465569835,1.9722069132129163,0.6955665688904416,-1.5697494705015442,0.001676664186776837
0.00558058665189545,-0.34873878798118985,1.9709900461168675,0.7039550108139235,-1.5696777362608751,0.0016684092347912674
0.005644592784954406,-0.3467034313632808,1.9698012682580202,0.7123280042276326,-1.5696051087048912,0.0016591133191328521
0.005708295252053851,-0.34469911757164085,1.9686409072611835,0.7206848816223488,-1.5695316296546598,0.0016487695371019463
0.0057716843149730026,-0.34272647183669275,1.967509264122187,0.7290249976463367,-1.569457340935777,0.0016373719256542495
0.005834750210171832,-0.3407861033808607,1.9664066130129794,0.7373477294044891,-1.5693822843338203,0.0016249154706338314
0.005897483159649255,-0.33887860504726447,1.9653332011100477,0.7456524767220546,-1.5693065015454086,0.0016113961194898368
0.005959873374754589,-0.3370045529315885,1.964289248449546,0.753938662372921,-1.5692300341370473,0.001596810785554396
0.006021911064823717,-0.33516450601597697,1.9632749478086977,0.7622057322705876,-1.5691529235004562,0.0015811573551851744
0.0060835864427421175,-0.3333590058080327,1.9622904646158403,0.7704531556216442,-1.5690752108120074,0.0015644346902747408
0.006144889732182611,-0.3315885759850463,1.961335936889441,0.7786804250406208,-1.5689969369917554,0.0015466426306543948
0.006205811174322314,-0.32985372204498437,1.9604114752072985,0.7868870566257729,-1.5689181426642225,0.0015277819943189063
0.006266341035846678,-0.32815493096475,1.959517162706398,0.795072589995112,-1.568838868119198,0.0015078545771560273
0.0063264696145751585,-0.3264926708673122,1.958653055114566,0.8032365882826149,-1.5687591532762792,0.0014868631488931083
0.006386187246696525,-0.32486739069750836,1.9578191808137786,0.8113786380939401,-1.5686790376492177,0.0014648114489211742
0.006445484313579751,-0.3232795199075525,1.9570155409357406,0.8194983494216711,-1.5685985603121275,0.0014417041801375406
0.006504351248321208,-0.3217294681527055,1.9562421094898936,0.8275953555200111,-1.5685177598674593,0.0014175470010220246
0.006562778543442429,-0.32021762499721135,1.9554988335236945,0.8356693127388415,-1.5684366744143081,0.001392346517196358
0.006620756757377935,-0.3187443596313567,1.9547856333154536,0.8437199003175667,-1.5683553415195184,0.0013661102704301787
0.006678276522477818,-0.31731002059933866,1.9541024025991465,0.8517468201387473,-1.5682737981887978,0.001338846727505344
0.0067353285509299385,-0.3159149355389501,1.953449008821454,0.859749796442321,-1.5681920808416074,0.0013105652658704338
0.006791903643270241,-0.3145594109322528,1.95282529342995,0.8677285755004192,-1.5681102252849641,0.0012812761601273203
0.006847992694931056,-0.3132437318683767,1.9522310721926437,0.8756829252539226,-1.5680282666909349,0.0012509905654775441
0.006903586704495619,-0.31196816181777437,1.9516661355477773,0.8836126349110798,-1.5679462395739767,0.0012197205013059313
0.006958676779874854,-0.31073294241885785,1.9511302489838156,0.8915175145094806,-1.5678641777721443,0.0011874788317625508
0.007013254147363137,-0.3095382932760462,1.950623153448191,0.8993973944417463,-1.5677821144268669,0.001154279247497133
0.007067310159761219,-0.30838441177014747,1.9501445657846201,0.9072521249464461,-1.567700081965351,0.00112013624537212
0.007120836302364909,-0.3072714728814367,1.9496941791983764,0.9150815755655423,-1.5676181120869555,0.001085065105356838
0.007173824202626148,-0.30619962902430214,1.9492716637478018,0.922885634568875,-1.5675362357472014,0.001049081869278091
0.007226265637042697,-0.30516900989498585,1.948876666862139,0.9306642083478389,-1.5674544831463992,0.0010122033162590206
0.007278152540846828,-0.3041797223313907,1.948508813883942,0.9384172207789447,-1.5673728837167973,0.0009744469393755239
0.00732947701517953,-0.303231850186293,1.9481677086359273,0.9461446125594645,-1.567291466114047,0.0009358309193489496
0.007380231336660213,-0.30232545421314894,1.9478529340105826,0.9538463405160822,-1.567210258207551,0.0008963740992033541
0.007430407965013482,-0.3014605719657017,1.9475640525822198,0.9615223768887907,-1.5671292870744542,0.0008560959565353121
0.007479999553371446,-0.30063721771073076,1.9473006072398107,0.9691727085911227,-1.5670485789920976,0.0008150165770018079
0.007528998954611107,-0.2998553823557363,1.9470621218406314,0.9767973364494382,-1.5669681594363212,0.0007731566240558212
0.007577399232308329,-0.29911503339015827,1.9468481018824577,0.9843962744219107,-1.5668880530759435,0.0007305373114535441
0.0076251936691246434,-0.2984161148421393,1.9466580351944096,0.9919695488001601,-1.566808283771424,0.000687180373118311
0.007672375775616843,-0.29775854725073253,1.9464913926450411,0.999517197395078,-1.566728874574313,0.0006431080327667577
0.007718939299552195,-0.29714222765412746,1.9463476288666999,1.0070392687088645,-1.5666498477273179,0.0005983429733428738
0.007764878234840894,-0.2965670295947256,1.946226182995335,1.0145358210954927,-1.5665712246659325,0.0005529083056818412
0.00781018683140081,-0.29603280314148306,1.9461264794246111,1.022006921911534,-1.5664930260200702,0.0005068275373951849
0.007854859604021724,-0.29553937493067467,1.9460479285736763,1.0294526466598142,-1.56641527161784,0.0004601245406654793
0.007898891340318764,-0.2950865482258559,1.945989927667637,1.0368730781281064,-1.5663379804913071,0.00041282351915248553
0.007942277112479516,-0.29467410299686014,1.9459518615291038,1.044268305524369,-1.5662611708787226,0.00036494897722368395
0.007985012283732409,-0.2943017960206165,1.9459331033812255,1.051638423612257,-1.566184860233645,0.0003165256853793774
0.008027092520004346,-0.29396936100248733,1.9459330156597245,1.0589835318475331,-1.5661090652287468,0.00026757864910975735
0.00806851379631365,-0.2936765087212502,1.945950950834549,1.0663037335194125,-1.5660338017663673,0.00021813307413547908
0.008109272407307036,-0.2934229271966949,1.9459862522388016,1.0735991348976428,-1.5659590849847786,0.00016821433447399635
0.0081493649747351,-0.2932082818822954,1.9460382549050548,1.080869844388878,-1.5658849292684873,0.00011784793853067383
0.008188788456828614,-0.29303221588287015,1.9461062864073468,1.088115971703878,-1.565811348256689,6.705949661415874e-05
0.008227540155822608,-0.29289435019895516,1.946189667708426,1.0953376270385318,-1.5657383548541923,1.5874687469997756e-05
0.008265617725686642,-0.29279428399838375,1.9462877140109298,1.1025349202707064,-1.5656659612423063,-3.5680774708503454e-05
0.008303019180372188,-0.2927315949158896,1.9463997356114138,1.1097079601752036,-1.5655941788892396,-8.758117259211947e-05
0.008339742900711869,-0.29270583938196676,1.9465250387564401,1.1168568536594576,-1.5655230185621325,-0.00013980081841779603
0.008375787641542719,-0.2927165529814475,1.9466629264993984,1.1239817050219771,-1.5654524903387748,-0.0001923140860088923
0.008411152537769251,-0.29276325084278554,1.9468126995571178,1.1310826152359845,-1.565382603620449,-0.0002450954428304081
0.00844583711063426,-0.2928454280584198,1.9469736571649126,1.1381596812602073,-1.565313367144307,-0.0002981194812287618
0.008479841272736,-0.29296256013706934,1.947145097929072,1.1452129953791967,-1.5652447889969385,-0.0003513609496505351
0.00851316533304578,-0.2931141034881417,1.9473263206753628,1.1522426445749816,-1.5651768766275533,-0.0004047947830058477
0.00854581000143091,-0.2932994959386789,1.9475166252923244,1.1592487099321016,-1.5651096368612913,-0.00045839613241724185
0.008577776392091497,-0.2935181572831608,1.947715313568122,1.1662312660779817,-1.565043075913293,-0.0005121403945899348
0.008609066026924262,-0.29376948986601104,1.9479216900194358,1.1731903806602026,-1.5649771994022392,-0.0005660032401545679
0.008639680837611524,-0.2940528791969598,1.948135062711162,1.1801261138625196,-1.564912012364735,-0.0006199606415829896
0.00866962316674147,-0.2943676945989488,1.9483547440654396,1.1870385179610583,-1.5648475192700948,-0.0006739889003930022
0.008698895769416992,-0.29471328988784984,1.9485800516583167,1.193927636921761,-1.5647837240337095,-0.0007280646728199014
0.00872750181217992,-0.29508900408405614,1.9488103090030213,1.2007935060408876,-1.5647206300327703,-0.0007821649955677385
0.008755444873127242,-0.29549416215436475,1.94904484631775,1.2076361516288434,-1.5646582401195963,-0.0008362673094987646
0.00878272893916157,-0.2959280757840195,1.949283001277027,1.2144555907389873,-1.564596556637436,-0.0008903494833487933
0.008809358404150966,-0.2963900441769808,1.9495241197445374,1.2212518309413396,-1.5645355814341089,-0.0009443898354139318
0.008835338064256187,-0.2968793548838469,1.949767556486433,1.2280248701424132,-1.564475315877993,-0.0009983671550834706
0.008860673114963443,-0.29739528465495024,1.9500126758629004,1.234774696450539,-1.564415760870805,-0.0010522607218771346
0.008885369143774269,-0.2979371003181517,1.9502588524973534,1.2415012880879746,-1.5643569168645044,-0.0011060503249386594
0.008909432124893717,-0.2985040596781255,1.9505054719208228,1.2482046133483726,-1.564298783874558,-0.001159716279778292
0.008932868410976109,-0.2990954124360562,1.950751931190792,1.2548846306002697,-1.5642413614955855,-0.00121323944469635
0.0089556847257217,-0.2997104011267169,1.9509976394825066,1.261541288335251,-1.5641846489147408,-0.0012666012349937888
0.008977888153594715,-0.300348262071281,1.9512420186519335,1.268174525260784,-1.5641286449273801,-0.0013197836367176026
0.008999486129962429,-0.3010082263426377,1.951484503768592,1.2747842704360381,-1.5640733479509736,-0.001372769218343511
0.009020486429881522,-0.3016895207408751,1.9517245436172874,1.2813704434498692,-1.5640187560394512,-0.0014255411412527352
0.009040897155993028,-0.30239136877603384,1.951961601167546,1.2879329546394604,-1.5639648668974278,-0.0014780831687500472
0.009060726725006582,-0.3031129916553336,1.9521951540097875,1.2944717053481323,-1.5639116778949587,-0.001530379673839185
0.009079983854245657,-0.30385360927158234,1.9524246947570885,1.300986588220219,-1.5638591860810502,-0.001582415645132797
0.009098677546692805,-0.30461244119003794,1.952649731411944,1.307477487531384,-1.5638073881978816,-0.0016341766915961694
0.009116817076150434,-0.3053887076303042,1.9528697876970964,1.313944279551899,-1.563756280693793,-0.001685649045454264
0.009134411970798359,-0.3061816304405066,1.9530844033501176,1.320386832940981,-1.5637058597372056,-0.0017368195640162555
0.009151471996033443,-0.30699043406047544,1.953293134381194,1.3268050091695751,-1.5636561212304165,-0.001787675730042116
0.009168007137451603,-0.3078143464706803,1.9534955532937015,1.3331986629688724,-1.5636070608222838,-0.0018382056503847678
0.009184027582972501,-0.30865260012409373,1.9536912492675749,1.339567642802149,-1.5635586739210978,-0.0018883980533706821
0.009199543704366684,-0.30950443285798185,1.9538798283054437,1.3459117913571579,-1.563510955707382,-0.0019382422848462902
0.009214566038468697,-0.3103690887827051,1.954060913341658,1.3522309460562345,-1.5634639011463483,-0.001987728302847392
0.009229105268132835,-0.3112458191447729,1.954234144314504,1.3585249395812886,-1.5634175050000094,-0.002036846670946526
0.009243172202907641,-0.31213388316154533,1.9543991782020727,1.3647936004108498,-1.5633717618390648,-0.002085588550361975
0.009256777759436088,-0.3130325488251242,1.9545556890223896,1.371036753366324,-1.563326666054627,-0.0021339456909000277
0.009269932942059867,-0.3139410936730467,1.9547033677984846,1.3772542201645313,-1.5632822118692868,-0.002181910420650307
0.009282648822836291,-0.31485880552384177,1.9548419224894058,1.383445819973922,-1.5632383933485767,-0.002229475634794895
0.009294936522241507,-0.3157849831752864,1.9549710778880123,1.3896113699714487,-1.5631952044113464,-0.002276634783177902
0.009306807189552952,-0.31671893706386944,1.955090575486834,1.3957506858976787,-1.5631526388403845,-0.002323381857089102
0.009318271983746185,-0.31765998988382105,1.955200173313139,1.401863582607386,-1.5631106902923382,-0.0023697113750637934
0.009329342054798214,-0.3186074771644767,1.9552996457345855,1.4079498746132026,-1.5630693523071584,-0.0024156183678547957
0.009340028524479547,-0.31956074780515237,1.9553887832370578,1.4140093766202024,-1.5630286183182727,-0.002461098362943134
0.00935034246899106,-0.32051916456626406,1.955467392175891,1.4200419040486736,-1.5629884816606694,-0.0025061473679556523
0.009360294900773234,-0.32148210451668424,1.955535294502488,1.4260472735436571,-1.5629489355802728,-0.002550761853939756
0.00936989675146009,-0.3224489594366258,1.9555923274677343,1.432025303468886,-1.5629099732422378,-0.0025949387379444705
0.009379158855548988,-0.323419136176046,1.9556383433039994,1.4379758143834973,-1.562871587738777,-0.002638675365176987
0.009388091934437083,-0.32439205696877776,1.9556732088875495,1.4438986295000389,-1.5628337720970173,-0.002681969490918363
0.009396706581559318,-0.32536715970258895,1.9556968053830601,1.449793575122204,-1.5627965192860425,-0.0027248192620803226
0.009405013247830078,-0.3263438981458875,1.9557090278721576,1.455660481061273,-1.562759822224165,-0.002767223198721267
0.009413022228125584,-0.32732174213167536,1.9557097849676959,1.4614991810300473,-1.5627236737855659,-0.00280918017539055
0.009420743648399892,-0.3283001776997656,1.9556989984156328,1.4673095130135156,-1.5626880668068561,-0.0028506894025024814
0.009428187454063907,-0.3292787071982344,1.9556766026861974,1.473091319615417,-1.5626529940928275,-0.0028917504076543445
0.009435363398813859,-0.3302568493455299,1.955642544556223,1.4788444483803798,-1.5626184484224341,-0.0029323630171767556
0.009442281034517448,-0.3312341392545131,1.955596782684273,1.4845687520911408,-1.5625844225542798,-0.0029725273378152168
0.00944894970190862,-0.3322101284199995,1.9555392871802635,1.4902640890407104,-1.5625509092319458,-0.003012243738677124
0.009455378522271449,-0.3331843846713934,1.95547003917117,1.4959303232794032,-1.5625179011889554,-0.003051512833456052
0.009461576390279178,-0.3341564920920981,1.955389030364339,1.5015673248367967,-1.5624853911531897,-0.0030903354629589134
0.009467551967138065,-0.33512605090767345,1.9552962626100114,1.5071749699190613,-1.5624533718518048,-0.003128712678170487
0.009473313675058001,-0.33609267734439163,1.955191747464312,1.5127531410817707,-1.5624218360153896,-0.0031666457236548596
0.009478869692486937,-0.337056003460203,1.955075505754116,1.51830172737881,-1.5623907763820633,-0.0032041360214751444
0.009484227950278892,-0.33801567695000906,1.95494756714501,1.5238206244879156,-1.562360185701292,-0.0032411851556192316
0.009489396128534567,-0.3389713609272439,1.9548079697135423,1.529309734813586,-1.562330056737734,-0.0032777948570121996
0.009494381654343954,-0.3399227336836674,1.9546567595248052,1.5347689675680578,-1.5623003822748103,-0.003313966989085617
0.009499191700391266,-0.3408694884293152,1.9544939902163367,1.5401982388311821,-1.5622711551180344,-0.003349703533935828
0.009503833184117879,-0.34181133301458666,1.9543197225892814,1.5455974715901653,-1.5622423680984454,-0.003385006579138655
0.009508312767800573,-0.3427479896362817,1.954134024207568,1.5509665957600185,-1.5622140140756786,-0.0034198783051578438
0.0095126368591805,-0.343679194529503,1.9539369690058765,1.5563055481857861,-1.5621860859410894,-0.003454320973423554
0.00951681161286593,-0.34460469764716883,1.9537286369069993,1.5616142726275049,-1.562158576620624,-0.0034883369150365876
0.009520842932142564,-0.345524262328945,1.953509113449202,1.5668927197290128,-1.5621314790778467,-0.0035219285201586363
0.009524736471553795,-0.3464376649611889,1.9532784894240065,1.5721408469715623,-1.5621047863166395,-0.0035550982280161516
0.009528497639962144,-0.3473446946295598,1.9530368605248312,1.5773586186133592,-1.5620784913838945,-0.003587848517562904
0.009532131603930342,-0.34824515276585155,1.9527843270068348,1.5825460056161114,-1.5620525873723445,-0.003620181898804882
0.009535643291798733,-0.349138852790412,1.952520993358163,1.5877029855595326,-1.5620270674230352,-0.003652100904714089
0.009539037398078742,-0.35002561975158597,1.9522469679828347,1.5928295425449204,-1.5620019247278605,-0.00368360808377836
0.009542318388131143,-0.3509052899634661,1.9519623628953986,1.597925667088819,-1.5619771525321526,-0.0037147059931631437
0.00954549050333194,-0.3517777106431023,1.9516672934273958,1.6029913560076916,-1.5619527441370362,-0.0037453971924367446
0.009548557766321675,-0.35264273954835934,1.9513618779456965,1.6080266122946574,-1.561928692901995,-0.00377568423789188
0.00955152398677391,-0.3535002446173553,1.9510462375826132,1.6130314449890937,-1.5619049922470793,-0.00380556967737917
0.009554392767161555,-0.3543501036105262,1.9507204959777784,1.618005869040121,-1.561881635655344,-0.0038350560456992537
0.009557167508903482,-0.3551922037560948,1.9503847790316104,1.6229499051647132,-1.5618586166750135,-0.0038641458604745916
0.009559851418396091,-0.35602644139982126,1.950039214670276,1.6278635797013628,-1.5618359289219301,-0.0038928416185353447
0.009562447513449404,-0.35685272165962834,1.9496839326218818,1.6327469244599262,-1.561813566081619,-0.003921145792728772
0.009564958629677309,-0.35767095808581334,1.9493190642037344,1.6375999765684865,-1.5617915219114789,-0.0039490608291835325
0.009567387426966337,-0.3584810723273738,1.9489447421204047,1.642422778317875,-1.5617697902429102,-0.0039765891449813715
0.009569736395995669,-0.3592829938049337,1.9485611002723275,1.6472153770044904,-1.5617483649833792,-0.004003733126214288
0.009572007864733223,-0.36007665939070155,1.9481682735746606,1.6519778247720236,-1.5617272401184767,-0.00403049512640733
0.009574204005099446,-0.3608620130957735,1.9477663977860695,1.6567101784525873,-1.5617064097137097,-0.0040568774652659945
0.009576326839304102,-0.3616390057651803,1.9473556093471927,1.6614124994078794,-1.5616858679165928,-0.004082882427765695
0.009578378246312776,-0.3624075947808254,1.9469360452283968,1.6660848533707255,-1.5616656089584595,-0.0041085122635125485
0.009580359968306099,-0.36316774377253036,1.9465078427865072,1.6707273102874625,-1.561645627156137,-0.004133769186372659
0.00958227361695595,-0.3639194223373665,1.946071139630199,1.6753399441615895,-1.5616259169136721,-0.004158655374357798
0.009584120679626596,-0.36466260576735054,1.9456260734936957,1.679922832899012,-1.5616064727239565,-0.004183172969733904
0.009585902525452642,-0.36539727478557227,1.945172782118438,1.6844760581551965,-1.561587289170288,-0.004207324079335545
0.009587620411332435,-0.366123415290769,1.9447114031423802,1.6889997051845111,-1.5615683609278064,-0.004231110775063473
0.00958927548774993,-0.36684101811035325,1.9442420739965864,1.6934938626920149,-1.561549682764891,-0.004254535094551341
0.009590868804537737,-0.36755007876182866,1.9437649318087764,1.6979586226878887,-1.5615312495443725,-0.004277599041976716
0.009592401316393391,-0.3682505972225663,1.9432801133135222,1.70239408034474,-1.5615130562247723,-0.004300304589009361
0.009593873888315587,-0.36894257770781375,1.942787754768749,1.7068003338578985,-1.5614950978613567,-0.004322653675869736
0.009595287300832903,-0.3696260284568509,1.9422879918782419,1.7111774843088736,-1.5614773696071529,-0.0043446482124898924
0.009596642255079748,-0.37030096152714936,1.9417809597198452,1.7155256355320692,-1.5614598667138513,-0.0043662900797578445
0.009597939377754688,-0.37096739259637973,1.941266792679054,1.7198448939848368,-1.561442584532549,-0.004387581130832127
0.009599179225849675,-0.37162534077212817,1.9407456243877201,1.7241353686209695,-1.561425518514462,-0.004408523192517569
0.009600362291276768,-0.3722748284091231,1.9402175876675773,1.7283971707676518,-1.5614086642114529,-0.004429118066685635
0.009601489005241493,-0.3729158809338197,1.9396828144783405,1.732630414005942,-1.5613920172765507,-0.004449367531733134
0.009602559742520297,-0.3735485266761189,1.9391414358700927,1.7368352140547658,-1.5613755734642776,-0.004469273344063922
0.00960357482553313,-0.3741727967080461,1.9385935819397306,1.7410116886584537,-1.5613593286309089,-0.004488837239588542
0.009604534528272002,-0.3747887246891757,1.9380393817912185,1.7451599574778014,-1.5613432787345998,-0.004508060935231038
0.009605439080040159,-0.3753963467186043,1.9374789634994298,1.7492801419846464,-1.5613274198354328,-0.0045269461304361935
0.009606288669034279,-0.3759957011932604,1.9369124540773544,1.7533723653599238,-1.5613117480953507,-0.004545494508669023
0.00960708344576664,-0.3765868286723424,1.936339979446463,1.7574367523951646,-1.5612962597779843,-0.0045637077389005356
0.009607823526343522,-0.3771697717476728,1.935761664410031,1.7614734293973882,-1.5612809512483596,-0.00458158747707417
0.009608508995570413,-0.37774457491976954,1.935177632629233,1.7654825240973446,-1.5612658189725257,-0.004599135367547716
0.009609139909915233,-0.37831128447942075,1.934588006601831,1.7694641655610404,-1.561250859517071,-0.004616353044505791
0.009609716300320533,-0.37886994839456367,1.9339929076432858,1.7734184841044858,-1.5612360695485483,-0.004633242133339036
0.009610238174879635,-0.37942061620226414,1.9333924558701272,1.7773456112115962,-1.5612214458327935,-0.00464980425198659
0.009610705521357368,-0.3799633389056048,1.9327867701854402,1.7812456794551765,-1.5612069852341737,-0.004666041012238362
0.009611118309584077,-0.3804981688752846,1.9321759682663147,1.785118822420911,-1.5611926847147335,-0.0046819540209946135
0.00961147649372204,-0.3810251597557412,1.9315601665531272,1.788965174634281,-1.5611785413332533,-0.004697544881480939
0.009611780014397095,-0.38154436637561573,1.9309394802405293,1.792784871490334,-1.5611645522442328,-0.00471281519441646
0.00961202880071599,-0.3820558446623771,1.9303140232700182,1.7965780491862209,-1.5611507146967858,-0.00472776655913413
0.009612225737820824,-0.382559650924019,1.9296839078913208,1.8003448438777143,-1.561137022600035,-0.004742400715931669
0.009612374046473294,-0.38305584229199874,1.9290492450235819,1.8040853923635374,-1.5611234696447678,-0.004756719524219396
0.009612472943989871,-0.3835444775800687,1.92841014488659,1.8077998331683292,-1.561110054318051,-0.004770724718456455
0.009612521713175306,-0.3840256164024952,1.9277667164307926,1.8114883053314907,-1.5610967750767648,-0.004784417984438768
0.00961251969750517,-0.38449931910527224,1.9271190673355423,1.8151509483577828,-1.5610836303641902,-0.004797800991124094
0.009612466296053609,-0.3849656467008963,1.9264673040082672,1.8187879021697129,-1.5610706186198082,-0.004810875394518307
0.009612360958954841,-0.3854246608064248,1.9258115315847453,1.8223993070615254,-1.5610577382878703,-0.004823642841119111
0.009612203183356347,-0.3858764235846507,1.9251518539303858,1.8259853036547848,-1.5610449878248471,-0.004836104970959678
0.009611992509806403,-0.38632099768823885,1.9244883736424245,1.829546032855538,-1.5610323657058751,-0.004848263420294643
0.009611728519034584,-0.3867584462066756,1.9238211920529518,1.8330816358130353,-1.5610198704302958,-0.004860119823966685
0.009611410829055166,-0.38718883261589665,1.9231504092326999,1.8365922538799935,-1.5610075005264112,-0.004871675817485613
0.009611039092610893,-0.38761222073044904,1.922476123995515,1.8400780285743539,-1.5609952545554766,-0.004882933038853465
0.009610612994841276,-0.38802867465807817,1.9217984339034588,1.843539101542531,-1.5609831311150972,-0.004893893130157357
0.009610132251251772,-0.3884382587565976,1.9211174352724691,1.8469756145240837,-1.5609711288419756,-0.004904557738960814
0.009609596605861151,-0.3888410375929483,1.9204332231785386,1.8503877093178007,-1.5609592464141828,-0.004914928519509327
0.009609005829532854,-0.38923707590433365,1.9197458914643581,1.8537755277491557,-1.5609474825529692,-0.004925007133770073
0.009608359718491855,-0.38962643856132334,1.9190555327463796,1.857139211639083,-1.5609358360241437,-0.0049347952523249115
0.009607658093005315,-0.3900091905328299,1.9183622384222543,1.860478902774038,-1.5609243056390643,-0.004944294555132281
0.00960690079617611,-0.39038539685287327,1.9176660986786158,1.86379474287731,-1.560912890255325,-0.004953506732168818
0.009606087692852601,-0.390755122589043,1.9169672024991717,1.8670868735815418,-1.5609015887771496,-0.004962433483963808
0.009605218668629225,-0.3911184328125783,1.9162656376730736,1.8703554364024193,-1.5608904001555404,-0.004971076522036251
0.00960429362897223,-0.39147539256997804,1.9155614908035286,1.8736005727134784,-1.5608793233881602,-0.004979437569248573
0.009603312498392472,-0.3918260668560812,1.9148548473166385,1.8768224237220075,-1.560868357519051,-0.00498751836007994
0.009602275219719026,-0.39217052058853386,1.9141457914704316,1.8800211304459897,-1.5608575016381394,-0.004995320640832344
0.009601181753388853,-0.3925088185835933,1.9134344063640778,1.8831968336920675,-1.5608467548806422,-0.005002846169769372
0.009600032076864258,-0.39284102553318045,1.912720773947247,1.8863496740344576,-1.5608361164262512,-0.00501009671720548
0.009598826184011318,-0.3931672059831544,1.9120049750296175,1.889479791794827,-1.5608255854983024,-0.0050170740655359055
0.009597564084539411,-0.3934874243127315,1.9112870892905043,1.8925873270230609,-1.5608151613628205,-0.005023780009221198
