yinzikang/torque-control/ipd_K20_D100.csv
joint1,joint2,joint3,joint4,joint5,joint6
-3.659923028210368e-16,-0.5235987666666667,2.0943950666666664,-4.544993107417861e-17,-1.5707963,-4.3920633427245145e-16
-1.0345627559491494e-15,-0.5235987666666668,2.0943950666666664,-1.285296375707798e-16,-1.5707963000000003,-1.2414993895880236e-15
-1.953258593949917e-15,-0.523598766666667,2.0943950666666664,-2.430664347218986e-16,-1.5707963000000005,-2.3441359641536858e-15
-3.07875831301255e-15,-0.5235987666666673,2.0943950666666664,-3.833427949452455e-16,-1.5707963000000007,-3.695051401913153e-15
-4.375233574613561e-15,-0.5235987666666676,2.0943950666666664,-5.445252521576133e-16,-1.570796300000001,-5.251213829325922e-15
-5.813037867167609e-15,-0.5235987666666679,2.0943950666666664,-7.234648206270661e-16,-1.5707963000000011,-6.977087260077209e-15
-7.367692719651811e-15,-0.5235987666666683,2.094395066666667,-9.169807442499187e-16,-1.5707963000000016,-8.843193836943739e-15
-9.018995468529877e-15,-0.5235987666666686,2.0943950666666673,-1.1226720816871853e-15,-1.570796300000002,-1.0825258723733803e-14
-1.0750194837798469e-14,-0.523598766666669,2.0943950666666677,-1.338320380706708e-15,-1.5707963000000025,-1.2903106542967568e-14
-1.2547437831680818e-14,-0.5235987666666695,2.094395066666668,-1.5620661659710843e-15,-1.570796300000003,-1.506028570716247e-14
-1.439928307415207e-14,-0.5235987666666699,2.0943950666666686,-1.7922053159618345e-15,-1.5707963000000034,-1.7282866327198423e-14
-1.629627216854287e-14,-0.5235987666666704,2.094395066666669,-2.0278904735873894e-15,-1.5707963000000038,-1.9559588059662995e-14
-1.8230567772725412e-14,-0.5235987666666708,2.0943950666666695,-2.2679687322523484e-15,-1.5707963000000043,-2.1881094816869e-14
-2.019572324353703e-14,-0.5235987666666713,2.09439506666667,-2.5123185358201468e-15,-1.5707963000000047,-2.423961723586071e-14
-2.2186386261357114e-14,-0.5235987666666717,2.0943950666666704,-2.7597735976382735e-15,-1.5707963000000051,-2.6628823464560455e-14
-2.419813656105605e-14,-0.5235987666666722,2.094395066666671,-3.0099045883044987e-15,-1.5707963000000056,-2.904333672472589e-14
-2.6227313051691427e-14,-0.5235987666666726,2.0943950666666713,-3.262273243850404e-15,-1.570796300000006,-3.147874432827639e-14
-2.8270878081472417e-14,-0.523598766666673,2.0943950666666717,-3.516077550515418e-15,-1.5707963000000065,-3.393154606986377e-14
-3.0326343964790895e-14,-0.5235987666666735,2.094395066666672,-3.771590442214071e-15,-1.570796300000007,-3.639871471518152e-14
-3.2391673543991156e-14,-0.5235987666666739,2.0943950666666726,-4.028339624655324e-15,-1.5707963000000074,-3.8877675454097446e-14
-3.446514573204806e-14,-0.5235987666666744,2.094395066666673,-4.286007169817529e-15,-1.5707963000000078,-4.136649652458083e-14
-3.6545356726934954e-14,-0.5235987666666748,2.0943950666666735,-4.544479396976946e-15,-1.5707963000000082,-4.386337672024488e-14
-3.8631110726531097e-14,-0.5235987666666753,2.094395066666674,-4.8034585918337415e-15,-1.5707963000000087,-4.636691847732227e-14
-4.0721458956135874e-14,-0.5235987666666757,2.0943950666666744,-5.0631756265694115e-15,-1.5707963000000091,-4.887596911911526e-14
-4.281561054172015e-14,-0.5235987666666762,2.094395066666675,-5.323702542597098e-15,-1.5707963000000096,-5.138957858537981e-14
-4.491290965113609e-14,-0.5235987666666766,2.0943950666666753,-5.584621007979995e-15,-1.57079630000001,-5.390693736702073e-14
-4.701281625855708e-14,-0.523598766666677,2.0943950666666757,-5.845475600025017e-15,-1.5707963000000105,-5.642752688075432e-14
-4.911487758550026e-14,-0.5235987666666775,2.094395066666676,-6.106659496948562e-15,-1.570796300000011,-5.8950677617525e-14
-5.12187297189444e-14,-0.5235987666666779,2.0943950666666766,-6.367925113990895e-15,-1.5707963000000114,-6.147586420550773e-14
-5.33240407187726e-14,-0.5235987666666784,2.094395066666677,-6.629406222918433e-15,-1.5707963000000118,-6.400281727122784e-14
-5.543058813559402e-14,-0.5235987666666788,2.0943950666666775,-6.891021120199307e-15,-1.5707963000000122,-6.653115105272e-14
-5.753813963929293e-14,-0.5235987666666793,2.094395066666678,-7.1529205245878e-15,-1.5707963000000127,-6.906067817129015e-14
-5.964650504730358e-14,-0.5235987666666797,2.0943950666666784,-7.414796441926223e-15,-1.5707963000000131,-7.159119703106858e-14
-6.17555678284338e-14,-0.5235987666666801,2.094395066666679,-7.67647105089727e-15,-1.5707963000000136,-7.412246190228529e-14
-6.386520850288828e-14,-0.5235987666666806,2.0943950666666793,-7.938175346449993e-15,-1.570796300000014,-7.665434240717013e-14
-6.597531394929726e-14,-0.523598766666681,2.0943950666666797,-8.200259116166854e-15,-1.5707963000000145,-7.9186700454152e-14
-6.808579808388554e-14,-0.5235987666666815,2.09439506666668,-8.462351309362128e-15,-1.570796300000015,-8.171952836305666e-14
-7.019659651693524e-14,-0.5235987666666819,2.0943950666666806,-8.724336023274827e-15,-1.5707963000000154,-8.425282492269762e-14
-7.230766871905164e-14,-0.5235987666666824,2.094395066666681,-8.98654028546182e-15,-1.5707963000000158,-8.678643029065407e-14
-7.441895595438552e-14,-0.5235987666666828,2.0943950666666815,-9.248518683343686e-15,-1.5707963000000162,-8.932038150774249e-14
-7.653043983500362e-14,-0.5235987666666833,2.094395066666682,-9.510501775639065e-15,-1.5707963000000167,-9.18545661690211e-14
-7.864208570838942e-14,-0.5235987666666837,2.0943950666666824,-9.772731697440364e-15,-1.5707963000000171,-9.4388933058896e-14
-8.075387003080458e-14,-0.5235987666666841,2.094395066666683,-1.0034968178599203e-14,-1.5707963000000176,-9.692330579707668e-14
-8.286574215201039e-14,-0.5235987666666846,2.0943950666666833,-1.0297153089864692e-14,-1.570796300000018,-9.945789945202191e-14
-8.497769287955904e-14,-0.523598766666685,2.0943950666666837,-1.055897372685191e-14,-1.5707963000000185,-1.019924999897649e-13
-8.708969837761063e-14,-0.5235987666666855,2.094395066666684,-1.0820997926462286e-14,-1.570796300000019,-1.045272658073568e-13
-8.920174644239706e-14,-0.5235987666666859,2.094395066666684,-1.108317991429877e-14,-1.5707963000000194,-1.0706219665428776e-13
-9.131384488037962e-14,-0.5235987666666863,2.094395066666684,-1.1345362367730975e-14,-1.5707963000000198,-1.0959711068129302e-13
-9.342600333138211e-14,-0.5235987666666866,2.094395066666684,-1.1607580902034534e-14,-1.5707963000000202,-1.1213206330940797e-13
-9.553820204527873e-14,-0.5235987666666869,2.094395066666684,-1.1869882065049473e-14,-1.5707963000000207,-1.146670587896891e-13
-9.76504328072866e-14,-0.5235987666666873,2.094395066666684,-1.2131679828779954e-14,-1.5707963000000211,-1.1720200403752758e-13
-9.976266573446709e-14,-0.5235987666666876,2.094395066666684,-1.2393533581728484e-14,-1.5707963000000216,-1.1973697170504263e-13
-1.0187491789412035e-13,-0.5235987666666879,2.094395066666684,-1.2655528040345493e-14,-1.570796300000022,-1.2227194198267975e-13
-1.0398716504372674e-13,-0.5235987666666883,2.094395066666684,-1.2917151541795214e-14,-1.5707963000000225,-1.248070297342478e-13
-1.0609941444397468e-13,-0.5235987666666886,2.094395066666684,-1.3179079602872983e-14,-1.570796300000023,-1.2734220747532677e-13
-1.0821167637174881e-13,-0.5235987666666889,2.094395066666684,-1.3440899138210925e-14,-1.5707963000000233,-1.2987730870033077e-13
-1.103239659966266e-13,-0.5235987666666893,2.094395066666684,-1.3703150259172767e-14,-1.5707963000000238,-1.3241243316498482e-13
-1.1243625469503377e-13,-0.5235987666666896,2.094395066666684,-1.3965334248635812e-14,-1.5707963000000242,-1.3494763579073698e-13
-1.145485579539756e-13,-0.5235987666666899,2.094395066666684,-1.422786604453506e-14,-1.5707963000000247,-1.3748294718548825e-13
-1.1666086748494393e-13,-0.5235987666666903,2.094395066666684,-1.449000263287109e-14,-1.5707963000000251,-1.4001833466895397e-13
-1.1877316251625201e-13,-0.5235987666666906,2.094395066666684,-1.4752469631392357e-14,-1.5707963000000256,-1.425538217109686e-13
-1.2088547258430254e-13,-0.5235987666666909,2.094395066666684,-1.501474636598376e-14,-1.5707963000000258,-1.4508922467323478e-13
-1.2299780938188654e-13,-0.5235987666666913,2.094395066666684,-1.5276703389562016e-14,-1.570796300000026,-1.4762454640626216e-13
-1.2511015200164642e-13,-0.5235987666666916,2.094395066666684,-1.553895069529865e-14,-1.5707963000000262,-1.5015999192708216e-13
-1.2722248300035732e-13,-0.5235987666666919,2.094395066666684,-1.5800954372650547e-14,-1.5707963000000265,-1.5269543062726975e-13
-1.2933482311158061e-13,-0.5235987666666923,2.094395066666684,-1.6062978769895468e-14,-1.5707963000000267,-1.55230847600954e-13
-1.3144715978029673e-13,-0.5235987666666926,2.094395066666684,-1.6324980268230476e-14,-1.570796300000027,-1.5776622598381253e-13
-1.3355950191014671e-13,-0.5235987666666929,2.094395066666684,-1.6586834529697263e-14,-1.5707963000000271,-1.603015790027953e-13
-1.3567185266447636e-13,-0.5235987666666932,2.094395066666684,-1.6848783361126986e-14,-1.5707963000000273,-1.6283693167868258e-13
-1.3778419633424493e-13,-0.5235987666666936,2.094395066666684,-1.711062841781622e-14,-1.5707963000000276,-1.6537225541052403e-13
-1.3989653530498263e-13,-0.5235987666666939,2.094395066666684,-1.7372406658743706e-14,-1.5707963000000278,-1.6790756324301362e-13
-1.420088700591568e-13,-0.5235987666666942,2.094395066666684,-1.763461670509898e-14,-1.570796300000028,-1.704427774415428e-13
-1.4412121960651805e-13,-0.5235987666666946,2.094395066666684,-1.789635241089748e-14,-1.5707963000000282,-1.729779941301035e-13
-1.4623358539457328e-13,-0.5235987666666949,2.094395066666684,-1.8157879705307313e-14,-1.5707963000000285,-1.7551313849742888e-13
-1.4834595611650583e-13,-0.5235987666666952,2.094395066666684,-1.8419552092203562e-14,-1.5707963000000287,-1.7804826254634619e-13
-1.504583038127706e-13,-0.5235987666666956,2.094395066666684,-1.868119390436013e-14,-1.570796300000029,-1.805832843382982e-13
-1.5257063389510227e-13,-0.5235987666666959,2.094395066666684,-1.894281671860212e-14,-1.5707963000000291,-1.8311832570789894e-13
-1.5468298315540765e-13,-0.5235987666666962,2.094395066666684,-1.920437907456844e-14,-1.5707963000000293,-1.8565328600325384e-13
-1.5679534022628797e-13,-0.5235987666666966,2.094395066666684,-1.9466142330792398e-14,-1.5707963000000296,-1.8818812809138663e-13
-1.5890768571936906e-13,-0.5235987666666968,2.094395066666684,-1.9728231346795117e-14,-1.5707963000000298,-1.9072297729319045e-13
-1.610200165155122e-13,-0.523598766666697,2.094395066666684,-1.9989968956888958e-14,-1.57079630000003,-1.9325781693625434e-13
-1.6313236609553322e-13,-0.5235987666666972,2.094395066666684,-2.0252009044550544e-14,-1.5707963000000302,-1.9579253130560453e-13
-1.6524471399044638e-13,-0.5235987666666975,2.094395066666684,-2.0514018699774494e-14,-1.5707963000000305,-1.9832717230771634e-13
-1.673570741192501e-13,-0.5235987666666977,2.094395066666684,-2.0776018704075954e-14,-1.5707963000000307,-2.008618198704659e-13
-1.694694136712732e-13,-0.5235987666666979,2.094395066666684,-2.1038292234736943e-14,-1.570796300000031,-2.0339656792378989e-13
-1.7158176144807493e-13,-0.5235987666666981,2.094395066666684,-2.1300672874849773e-14,-1.5707963000000311,-2.0593132476649785e-13
-1.7369410202744806e-13,-0.5235987666666984,2.094395066666684,-2.1562757287554625e-14,-1.5707963000000313,-2.0846608480624015e-13
-1.7580645157700914e-13,-0.5235987666666986,2.094395066666684,-2.1825134941267683e-14,-1.5707963000000316,-2.1100075895087684e-13
-1.7791880325022616e-13,-0.5235987666666988,2.094395066666684,-2.208705116152981e-14,-1.5707963000000318,-2.1353539719771e-13
-1.8003113604128326e-13,-0.523598766666699,2.094395066666684,-2.234897902525981e-14,-1.570796300000032,-2.160701187514843e-13
-1.821434647232922e-13,-0.5235987666666992,2.094395066666684,-2.2611111479355686e-14,-1.5707963000000322,-2.1860484675207333e-13
-1.8425578598252554e-13,-0.5235987666666995,2.094395066666684,-2.2872831857698485e-14,-1.5707963000000325,-2.2113967340066042e-13
-1.8636813250343207e-13,-0.5235987666666997,2.094395066666684,-2.313498584744345e-14,-1.5707963000000327,-2.2367439115830002e-13
-1.8848049495556652e-13,-0.5235987666666999,2.094395066666684,-2.3396704585780823e-14,-1.570796300000033,-2.2620913707098759e-13
-1.9059287384517303e-13,-0.5235987666667001,2.094395066666684,-2.365873068260507e-14,-1.5707963000000331,-2.287437667590294e-13
-1.9270526237660247e-13,-0.5235987666667004,2.094395066666684,-2.3920621115912788e-14,-1.5707963000000333,-2.31278275957917e-13
-1.9481764697741555e-13,-0.5235987666667006,2.094395066666684,-2.4182313370565486e-14,-1.5707963000000336,-2.3381274770795024e-13
-1.9693002291928507e-13,-0.5235987666667008,2.094395066666684,-2.444421118917314e-14,-1.5707963000000338,-2.363471612382255e-13
-1.9904241016687587e-13,-0.523598766666701,2.094395066666684,-2.4706053479748202e-14,-1.570796300000034,-2.3888148276625623e-13
-2.0115478878610656e-13,-0.5235987666667012,2.094395066666684,-2.496768787817459e-14,-1.5707963000000342,-2.414157385130431e-13
-2.0326715939804194e-13,-0.5235987666667015,2.094395066666684,-2.5229340882435392e-14,-1.5707963000000345,-2.439500090544987e-13
-2.0537952459342905e-13,-0.5235987666667017,2.094395066666684,-2.5490814100805637e-14,-1.5707963000000347,-2.464842937911682e-13
-2.0749186877399975e-13,-0.5235987666667019,2.094395066666684,-2.5752332087290552e-14,-1.570796300000035,-2.4901860049764853e-13
-2.0960421250004849e-13,-0.5235987666667021,2.094395066666684,-2.6013892337373624e-14,-1.5707963000000351,-2.515529152320241e-13
-2.1171652593904022e-13,-0.5235987666667024,2.094395066666684,-2.627556446441446e-14,-1.5707963000000353,-2.5408740732601723e-13
-2.1382883914271988e-13,-0.5235987666667026,2.094395066666684,-2.6537159578922214e-14,-1.5707963000000356,-2.5662180855769684e-13
-2.1594112148365482e-13,-0.5235987666667028,2.094395066666684,-2.6799268548317695e-14,-1.5707963000000358,-2.5915635646915207e-13
-2.1805341427524656e-13,-0.523598766666703,2.094395066666684,-2.7061156983753845e-14,-1.570796300000036,-2.616910338018546e-13
-2.201657101123479e-13,-0.5235987666667032,2.094395066666684,-2.732289052065155e-14,-1.5707963000000362,-2.642256554944714e-13
-2.2227802276450245e-13,-0.5235987666667035,2.094395066666684,-2.7584918005224653e-14,-1.5707963000000364,-2.6676023963507534e-13
-2.2439033967309592e-13,-0.5235987666667037,2.094395066666684,-2.7846876135873488e-14,-1.5707963000000367,-2.6929484009723214e-13
-2.2650267153360776e-13,-0.5235987666667039,2.094395066666684,-2.8108767136296198e-14,-1.570796300000037,-2.718293387033282e-13
-2.286150260009492e-13,-0.5235987666667041,2.094395066666684,-2.8370598427858165e-14,-1.5707963000000371,-2.743637435827153e-13
-2.3072736936583093e-13,-0.5235987666667044,2.094395066666684,-2.863232059823632e-14,-1.5707963000000373,-2.7689817114450775e-13
-2.328397212145281e-13,-0.5235987666667046,2.094395066666684,-2.889427322919116e-14,-1.5707963000000376,-2.794325455789525e-13
-2.3495207944128625e-13,-0.5235987666667048,2.094395066666684,-2.915608250444903e-14,-1.5707963000000378,-2.819668583133204e-13
-2.370644470626068e-13,-0.523598766666705,2.094395066666684,-2.9417727789997567e-14,-1.570796300000038,-2.845012014959928e-13
-2.3917680110279015e-13,-0.5235987666667052,2.094395066666684,-2.967938846712432e-14,-1.5707963000000382,-2.8703564186380805e-13
-2.412891776074711e-13,-0.5235987666667054,2.094395066666684,-2.994089473480302e-14,-1.5707963000000384,-2.8957004550629793e-13
-2.4340152992602047e-13,-0.5235987666667055,2.094395066666684,-3.0202454957817626e-14,-1.5707963000000387,-2.9210445840199527e-13
-2.455138792642781e-13,-0.5235987666667056,2.094395066666684,-3.0463960848413174e-14,-1.570796300000039,-2.946388798796158e-13
-2.4762622628737285e-13,-0.5235987666667057,2.094395066666684,-3.072541662768355e-14,-1.5707963000000391,-2.9717331886440667e-13
-2.497385802044403e-13,-0.5235987666667058,2.094395066666684,-3.098700185733502e-14,-1.5707963000000393,-2.997077142545515e-13
-2.5185093074242106e-13,-0.5235987666667059,2.094395066666684,-3.124857918776173e-14,-1.5707963000000396,-3.0224211852682203e-13
-2.5396327898825206e-13,-0.523598766666706,2.094395066666684,-3.151027957648188e-14,-1.5707963000000398,-3.0477652423617126e-13
-2.560756234888594e-13,-0.5235987666667061,2.094395066666684,-3.177194492658272e-14,-1.57079630000004,-3.0731104451948383e-13
-2.5818796218780785e-13,-0.5235987666667062,2.094395066666684,-3.2033423611922275e-14,-1.5707963000000402,-3.0984566781433525e-13
-2.6030030918040045e-13,-0.5235987666667064,2.094395066666684,-3.2294739825328764e-14,-1.5707963000000404,-3.123802422223748e-13
-2.6241265002085163e-13,-0.5235987666667065,2.094395066666684,-3.255642090431921e-14,-1.5707963000000407,-3.149148127407718e-13
-2.6452497297478475e-13,-0.5235987666667066,2.094395066666684,-3.281786336294601e-14,-1.570796300000041,-3.174494860167823e-13
-2.6663729310154297e-13,-0.5235987666667067,2.094395066666684,-3.307940791319083e-14,-1.5707963000000411,-3.199841632563337e-13
-2.687496114048687e-13,-0.5235987666667068,2.094395066666684,-3.3341285687730864e-14,-1.5707963000000413,-3.2251883754151146e-13
-2.708619282765669e-13,-0.5235987666667069,2.094395066666684,-3.3602854306958186e-14,-1.5707963000000416,-3.25053508606609e-13
-2.729742532691953e-13,-0.523598766666707,2.094395066666684,-3.386477543987197e-14,-1.5707963000000418,-3.275883041492328e-13
-2.7508657605062084e-13,-0.5235987666667071,2.094395066666684,-3.412666794984677e-14,-1.570796300000042,-3.301230832114861e-13
-2.7719889672462543e-13,-0.5235987666667072,2.094395066666684,-3.438864890516607e-14,-1.5707963000000422,-3.3265796221176734e-13
-2.7931121165037584e-13,-0.5235987666667073,2.094395066666684,-3.465054668874411e-14,-1.5707963000000424,-3.351928454891573e-13
-2.814235343876143e-13,-0.5235987666667075,2.094395066666684,-3.491277940787875e-14,-1.5707963000000427,-3.3772774180290385e-13
-2.8353584481859406e-13,-0.5235987666667076,2.094395066666684,-3.5174854374587187e-14,-1.5707963000000429,-3.402626327076287e-13
-2.85648148520964e-13,-0.5235987666667077,2.094395066666684,-3.543706295763298e-14,-1.570796300000043,-3.4279750890385414e-13
-2.8776046215476896e-13,-0.5235987666667078,2.094395066666684,-3.56991563054846e-14,-1.5707963000000433,-3.453323389038654e-13
-2.8987277830250107e-13,-0.5235987666667079,2.094395066666684,-3.596192403937757e-14,-1.5707963000000436,-3.4786716356206344e-13
-2.919850803928501e-13,-0.523598766666708,2.094395066666684,-3.6224372643800174e-14,-1.5707963000000436,-3.5040198796079906e-13
-2.940973842272315e-13,-0.5235987666667081,2.094395066666684,-3.648663522407659e-14,-1.5707963000000436,-3.5293690046834996e-13
-2.9620968937445016e-13,-0.5235987666667082,2.094395066666684,-3.6748714840370284e-14,-1.5707963000000436,-3.554718951656987e-13
-2.9832198233869284e-13,-0.5235987666667083,2.094395066666684,-3.701062870047664e-14,-1.5707963000000436,-3.580070329416858e-13
-3.004342660940768e-13,-0.5235987666667085,2.094395066666684,-3.727255873911642e-14,-1.5707963000000436,-3.6054232047375834e-13
-3.025465590772298e-13,-0.5235987666667086,2.094395066666684,-3.753491935020085e-14,-1.5707963000000436,-3.6307759488805045e-13
-3.046588467027134e-13,-0.5235987666667087,2.094395066666684,-3.77972356802609e-14,-1.5707963000000436,-3.6561292106734837e-13
-3.0677111138360486e-13,-0.5235987666667088,2.094395066666684,-3.805919458295108e-14,-1.5707963000000436,-3.6814833112265094e-13
-3.0888340996584146e-13,-0.5235987666667089,2.094395066666684,-3.832130369824452e-14,-1.5707963000000436,-3.7068370767732505e-13
-3.109957189356566e-13,-0.523598766666709,2.094395066666684,-3.858317787348662e-14,-1.5707963000000436,-3.732190646411647e-13
-3.131080198626255e-13,-0.5235987666667091,2.094395066666684,-3.884508930581607e-14,-1.5707963000000436,-3.757544926103489e-13
-3.1522033502886303e-13,-0.5235987666667092,2.094395066666684,-3.910683573122068e-14,-1.5707963000000436,-3.7828989699750304e-13
-3.1733267045457443e-13,-0.5235987666667093,2.094395066666684,-3.9368185850159284e-14,-1.5707963000000436,-3.8082528272031587e-13
-3.1944501620507734e-13,-0.5235987666667095,2.094395066666684,-3.96295620213913e-14,-1.5707963000000436,-3.833606521013128e-13
-3.215573471239614e-13,-0.5235987666667096,2.094395066666684,-3.989121959132663e-14,-1.5707963000000436,-3.858959004889817e-13
-3.2366965185749043e-13,-0.5235987666667097,2.094395066666684,-4.01527968472016e-14,-1.5707963000000436,-3.8843120744196457e-13
-3.2578194088420895e-13,-0.5235987666667098,2.094395066666684,-4.041471052835936e-14,-1.5707963000000436,-3.909665838702544e-13
-3.2789423768427725e-13,-0.5235987666667099,2.094395066666684,-4.0676291404238697e-14,-1.5707963000000436,-3.9350193436055135e-13
-3.3000651920050237e-13,-0.52359876666671,2.094395066666684,-4.093803075508376e-14,-1.5707963000000436,-3.9603734687032644e-13
-3.3211878859323647e-13,-0.5235987666667101,2.094395066666684,-4.1200116243303297e-14,-1.5707963000000436,-3.985728247280518e-13
-3.342310611647697e-13,-0.5235987666667102,2.094395066666684,-4.1462193495855e-14,-1.5707963000000436,-4.011082798085747e-13
-3.363433357405634e-13,-0.5235987666667103,2.094395066666684,-4.1724160317711376e-14,-1.5707963000000436,-4.036437234588225e-13
-3.3845558720581287e-13,-0.5235987666667105,2.094395066666684,-4.198609483958564e-14,-1.5707963000000436,-4.0617930074452454e-13
-3.405678441928117e-13,-0.5235987666667106,2.094395066666684,-4.2248080270053526e-14,-1.5707963000000436,-4.0871478658428195e-13
-3.4268011443886826e-13,-0.5235987666667107,2.094395066666684,-4.251008099991487e-14,-1.5707963000000436,-4.1125014199922187e-13
-3.4479239635124807e-13,-0.5235987666667108,2.094395066666684,-4.277215651258626e-14,-1.5707963000000436,-4.137853709217535e-13
-3.4690468750404815e-13,-0.5235987666667109,2.094395066666684,-4.303428402428953e-14,-1.5707963000000436,-4.1632058901816013e-13
-3.4901697379733945e-13,-0.523598766666711,2.094395066666684,-4.329654889107789e-14,-1.5707963000000436,-4.1885586553559965e-13
-3.511292647965958e-13,-0.5235987666667111,2.094395066666684,-4.35588009219254e-14,-1.5707963000000436,-4.2139112217560576e-13
-3.532415335290663e-13,-0.5235987666667112,2.094395066666684,-4.382109321658182e-14,-1.5707963000000436,-4.2392644730392396e-13
-3.553538012836412e-13,-0.5235987666667113,2.094395066666684,-4.4083725739851935e-14,-1.5707963000000436,-4.2646190926219337e-13
-3.574660782346532e-13,-0.5235987666667115,2.094395066666684,-4.434610673528651e-14,-1.5707963000000436,-4.289973683502397e-13
-3.5957838367531677e-13,-0.5235987666667116,2.094395066666684,-4.4608775397708193e-14,-1.5707963000000436,-4.3153269304484864e-13
-3.61690677187898e-13,-0.5235987666667117,2.094395066666684,-4.4871224263493e-14,-1.5707963000000436,-4.340679925128416e-13
-3.6380296118314434e-13,-0.5235987666667118,2.094395066666684,-4.513377509860114e-14,-1.5707963000000436,-4.3660326734427677e-13
-3.659152584289695e-13,-0.5235987666667119,2.094395066666684,-4.539627090391559e-14,-1.5707963000000436,-4.3913845061201333e-13
-3.680275579070603e-13,-0.523598766666712,2.094395066666684,-4.5658831218021755e-14,-1.5707963000000436,-4.416735525620507e-13
-3.701398598272544e-13,-0.5235987666667121,2.094395066666684,-4.5921347475370376e-14,-1.5707963000000436,-4.4420856822245866e-13
-3.7225216318979875e-13,-0.5235987666667122,2.094395066666684,-4.618410856986286e-14,-1.5707963000000436,-4.4674358179374233e-13
-3.7436447990509403e-13,-0.5235987666667123,2.094395066666684,-4.644683224430456e-14,-1.5707963000000436,-4.4927859405307463e-13
-3.7647680389814114e-13,-0.5235987666667125,2.094395066666684,-4.6709479136106195e-14,-1.5707963000000436,-4.518136109005097e-13
-3.785891338819658e-13,-0.5235987666667126,2.094395066666684,-4.6971802490728986e-14,-1.5707963000000436,-4.5434859579181444e-13
-3.807014817575012e-13,-0.5235987666667127,2.094395066666684,-4.7234547360485225e-14,-1.5707963000000436,-4.568835786165718e-13
-3.828138109331518e-13,-0.5235987666667128,2.094395066666684,-4.74969600409939e-14,-1.5707963000000436,-4.594186992385899e-13
-3.8492612831384557e-13,-0.5235987666667129,2.094395066666684,-4.775947874051181e-14,-1.5707963000000436,-4.619539642052748e-13
-3.8703846595885225e-13,-0.523598766666713,2.094395066666684,-4.8021812443684115e-14,-1.5707963000000436,-4.644891448928398e-13
-3.89150807721476e-13,-0.523598766666713,2.094395066666684,-4.828425157543116e-14,-1.5707963000000436,-4.670244733495263e-13
-3.9126316068941725e-13,-0.523598766666713,2.094395066666684,-4.854681447063306e-14,-1.5707963000000436,-4.695597785589777e-13
-3.933755227635815e-13,-0.523598766666713,2.094395066666684,-4.880946612890888e-14,-1.5707963000000436,-4.720950594688206e-13
-3.9548789243597287e-13,-0.523598766666713,2.094395066666684,-4.9072187239856216e-14,-1.5707963000000436,-4.746303156800848e-13
-3.976002684774231e-13,-0.523598766666713,2.094395066666684,-4.933500566125805e-14,-1.5707963000000436,-4.77165547070275e-13
-3.997126495168587e-13,-0.523598766666713,2.094395066666684,-4.959784527266319e-14,-1.5707963000000436,-4.797007532913895e-13
-4.01825034718284e-13,-0.523598766666713,2.094395066666684,-4.9860736813467523e-14,-1.5707963000000436,-4.822359345867606e-13
-4.039374233263186e-13,-0.523598766666713,2.094395066666684,-5.012366673229082e-14,-1.5707963000000436,-4.847710912463517e-13
-4.0604981472317504e-13,-0.523598766666713,2.094395066666684,-5.0386622524957085e-14,-1.5707963000000436,-4.873062236780458e-13
-4.0816220867220406e-13,-0.523598766666713,2.094395066666684,-5.0649652682085916e-14,-1.5707963000000436,-4.8984133270322e-13
-4.102746046500348e-13,-0.523598766666713,2.094395066666684,-5.0912747286467434e-14,-1.5707963000000436,-4.923764187520234e-13
-4.123870022119739e-13,-0.523598766666713,2.094395066666684,-5.1175897460771133e-14,-1.5707963000000436,-4.949114823052542e-13
-4.144994012626257e-13,-0.523598766666713,2.094395066666684,-5.1439109215081735e-14,-1.5707963000000436,-4.97446524225984e-13
-4.1661180142473804e-13,-0.523598766666713,2.094395066666684,-5.1702375740649146e-14,-1.5707963000000436,-4.999815449964784e-13
-4.187242026491859e-13,-0.523598766666713,2.094395066666684,-5.196570511350195e-14,-1.5707963000000436,-5.02516545459812e-13
-4.208366045713086e-13,-0.523598766666713,2.094395066666684,-5.2229046740741296e-14,-1.5707963000000436,-5.05051526040704e-13
-4.2294900717434416e-13,-0.523598766666713,2.094395066666684,-5.249245660851199e-14,-1.5707963000000436,-5.075864875475662e-13
-4.250614101551096e-13,-0.523598766666713,2.094395066666684,-5.2755885676718594e-14,-1.5707963000000436,-5.101214304106609e-13
-4.2717381352446396e-13,-0.523598766666713,2.094395066666684,-5.3019345634193254e-14,-1.5707963000000436,-5.126563554085938e-13
-4.292862172549294e-13,-0.523598766666713,2.094395066666684,-5.328284919509352e-14,-1.5707963000000436,-5.151912632414089e-13
-4.3139862134285995e-13,-0.523598766666713,2.094395066666684,-5.3546409591606507e-14,-1.5707963000000436,-5.177261546072869e-13
-4.335110257724517e-13,-0.523598766666713,2.094395066666684,-5.381004082698037e-14,-1.5707963000000436,-5.202610301636615e-13
-4.356234304972743e-13,-0.523598766666713,2.094395066666684,-5.407371182732901e-14,-1.5707963000000436,-5.227958905037778e-13
-4.3773583547379345e-13,-0.523598766666713,2.094395066666684,-5.433743813759684e-14,-1.5707963000000436,-5.253307361987794e-13
-4.3984824067257297e-13,-0.523598766666713,2.094395066666684,-5.4601235819543525e-14,-1.5707963000000436,-5.278655678099184e-13
-4.419606460254067e-13,-0.523598766666713,2.094395066666684,-5.486507585677551e-14,-1.5707963000000436,-5.304003858306867e-13
-4.4407305149247777e-13,-0.523598766666713,2.094395066666684,-5.5128975597381514e-14,-1.5707963000000436,-5.329351907647428e-13
-4.4618545702171614e-13,-0.523598766666713,2.094395066666684,-5.539290705708405e-14,-1.5707963000000436,-5.354699830771492e-13
-4.4829786253437893e-13,-0.523598766666713,2.094395066666684,-5.565684302084826e-14,-1.5707963000000436,-5.38004763182481e-13
-4.504102680028732e-13,-0.523598766666713,2.094395066666684,-5.5920802383447714e-14,-1.5707963000000436,-5.405395315345361e-13
-4.525226733480561e-13,-0.523598766666713,2.094395066666684,-5.6184758959903584e-14,-1.5707963000000436,-5.430742885053917e-13
-4.546350787952267e-13,-0.523598766666713,2.094395066666684,-5.6448746777942534e-14,-1.5707963000000436,-5.456090348172017e-13
-4.567474842520698e-13,-0.523598766666713,2.094395066666684,-5.671274042353704e-14,-1.5707963000000436,-5.48143770788136e-13
-4.58859889624827e-13,-0.523598766666713,2.094395066666684,-5.697671499752908e-14,-1.5707963000000436,-5.506784967199347e-13
-4.609722951208405e-13,-0.523598766666713,2.094395066666684,-5.724070581305322e-14,-1.5707963000000436,-5.532132132599633e-13
-4.630847005961963e-13,-0.523598766666713,2.094395066666684,-5.75046889948016e-14,-1.5707963000000436,-5.557479206176422e-13
-4.651971059369392e-13,-0.523598766666713,2.094395066666684,-5.776864092873207e-14,-1.5707963000000436,-5.582826190209556e-13
-4.673095113280077e-13,-0.523598766666713,2.094395066666684,-5.803259821278316e-14,-1.5707963000000436,-5.608173090450255e-13
-4.694219166318646e-13,-0.523598766666713,2.094395066666684,-5.829653800258813e-14,-1.5707963000000436,-5.633519908612045e-13
-4.715343220400026e-13,-0.523598766666713,2.094395066666684,-5.856049741199414e-14,-1.5707963000000436,-5.65886665023921e-13
-4.736467273866623e-13,-0.523598766666713,2.094395066666684,-5.882445436564488e-14,-1.5707963000000436,-5.68421331644145e-13
-4.757591328065573e-13,-0.523598766666713,2.094395066666684,-5.90884470004309e-14,-1.5707963000000436,-5.709559911837319e-13
-4.778715381433377e-13,-0.523598766666713,2.094395066666684,-5.935245375724273e-14,-1.5707963000000436,-5.734906437402907e-13
-4.799839435508546e-13,-0.523598766666713,2.094395066666684,-5.961646718697429e-14,-1.5707963000000436,-5.760252897750504e-13
-4.820963488420078e-13,-0.523598766666713,2.094395066666684,-5.988046649924939e-14,-1.5707963000000436,-5.785599293259587e-13
-4.842087541582382e-13,-0.523598766666713,2.094395066666684,-6.014449086190109e-14,-1.5707963000000436,-5.810945628174102e-13
-4.863211596020876e-13,-0.523598766666713,2.094395066666684,-6.040853384951877e-14,-1.5707963000000436,-5.836291906167602e-13
-4.884335649696253e-13,-0.523598766666713,2.094395066666684,-6.067257544224873e-14,-1.5707963000000436,-5.861638127138174e-13
-4.905459704144376e-13,-0.523598766666713,2.094395066666684,-6.093665532447932e-14,-1.5707963000000436,-5.886984295170551e-13
-4.92658376016508e-13,-0.523598766666713,2.094395066666684,-6.120076784056948e-14,-1.5707963000000436,-5.912330413383067e-13
-4.947707815496196e-13,-0.523598766666713,2.094395066666684,-6.146489374044732e-14,-1.5707963000000436,-5.937676481119305e-13
-4.968831871294583e-13,-0.523598766666713,2.094395066666684,-6.172902763046859e-14,-1.5707963000000436,-5.963022501755384e-13
-4.989955928326303e-13,-0.523598766666713,2.094395066666684,-6.199321047305333e-14,-1.5707963000000436,-5.988368478110951e-13
-5.011079984248574e-13,-0.523598766666713,2.094395066666684,-6.225737768630775e-14,-1.5707963000000436,-6.013714409220615e-13
-5.032204040142926e-13,-0.523598766666713,2.094395066666684,-6.252157049413349e-14,-1.5707963000000436,-6.039060298130803e-13
-5.053328096968074e-13,-0.523598766666713,2.094395066666684,-6.278578427296947e-14,-1.5707963000000436,-6.064406147676312e-13
-5.074452152544414e-13,-0.523598766666713,2.094395066666684,-6.305000080387719e-14,-1.5707963000000436,-6.089751956844468e-13
-5.095576207746118e-13,-0.523598766666713,2.094395066666684,-6.331421597732772e-14,-1.5707963000000436,-6.115097728258844e-13
-5.116700263180648e-13,-0.523598766666713,2.094395066666684,-6.357842593797006e-14,-1.5707963000000436,-6.140443464144357e-13
-5.13782431969755e-13,-0.523598766666713,2.094395066666684,-6.384267267938598e-14,-1.5707963000000436,-6.165789166947841e-13
-5.158948374669588e-13,-0.523598766666713,2.094395066666684,-6.410689290387291e-14,-1.5707963000000436,-6.191134834885523e-13
-5.180072429191041e-13,-0.523598766666713,2.094395066666684,-6.437112886544803e-14,-1.5707963000000436,-6.21648047058401e-13
-5.20119648387383e-13,-0.523598766666713,2.094395066666684,-6.463537722389806e-14,-1.5707963000000436,-6.241826076046071e-13
-5.222320539076383e-13,-0.523598766666713,2.094395066666684,-6.489963489335712e-14,-1.5707963000000436,-6.267171652934841e-13
-5.243444595241145e-13,-0.523598766666713,2.094395066666684,-6.51638987890143e-14,-1.5707963000000436,-6.292517202956009e-13
-5.264568649996897e-13,-0.523598766666713,2.094395066666684,-6.542815197715106e-14,-1.5707963000000436,-6.317862724376184e-13
-5.28569270399036e-13,-0.523598766666713,2.094395066666684,-6.569239163306614e-14,-1.5707963000000436,-6.343208219050785e-13
-5.306816757895455e-13,-0.523598766666713,2.094395066666684,-6.595661493234667e-14,-1.5707963000000436,-6.368553688831365e-13
-5.327940812259105e-13,-0.523598766666713,2.094395066666684,-6.622086515246269e-14,-1.5707963000000436,-6.393899135344277e-13
-5.349064867499595e-13,-0.523598766666713,2.094395066666684,-6.648513972334266e-14,-1.5707963000000436,-6.419244560059614e-13
-5.370188923782663e-13,-0.523598766666713,2.094395066666684,-6.674943632930835e-14,-1.5707963000000436,-6.444589964083479e-13
-5.391312978296733e-13,-0.523598766666713,2.094395066666684,-6.701369295784444e-14,-1.5707963000000436,-6.469935344919945e-13
-5.412437031927804e-13,-0.523598766666713,2.094395066666684,-6.727795314812075e-14,-1.5707963000000436,-6.495280704473407e-13
-5.4335610850504e-13,-0.523598766666713,2.094395066666684,-6.754221484462528e-14,-1.5707963000000436,-6.520626043985248e-13
-5.45468513837571e-13,-0.523598766666713,2.094395066666684,-6.780647573847106e-14,-1.5707963000000436,-6.545971365107928e-13
-5.475809191903732e-13,-0.523598766666713,2.094395066666684,-6.80707358296581e-14,-1.5707963000000436,-6.571316667841449e-13
-5.496933246122505e-13,-0.523598766666713,2.094395066666684,-6.833499126137196e-14,-1.5707963000000436,-6.596661954267753e-13
-5.518057301389902e-13,-0.523598766666713,2.094395066666684,-6.85992860812358e-14,-1.5707963000000436,-6.622007225484152e-13
-5.539181357705924e-13,-0.523598766666713,2.094395066666684,-6.886362028924963e-14,-1.5707963000000436,-6.647352481490649e-13
-5.5603054155049e-13,-0.523598766666713,2.094395066666684,-6.912799028551258e-14,-1.5707963000000436,-6.672697724135269e-13
-5.581429471744502e-13,-0.523598766666713,2.094395066666684,-6.939233482724819e-14,-1.5707963000000436,-6.698042950358616e-13
-5.602553526424727e-13,-0.523598766666713,2.094395066666684,-6.965665391445647e-14,-1.5707963000000436,-6.723388160160692e-13
-5.623677580521669e-13,-0.523598766666713,2.094395066666684,-6.992094446894917e-14,-1.5707963000000436,-6.748733355888605e-13
-5.644801634362476e-13,-0.523598766666713,2.094395066666684,-7.018525105310197e-14,-1.5707963000000436,-6.774078538451232e-13
-5.665925687947149e-13,-0.523598766666713,2.094395066666684,-7.044957366691486e-14,-1.5707963000000436,-6.799423707848572e-13
-5.687049741922181e-13,-0.523598766666713,2.094395066666684,-7.071390948561074e-14,-1.5707963000000436,-6.824768865900618e-13
-5.708173796287572e-13,-0.523598766666713,2.094395066666684,-7.09782585091896e-14,-1.5707963000000436,-6.850114012607369e-13
-5.72929785143109e-13,-0.523598766666713,2.094395066666684,-7.124261816721683e-14,-1.5707963000000436,-6.875459149380892e-13
-5.750421907352737e-13,-0.523598766666713,2.094395066666684,-7.150698845969244e-14,-1.5707963000000436,-6.900804276221188e-13
-5.771545964239741e-13,-0.523598766666713,2.094395066666684,-7.17713670712199e-14,-1.5707963000000436,-6.926149394223797e-13
-5.7926700220921e-13,-0.523598766666713,2.094395066666684,-7.203575400179919e-14,-1.5707963000000436,-6.951494503388718e-13
-5.813794081119369e-13,-0.523598766666713,2.094395066666684,-7.230019303973662e-14,-1.5707963000000436,-6.976839604771792e-13
-5.834918138360384e-13,-0.523598766666713,2.094395066666684,-7.256462345841201e-14,-1.5707963000000436,-7.002184695163308e-13
-5.856042193815145e-13,-0.523598766666713,2.094395066666684,-7.282904525782537e-14,-1.5707963000000436,-7.027529774563268e-13
-5.877166247483653e-13,-0.523598766666713,2.094395066666684,-7.30934584379767e-14,-1.5707963000000436,-7.052874842971671e-13
-5.898290300642686e-13,-0.523598766666713,2.094395066666684,-7.335786018185595e-14,-1.5707963000000436,-7.078219903003609e-13
-5.919414353292244e-13,-0.523598766666713,2.094395066666684,-7.362225048946313e-14,-1.5707963000000436,-7.103564954659082e-13
-5.94053840543233e-13,-0.523598766666713,2.094395066666684,-7.388662936079824e-14,-1.5707963000000436,-7.12890999793809e-13
-5.96166245747206e-13,-0.523598766666713,2.094395066666684,-7.415099448319605e-14,-1.5707963000000436,-7.154255034258002e-13
-5.982786509411435e-13,-0.523598766666713,2.094395066666684,-7.441534585665656e-14,-1.5707963000000436,-7.179600063618818e-13
-6.003910561250455e-13,-0.523598766666713,2.094395066666684,-7.467968348117975e-14,-1.5707963000000436,-7.20494508602054e-13
-6.025034613514686e-13,-0.523598766666713,2.094395066666684,-7.494400504557656e-14,-1.5707963000000436,-7.230290102929396e-13
-6.046158666204129e-13,-0.523598766666713,2.094395066666684,-7.520831054984697e-14,-1.5707963000000436,-7.255635114345387e-13
-6.067282719318784e-13,-0.523598766666713,2.094395066666684,-7.5472599993991e-14,-1.5707963000000436,-7.280980120268511e-13
-6.088406772995814e-13,-0.523598766666713,2.094395066666684,-7.573691742293479e-14,-1.5707963000000436,-7.306325121569446e-13
-6.109530827235222e-13,-0.523598766666713,2.094395066666684,-7.600126283667835e-14,-1.5707963000000436,-7.331670118248193e-13
-6.130654882037005e-13,-0.523598766666713,2.094395066666684,-7.626563623522168e-14,-1.5707963000000436,-7.357015110304749e-13
-6.151778937401164e-13,-0.523598766666713,2.094395066666684,-7.653003761856476e-14,-1.5707963000000436,-7.382360097739117e-13
-6.172902993457216e-13,-0.523598766666713,2.094395066666684,-7.679446467059176e-14,-1.5707963000000436,-7.407705081559403e-13
-6.19402705020516e-13,-0.523598766666713,2.094395066666684,-7.705891739130268e-14,-1.5707963000000436,-7.433050061765608e-13
-6.215151107644996e-13,-0.523598766666713,2.094395066666684,-7.73233957806975e-14,-1.5707963000000436,-7.458395038357732e-13
-6.236275165776724e-13,-0.523598766666713,2.094395066666684,-7.758789983877624e-14,-1.5707963000000436,-7.483740011335775e-13
-6.257399224600344e-13,-0.523598766666713,2.094395066666684,-7.785242956553889e-14,-1.5707963000000436,-7.509084980699737e-13
-6.278523284033243e-13,-0.523598766666713,2.094395066666684,-7.811698264222927e-14,-1.5707963000000436,-7.534429947240023e-13
-6.299647344075421e-13,-0.523598766666713,2.094395066666684,-7.838155906884737e-14,-1.5707963000000436,-7.559774910956635e-13
-6.320771404726878e-13,-0.523598766666713,2.094395066666684,-7.864615884539319e-14,-1.5707963000000436,-7.585119871849572e-13
-6.341895463138623e-13,-0.523598766666713,2.094395066666684,-7.891072098896246e-14,-1.5707963000000436,-7.610464826923005e-13
-6.363019519310656e-13,-0.523598766666713,2.094395066666684,-7.91752454995552e-14,-1.5707963000000436,-7.635809776176936e-13
-6.384143573242976e-13,-0.523598766666713,2.094395066666684,-7.943973237717139e-14,-1.5707963000000436,-7.661154719611364e-13
-6.405267624935584e-13,-0.523598766666713,2.094395066666684,-7.970418162181104e-14,-1.5707963000000436,-7.686499657226289e-13
-6.426391674388479e-13,-0.523598766666713,2.094395066666684,-7.996859323347414e-14,-1.5707963000000436,-7.711844589021711e-13
-6.447515721601663e-13,-0.523598766666713,2.094395066666684,-8.023296721216071e-14,-1.5707963000000436,-7.737189514997629e-13
-6.468639766575134e-13,-0.523598766666713,2.094395066666684,-8.049730355787074e-14,-1.5707963000000436,-7.762534435154044e-13
-6.489763811991163e-13,-0.523598766666713,2.094395066666684,-8.076159998626448e-14,-1.5707963000000436,-7.787879353579121e-13
-6.51088785784975e-13,-0.523598766666713,2.094395066666684,-8.102585649734195e-14,-1.5707963000000436,-7.813224270272857e-13
-6.532011904150895e-13,-0.523598766666713,2.094395066666684,-8.129007309110313e-14,-1.5707963000000436,-7.838569185235255e-13
-6.553135950894597e-13,-0.523598766666713,2.094395066666684,-8.155424976754803e-14,-1.5707963000000436,-7.863914098466312e-13
-6.574259998080857e-13,-0.523598766666713,2.094395066666684,-8.181838652667665e-14,-1.5707963000000436,-7.88925900996603e-13
-6.595384045271882e-13,-0.523598766666713,2.094395066666684,-8.208252817884004e-14,-1.5707963000000436,-7.9146039196515e-13
-6.616508092467672e-13,-0.523598766666713,2.094395066666684,-8.234667472403821e-14,-1.5707963000000436,-7.939948827522721e-13
-6.637632139668228e-13,-0.523598766666713,2.094395066666684,-8.261082616227117e-14,-1.5707963000000436,-7.965293733579693e-13
-6.658756186873549e-13,-0.523598766666713,2.094395066666684,-8.287498249353889e-14,-1.5707963000000436,-7.990638637822417e-13
-6.679880234083635e-13,-0.523598766666713,2.094395066666684,-8.31391437178414e-14,-1.5707963000000436,-8.015983540250891e-13
-6.701004281298487e-13,-0.523598766666713,2.094395066666684,-8.340330983517868e-14,-1.5707963000000436,-8.041328440865117e-13
-6.722128328518104e-13,-0.523598766666713,2.094395066666684,-8.366748084555074e-14,-1.5707963000000436,-8.066673339665095e-13
-6.743252375742485e-13,-0.523598766666713,2.094395066666684,-8.393165674895759e-14,-1.5707963000000436,-8.092018236650824e-13
-6.764376422971632e-13,-0.523598766666713,2.094395066666684,-8.41958375453992e-14,-1.5707963000000436,-8.117363131822305e-13
-6.785500470205545e-13,-0.523598766666713,2.094395066666684,-8.44600232348756e-14,-1.5707963000000436,-8.142708025179536e-13
-6.806624517556765e-13,-0.523598766666713,2.094395066666684,-8.472421175858673e-14,-1.5707963000000436,-8.168052917599399e-13
-6.827748565025291e-13,-0.523598766666713,2.094395066666684,-8.49884031165326e-14,-1.5707963000000436,-8.193397809081893e-13
-6.848872612611125e-13,-0.523598766666713,2.094395066666684,-8.525259730871321e-14,-1.5707963000000436,-8.218742699627019e-13
-6.869996660314266e-13,-0.523598766666713,2.094395066666684,-8.551679433512857e-14,-1.5707963000000436,-8.244087589234775e-13
-6.891120708134714e-13,-0.523598766666713,2.094395066666684,-8.578099419577865e-14,-1.5707963000000436,-8.269432477905163e-13
-6.912244756072469e-13,-0.523598766666713,2.094395066666684,-8.604519689066347e-14,-1.5707963000000436,-8.294777365638183e-13
-6.933368804127531e-13,-0.523598766666713,2.094395066666684,-8.630940241978304e-14,-1.5707963000000436,-8.320122252433833e-13
-6.9544928522999e-13,-0.523598766666713,2.094395066666684,-8.657361078313733e-14,-1.5707963000000436,-8.345467138292115e-13
-6.975616900589576e-13,-0.523598766666713,2.094395066666684,-8.683782198072637e-14,-1.5707963000000436,-8.370812023213028e-13
-6.99674094899656e-13,-0.523598766666713,2.094395066666684,-8.710203601255015e-14,-1.5707963000000436,-8.396156907196573e-13
-7.01786499752085e-13,-0.523598766666713,2.094395066666684,-8.736625287860867e-14,-1.5707963000000436,-8.421501790242749e-13
-7.038989046162447e-13,-0.523598766666713,2.094395066666684,-8.763047257890192e-14,-1.5707963000000436,-8.446846672351556e-13
-7.060113094921352e-13,-0.523598766666713,2.094395066666684,-8.78946951134299e-14,-1.5707963000000436,-8.472191553522994e-13
-7.081237143797564e-13,-0.523598766666713,2.094395066666684,-8.815892048219263e-14,-1.5707963000000436,-8.497536433757064e-13
-7.102361192791082e-13,-0.523598766666713,2.094395066666684,-8.84231486851901e-14,-1.5707963000000436,-8.522881313053765e-13
-7.123485241901907e-13,-0.523598766666713,2.094395066666684,-8.86873797224223e-14,-1.5707963000000436,-8.548226191413097e-13
-7.14460929113004e-13,-0.523598766666713,2.094395066666684,-8.895161359388925e-14,-1.5707963000000436,-8.573571068835061e-13
-7.16573334047548e-13,-0.523598766666713,2.094395066666684,-8.921585029959092e-14,-1.5707963000000436,-8.598915945319656e-13
-7.186857389602636e-13,-0.523598766666713,2.094395066666684,-8.948008777516272e-14,-1.5707963000000436,-8.624260821239441e-13
-7.207981438511507e-13,-0.523598766666713,2.094395066666684,-8.974432602060465e-14,-1.5707963000000436,-8.649605696594419e-13
-7.229105487202093e-13,-0.523598766666713,2.094395066666684,-9.000856503591671e-14,-1.5707963000000436,-8.674950571384587e-13
-7.250229535674396e-13,-0.523598766666713,2.094395066666684,-9.027280482109889e-14,-1.5707963000000436,-8.700295445609947e-13
-7.271353583928414e-13,-0.523598766666713,2.094395066666684,-9.05370453761512e-14,-1.5707963000000436,-8.725640319270497e-13
-7.292477631964148e-13,-0.523598766666713,2.094395066666684,-9.080128670107363e-14,-1.5707963000000436,-8.75098519236624e-13
-7.313601679781596e-13,-0.523598766666713,2.094395066666684,-9.10655287958662e-14,-1.5707963000000436,-8.776330064897173e-13
-7.334725727380761e-13,-0.523598766666713,2.094395066666684,-9.132977166052888e-14,-1.5707963000000436,-8.801674936863298e-13
-7.355849774761642e-13,-0.523598766666713,2.094395066666684,-9.15940152950617e-14,-1.5707963000000436,-8.827019808264613e-13
-7.376973821924238e-13,-0.523598766666713,2.094395066666684,-9.185825969946464e-14,-1.5707963000000436,-8.85236467910112e-13
-7.398097868868549e-13,-0.523598766666713,2.094395066666684,-9.21225048737377e-14,-1.5707963000000436,-8.877709549372818e-13
-7.419221915594577e-13,-0.523598766666713,2.094395066666684,-9.238675081788089e-14,-1.5707963000000436,-8.903054419079708e-13
-7.44034596210232e-13,-0.523598766666713,2.094395066666684,-9.26509975318942e-14,-1.5707963000000436,-8.928399288221789e-13
-7.461470008391779e-13,-0.523598766666713,2.094395066666684,-9.291524501577765e-14,-1.5707963000000436,-8.953744156799061e-13
-7.482594054462953e-13,-0.523598766666713,2.094395066666684,-9.317949326953121e-14,-1.5707963000000436,-8.979089024811524e-13
-7.503718100315843e-13,-0.523598766666713,2.094395066666684,-9.344374229315491e-14,-1.5707963000000436,-9.004433892259179e-13
-7.524842145950449e-13,-0.523598766666713,2.094395066666684,-9.370799208664873e-14,-1.5707963000000436,-9.029778759142024e-13
-7.545966191366771e-13,-0.523598766666713,2.094395066666684,-9.397224265001268e-14,-1.5707963000000436,-9.055123625460062e-13
-7.567090236564807e-13,-0.523598766666713,2.094395066666684,-9.423649398324675e-14,-1.5707963000000436,-9.080468491213291e-13
-7.58821428154456e-13,-0.523598766666713,2.094395066666684,-9.450074608635095e-14,-1.5707963000000436,-9.105813356401711e-13
-7.609338326306029e-13,-0.523598766666713,2.094395066666684,-9.476499895932528e-14,-1.5707963000000436,-9.131158221025322e-13
-7.630462370849212e-13,-0.523598766666713,2.094395066666684,-9.502925260216972e-14,-1.5707963000000436,-9.156503085084125e-13
-7.651586415174112e-13,-0.523598766666713,2.094395066666684,-9.52935070148843e-14,-1.5707963000000436,-9.18184794857812e-13
-7.672710459280728e-13,-0.523598766666713,2.094395066666684,-9.5557762197469e-14,-1.5707963000000436,-9.207192811507304e-13
-7.693834503169059e-13,-0.523598766666713,2.094395066666684,-9.582201814992383e-14,-1.5707963000000436,-9.23253767387168e-13
-7.714958546839105e-13,-0.523598766666713,2.094395066666684,-9.608627487224878e-14,-1.5707963000000436,-9.257882535671247e-13
-7.736082590290868e-13,-0.523598766666713,2.094395066666684,-9.635053236444386e-14,-1.5707963000000436,-9.283227396906006e-13
-7.757206633524346e-13,-0.523598766666713,2.094395066666684,-9.661479062650907e-14,-1.5707963000000436,-9.308572257575956e-13
-7.77833067653954e-13,-0.523598766666713,2.094395066666684,-9.68790496584444e-14,-1.5707963000000436,-9.333917117681096e-13
-7.799454719336448e-13,-0.523598766666713,2.094395066666684,-9.714330946024986e-14,-1.5707963000000436,-9.35926197722143e-13
-7.820578761915073e-13,-0.523598766666713,2.094395066666684,-9.740757003192545e-14,-1.5707963000000436,-9.384606836196954e-13
-7.841702804275414e-13,-0.523598766666713,2.094395066666684,-9.767183137347116e-14,-1.5707963000000436,-9.409951694607668e-13
-7.86282684641747e-13,-0.523598766666713,2.094395066666684,-9.793609348488699e-14,-1.5707963000000436,-9.435296552453574e-13
-7.883950888341241e-13,-0.523598766666713,2.094395066666684,-9.820035636617295e-14,-1.5707963000000436,-9.460641409734672e-13
-7.905074930046729e-13,-0.523598766666713,2.094395066666684,-9.846462001732903e-14,-1.5707963000000436,-9.48598626645096e-13
-7.926198971533932e-13,-0.523598766666713,2.094395066666684,-9.872888443835525e-14,-1.5707963000000436,-9.51133112260244e-13
-7.947323012802851e-13,-0.523598766666713,2.094395066666684,-9.899314962925158e-14,-1.5707963000000436,-9.53667597818911e-13
-7.968447053853485e-13,-0.523598766666713,2.094395066666684,-9.925741559001805e-14,-1.5707963000000436,-9.562020833210974e-13
-7.989571094685835e-13,-0.523598766666713,2.094395066666684,-9.952168232065464e-14,-1.5707963000000436,-9.587365687668028e-13
-8.010695135299901e-13,-0.523598766666713,2.094395066666684,-9.978594982116136e-14,-1.5707963000000436,-9.612710541560272e-13
-8.031819175695682e-13,-0.523598766666713,2.094395066666684,-1.0005021809153821e-13,-1.5707963000000436,-9.638055394887708e-13
-8.052943215873179e-13,-0.523598766666713,2.094395066666684,-1.0031448713178518e-13,-1.5707963000000436,-9.663400247650336e-13
-8.074067255832392e-13,-0.523598766666713,2.094395066666684,-1.0057875694190228e-13,-1.5707963000000436,-9.688745099848154e-13
-8.095191295573321e-13,-0.523598766666713,2.094395066666684,-1.008430275218895e-13,-1.5707963000000436,-9.714089951481164e-13
-8.116315335095964e-13,-0.523598766666713,2.094395066666684,-1.0110729887174685e-13,-1.5707963000000436,-9.739434802549366e-13
-8.137439374400324e-13,-0.523598766666713,2.094395066666684,-1.0137157099147432e-13,-1.5707963000000436,-9.76477965305276e-13
-8.1585634134864e-13,-0.523598766666713,2.094395066666684,-1.0163584388107192e-13,-1.5707963000000436,-9.790124502991343e-13
-8.179687452354191e-13,-0.523598766666713,2.094395066666684,-1.0190011754053964e-13,-1.5707963000000436,-9.815469352365118e-13
-8.200811491003697e-13,-0.523598766666713,2.094395066666684,-1.021643919698775e-13,-1.5707963000000436,-9.840814201174085e-13
-8.22193552943492e-13,-0.523598766666713,2.094395066666684,-1.0242866716908547e-13,-1.5707963000000436,-9.866159049418243e-13
-8.243059567647858e-13,-0.523598766666713,2.094395066666684,-1.0269294313816358e-13,-1.5707963000000436,-9.891503897097592e-13
-8.264183605642511e-13,-0.523598766666713,2.094395066666684,-1.0295721987711181e-13,-1.5707963000000436,-9.916848744212131e-13
-8.28530764341888e-13,-0.523598766666713,2.094395066666684,-1.0322149738593017e-13,-1.5707963000000436,-9.942193590761864e-13
-8.306431680976965e-13,-0.523598766666713,2.094395066666684,-1.0348577566461865e-13,-1.5707963000000436,-9.967538436746787e-13
-8.327555718316766e-13,-0.523598766666713,2.094395066666684,-1.0375005471317726e-13,-1.5707963000000436,-9.9928832821669e-13
-8.348679755438281e-13,-0.523598766666713,2.094395066666684,-1.04014334531606e-13,-1.5707963000000436,-1.0018228127022205e-12
-8.369803792341513e-13,-0.523598766666713,2.094395066666684,-1.0427861511990485e-13,-1.5707963000000436,-1.0043572971312702e-12
-8.390927829026461e-13,-0.523598766666713,2.094395066666684,-1.0454289647807384e-13,-1.5707963000000436,-1.006891781503839e-12
-8.412051865493124e-13,-0.523598766666713,2.094395066666684,-1.0480717860611295e-13,-1.5707963000000436,-1.0094262658199269e-12
-8.433175901741502e-13,-0.523598766666713,2.094395066666684,-1.0507146150402219e-13,-1.5707963000000436,-1.0119607500795338e-12
-8.454299937771597e-13,-0.523598766666713,2.094395066666684,-1.0533574517180155e-13,-1.5707963000000436,-1.01449523428266e-12
-8.475423973583407e-13,-0.523598766666713,2.094395066666684,-1.0560002960945104e-13,-1.5707963000000436,-1.0170297184293053e-12
-8.496548009176932e-13,-0.523598766666713,2.094395066666684,-1.0586431481697065e-13,-1.5707963000000436,-1.0195642025194697e-12
-8.517672044552174e-13,-0.523598766666713,2.094395066666684,-1.061286007943604e-13,-1.5707963000000436,-1.0220986865531532e-12
-8.538796079709131e-13,-0.523598766666713,2.094395066666684,-1.0639288754162027e-13,-1.5707963000000436,-1.0246331705303559e-12
-8.559920117165435e-13,-0.523598766666713,2.094395066666684,-1.0665717302980417e-13,-1.5707963000000436,-1.0271676548305799e-12
-8.581044156921085e-13,-0.523598766666713,2.094395066666684,-1.069214572589121e-13,-1.5707963000000436,-1.0297021394538254e-12
-8.602168198976082e-13,-0.523598766666713,2.094395066666684,-1.0718574022894406e-13,-1.5707963000000436,-1.0322366244000924e-12
-8.623292243330426e-13,-0.523598766666713,2.094395066666684,-1.0745002193990005e-13,-1.5707963000000436,-1.0347711096693808e-12
-8.644416289984117e-13,-0.523598766666713,2.094395066666684,-1.0771430239178008e-13,-1.5707963000000436,-1.0373055952616906e-12
-8.665540338937154e-13,-0.523598766666713,2.094395066666684,-1.0797858158458413e-13,-1.5707963000000436,-1.0398400811770219e-12
-8.686664390189538e-13,-0.523598766666713,2.094395066666684,-1.0824285951831222e-13,-1.5707963000000436,-1.0423745674153745e-12
-8.707788443741268e-13,-0.523598766666713,2.094395066666684,-1.0850713619296433e-13,-1.5707963000000436,-1.0449090539767486e-12
-8.728912499592345e-13,-0.523598766666713,2.094395066666684,-1.0877141160854048e-13,-1.5707963000000436,-1.0474435408611443e-12
-8.750036557742769e-13,-0.523598766666713,2.094395066666684,-1.0903568576504066e-13,-1.5707963000000436,-1.0499780280685614e-12
-8.77116061819254e-13,-0.523598766666713,2.094395066666684,-1.0929995866246487e-13,-1.5707963000000436,-1.0525125155989998e-12
-8.792284680941657e-13,-0.523598766666713,2.094395066666684,-1.0956423030081311e-13,-1.5707963000000436,-1.0550470034524597e-12
-8.813408745990121e-13,-0.523598766666713,2.094395066666684,-1.0982850068008538e-13,-1.5707963000000436,-1.0575814916289412e-12
-8.834532813337932e-13,-0.523598766666713,2.094395066666684,-1.1009276980028168e-13,-1.5707963000000436,-1.0601159801284439e-12
-8.855656882985091e-13,-0.523598766666713,2.094395066666684,-1.1035703766140202e-13,-1.5707963000000436,-1.0626504689509681e-12
-8.876780954931595e-13,-0.523598766666713,2.094395066666684,-1.1062130426344638e-13,-1.5707963000000436,-1.0651849580965139e-12
-8.897905029177446e-13,-0.523598766666713,2.094395066666684,-1.1088556960641477e-13,-1.5707963000000436,-1.0677194475650809e-12
-8.919029105722644e-13,-0.523598766666713,2.094395066666684,-1.111498336903072e-13,-1.5707963000000436,-1.0702539373566694e-12
-8.940153184567188e-13,-0.523598766666713,2.094395066666684,-1.1141409651512366e-13,-1.5707963000000436,-1.0727884274712794e-12
-8.961277265711079e-13,-0.523598766666713,2.094395066666684,-1.1167835808086414e-13,-1.5707963000000436,-1.0753229179089108e-12
-8.982401349154318e-13,-0.523598766666713,2.094395066666684,-1.1194261838752865e-13,-1.5707963000000436,-1.0778574086695636e-12
-9.003525434896902e-13,-0.523598766666713,2.094395066666684,-1.1220687743511719e-13,-1.5707963000000436,-1.080391899753238e-12
-9.024649522938833e-13,-0.523598766666713,2.094395066666684,-1.1247113522362976e-13,-1.5707963000000436,-1.0829263911599336e-12
-9.045773613280111e-13,-0.523598766666713,2.094395066666684,-1.1273539175306637e-13,-1.5707963000000436,-1.0854608828896507e-12
-9.066897705920736e-13,-0.523598766666713,2.094395066666684,-1.12999647023427e-13,-1.5707963000000436,-1.0879953749423893e-12
-9.088021800860707e-13,-0.523598766666713,2.094395066666684,-1.1326390103471167e-13,-1.5707963000000436,-1.0905298673181493e-12
-9.109145898100025e-13,-0.523598766666713,2.094395066666684,-1.1352815378692037e-13,-1.5707963000000436,-1.0930643600169307e-12
-9.130269997638689e-13,-0.523598766666713,2.094395066666684,-1.137924052800531e-13,-1.5707963000000436,-1.0955988530387336e-12
-9.151394099476701e-13,-0.523598766666713,2.094395066666684,-1.1405665551410986e-13,-1.5707963000000436,-1.098133346383558e-12
-9.17251819199737e-13,-0.523598766666713,2.094395066666684,-1.143209058898769e-13,-1.5707963000000436,-1.1006678386027297e-12
-9.193642275200696e-13,-0.523598766666713,2.094395066666684,-1.1458515640735422e-13,-1.5707963000000436,-1.1032023296962484e-12
-9.21476634908668e-13,-0.523598766666713,2.094395066666684,-1.1484940706654182e-13,-1.5707963000000436,-1.1057368196641142e-12
-9.23589041365532e-13,-0.523598766666713,2.094395066666684,-1.151136578674397e-13,-1.5707963000000436,-1.1082713085063272e-12
-9.257014468906618e-13,-0.523598766666713,2.094395066666684,-1.1537790881004787e-13,-1.5707963000000436,-1.1108057962228875e-12
-9.278138514840574e-13,-0.523598766666713,2.094395066666684,-1.1564215989436631e-13,-1.5707963000000436,-1.113340282813795e-12
-9.299262551457186e-13,-0.523598766666713,2.094395066666684,-1.1590641112039505e-13,-1.5707963000000436,-1.1158747682790496e-12
-9.320386578756455e-13,-0.523598766666713,2.094395066666684,-1.1617066248813405e-13,-1.5707963000000436,-1.1184092526186513e-12
-9.341510596738383e-13,-0.523598766666713,2.094395066666684,-1.1643491399758334e-13,-1.5707963000000436,-1.1209437358326004e-12
-9.362634605402967e-13,-0.523598766666713,2.094395066666684,-1.166991656487429e-13,-1.5707963000000436,-1.1234782179208966e-12
-9.383758604750208e-13,-0.523598766666713,2.094395066666684,-1.1696341744161274e-13,-1.5707963000000436,-1.12601269888354e-12
-9.404882594780107e-13,-0.523598766666713,2.094395066666684,-1.1722766937619285e-13,-1.5707963000000436,-1.1285471787205304e-12
-9.426006575492663e-13,-0.523598766666713,2.094395066666684,-1.1749192145248326e-13,-1.5707963000000436,-1.1310816574318682e-12
-9.447130546887875e-13,-0.523598766666713,2.094395066666684,-1.1775617367048395e-13,-1.5707963000000436,-1.1336161350175532e-12
-9.468254508965746e-13,-0.523598766666713,2.094395066666684,-1.1802042603019492e-13,-1.5707963000000436,-1.1361506114775853e-12
-9.489378461726274e-13,-0.523598766666713,2.094395066666684,-1.1828467853161617e-13,-1.5707963000000436,-1.1386850868119645e-12
-9.510502430802426e-13,-0.523598766666713,2.094395066666684,-1.1854893149316033e-13,-1.5707963000000436,-1.1412195641025788e-12
-9.531626416194203e-13,-0.523598766666713,2.094395066666684,-1.1881318491482738e-13,-1.5707963000000436,-1.1437540433494283e-12
-9.552750417901604e-13,-0.523598766666713,2.094395066666684,-1.1907743879661737e-13,-1.5707963000000436,-1.1462885245525128e-12
-9.57387443592463e-13,-0.523598766666713,2.094395066666684,-1.1934169313853025e-13,-1.5707963000000436,-1.1488230077118324e-12
-9.59499847026328e-13,-0.523598766666713,2.094395066666684,-1.1960594794056606e-13,-1.5707963000000436,-1.151357492827387e-12
-9.616122520917553e-13,-0.523598766666713,2.094395066666684,-1.1987020320272478e-13,-1.5707963000000436,-1.1538919798991769e-12
-9.63724658788745e-13,-0.523598766666713,2.094395066666684,-1.201344589250064e-13,-1.5707963000000436,-1.1564264689272018e-12
-9.658370671172973e-13,-0.523598766666713,2.094395066666684,-1.2039871510741093e-13,-1.5707963000000436,-1.1589609599114618e-12
-9.67949477077412e-13,-0.523598766666713,2.094395066666684,-1.2066297174993837e-13,-1.5707963000000436,-1.1614954528519568e-12
-9.700618861445782e-13,-0.523598766666713,2.094395066666684,-1.2092722828156058e-13,-1.5707963000000436,-1.164029944718956e-12
-9.721742943187959e-13,-0.523598766666713,2.094395066666684,-1.2119148470227755e-13,-1.5707963000000436,-1.1665644355124594e-12
-9.742867016000648e-13,-0.523598766666713,2.094395066666684,-1.2145574101208928e-13,-1.5707963000000436,-1.169098925232467e-12
-9.763991079883851e-13,-0.523598766666713,2.094395066666684,-1.2171999721099576e-13,-1.5707963000000436,-1.1716334138789786e-12
-9.78511513483757e-13,-0.523598766666713,2.094395066666684,-1.21984253298997e-13,-1.5707963000000436,-1.1741679014519942e-12
-9.806239180861802e-13,-0.523598766666713,2.094395066666684,-1.22248509276093e-13,-1.5707963000000436,-1.176702387951514e-12
-9.827363217956548e-13,-0.523598766666713,2.094395066666684,-1.2251276514228378e-13,-1.5707963000000436,-1.1792368733775379e-12
-9.848487246121808e-13,-0.523598766666713,2.094395066666684,-1.227770208975693e-13,-1.5707963000000436,-1.181771357730066e-12
-9.869611265357583e-13,-0.523598766666713,2.094395066666684,-1.230412765419496e-13,-1.5707963000000436,-1.184305841009098e-12
-9.890735275663872e-13,-0.523598766666713,2.094395066666684,-1.2330553207542467e-13,-1.5707963000000436,-1.186840323214634e-12
-9.911859277040674e-13,-0.523598766666713,2.094395066666684,-1.2356978749799448e-13,-1.5707963000000436,-1.1893748043466743e-12
-9.93298326948799e-13,-0.523598766666713,2.094395066666684,-1.2383404280965905e-13,-1.5707963000000436,-1.1919092844052188e-12
-9.954107253005821e-13,-0.523598766666713,2.094395066666684,-1.2409829801041838e-13,-1.5707963000000436,-1.1944437633902671e-12
-9.975231227594167e-13,-0.523598766666713,2.094395066666684,-1.2436255310027248e-13,-1.5707963000000436,-1.1969782413018196e-12
-9.996355193253025e-13,-0.523598766666713,2.094395066666684,-1.2462680807922134e-13,-1.5707963000000436,-1.1995127181398763e-12
-1.0017479149982398e-12,-0.523598766666713,2.094395066666684,-1.2489106294726497e-13,-1.5707963000000436,-1.2020471939044371e-12
-1.0038603097782285e-12,-0.523598766666713,2.094395066666684,-1.2515531770440333e-13,-1.5707963000000436,-1.2045816685955019e-12
-1.0059727062958453e-12,-0.523598766666713,2.094395066666684,-1.2541957267732515e-13,-1.5707963000000436,-1.2071161453719136e-12
-1.0080851045510902e-12,-0.523598766666713,2.094395066666684,-1.256838278660304e-13,-1.5707963000000436,-1.209650624233672e-12
-1.0101975045439633e-12,-0.523598766666713,2.094395066666684,-1.2594808327051912e-13,-1.5707963000000436,-1.2121851051807775e-12
-1.0123099062744643e-12,-0.523598766666713,2.094395066666684,-1.2621233889079125e-13,-1.5707963000000436,-1.2147195882132297e-12
-1.0144223097425936e-12,-0.523598766666713,2.094395066666684,-1.2647659472684682e-13,-1.5707963000000436,-1.2172540733310288e-12
-1.016534714948351e-12,-0.523598766666713,2.094395066666684,-1.2674085077868585e-13,-1.5707963000000436,-1.2197885605341748e-12
-1.0186471218917364e-12,-0.523598766666713,2.094395066666684,-1.2700510704630832e-13,-1.5707963000000436,-1.2223230498226676e-12
-1.02075953057275e-12,-0.523598766666713,2.094395066666684,-1.272693635297142e-13,-1.5707963000000436,-1.2248575411965073e-12
-1.0228719409913918e-12,-0.523598766666713,2.094395066666684,-1.2753362022890355e-13,-1.5707963000000436,-1.2273920346556939e-12
-1.0249843504375858e-12,-0.523598766666713,2.094395066666684,-1.2779787680733166e-13,-1.5707963000000436,-1.229926526947987e-12
-1.0270967589113323e-12,-0.523598766666713,2.094395066666684,-1.2806213326499857e-13,-1.5707963000000436,-1.2324610180733864e-12
-1.0292091664126313e-12,-0.523598766666713,2.094395066666684,-1.2832638960190426e-13,-1.5707963000000436,-1.2349955080318926e-12
-1.0313215729414825e-12,-0.523598766666713,2.094395066666684,-1.2859064581804872e-13,-1.5707963000000436,-1.2375299968235052e-12
-1.0334339784978861e-12,-0.523598766666713,2.094395066666684,-1.2885490191343196e-13,-1.5707963000000436,-1.2400644844482242e-12
-1.0355463830818423e-12,-0.523598766666713,2.094395066666684,-1.29119157888054e-13,-1.5707963000000436,-1.2425989709060499e-12
-1.0376587866933506e-12,-0.523598766666713,2.094395066666684,-1.293834137419148e-13,-1.5707963000000436,-1.245133456196982e-12
-1.0397711893324114e-12,-0.523598766666713,2.094395066666684,-1.296476694750144e-13,-1.5707963000000436,-1.2476679403210206e-12
-1.0418835909990247e-12,-0.523598766666713,2.094395066666684,-1.2991192508735275e-13,-1.5707963000000436,-1.2502024232781658e-12
-1.0439959916931903e-12,-0.523598766666713,2.094395066666684,-1.301761805789299e-13,-1.5707963000000436,-1.2527369050684175e-12
-1.0461083914149083e-12,-0.523598766666713,2.094395066666684,-1.3044043594974584e-13,-1.5707963000000436,-1.2552713856917759e-12
2.111202194029293e-06,-0.5236332948254766,2.094369634164608,0.0007007527536489909,-1.570796075124937,2.5128527497915033e-06
6.1064421162666066e-06,-0.5236990847270365,2.094318934026094,0.002073714517497228,-1.5707957173724656,7.217370391924756e-06
1.195533173502586e-05,-0.5237894243687251,2.094241565619387,0.004089711964475063,-1.5707953707536675,1.3939544234993778e-05
1.97758697233897e-05,-0.5238947340744509,2.094134836633746,0.006719186748442061,-1.5707952269059264,2.2609224073518732e-05
2.979447492827082e-05,-0.5240030720011961,2.0939950003399996,0.009932416138781968,-1.5707955179456512,3.322516030509302e-05
4.23131483081906e-05,-0.5241005881282057,2.0938174701968575,0.013699703034248823,-1.5707965089538263,4.5827437184777367e-05
5.768220146993128e-05,-0.524171933264486,2.093597010588255,0.017991543986693538,-1.5707984902186984,6.047573088066136e-05
7.627729995039539e-05,-0.5242006289854435,2.0933279029546563,0.022778782676466484,-1.57080176931844,7.723214975760318e-05
9.847986375626083e-05,-0.5241694035150672,2.093004087091924,0.02803275475219532,-1.5708066631230149,9.614769697453755e-05
0.00012466014908223054,-0.5240604975770697,2.0926192779121955,0.03372542829740268,-1.5708134898074906,0.0001172516542360562
0.00015516257090491197,-0.5238559432841169,2.0921670584856322,0.03982954256728709,-1.5708225609922792,0.00014054339044579294
0.00019029302199393121,-0.5235378183073935,2.0916409507002487,0.04631874616003451,-1.5708341741483953,0.00016598626335644849
0.000230308095892923,-0.5230884769230081,2.0910344653781383,0.053167734518244116,-1.570848605422238,0.00019350340597346942
0.0002754062229734161,-0.5224907590879502,2.0903411341551554,0.06035238563603438,-1.5708661030425677,0.00022297526770373368
0.000325720796480391,-0.5217281784429638,2.0895545258449912,0.06784989209106468,-1.5708868814662285,0.00025423883508570057
0.000381315368968948,-0.5207850900469732,2.0886682503499583,0.07563888701513076,-1.5709111164076544,0.00028708845244411203
0.0004421810074056792,-0.519646838653033,2.087675953418532,0.08369956134255647,-1.5709389408640932,0.00032127818077642235
0.0005082358260880451,-0.5182998884009471,2.086571305677304,0.09201376958301304,-1.5709704422201993,0.0003565255742419225
0.0005793266782700471,-0.5167319348457873,2.0853479893545694,0.10056512142004499,-1.571005660467901,0.0003925167440146647
0.0006552328944927121,-0.5149320002361697,2.083999685970512,0.10933905658291891,-1.5710445875400292,0.0004289125128378275
0.0007356718988660143,-0.5128905128478626,2.082520067983464,0.11832290064766288,-1.5710871677094362,0.0004653554447818383
0.0008203064408037616,-0.5105993709710348,2.0809027969719223,0.12750589965867135,-1.5711332989764977,0.0005014774718449067
0.0009087531536004447,-0.5080519918283526,2.0791415303982865,0.136879231723621,-1.5711828353290969,0.00053690785330633
0.001000592093372567,-0.505243345320058,2.0772299383776995,0.14643599401704768,-1.5712355897436132,0.0005712811737384256
0.001095376899431057,-0.5021699720827301,2.0751617311795956,0.15617116395789604,-1.5712913377809707,0.0006042451014102193
0.001192645213224836,-0.49882998498143416,2.072930697456955,0.16608153372871778,-1.5713498216287893,0.0006354676456892356
0.0012919290112257905,-0.4952230528947532,2.070530752462532,0.17616561781069384,-1.5714107544432152,0.000664643686387617
0.001392764537071059,-0.49135036556489115,2.0679559948130652,0.18642353384279578,-1.5714738248527178,0.0006915005883210348
0.0014947015520261843,-0.4872145784227223,2.065200769744077,0.19685685788411547,-1.5715387015013986,0.0007158027526157704
0.0015973116748274367,-0.4828197366847062,2.0622597362983077,0.20746845605439881,-1.57160503752251,0.0007373550110375856
0.0017001956208412897,-0.47817117866057746,2.059127935551953,0.21826229550869958,-1.5716724748535016,0.0007560048050626216
0.0018029892053771832,-0.473275419065426,2.055800856830253,0.22924323870530403,-1.5717406483190208,0.0007716431428587359
0.0019053680139039877,-0.46814001413682277,2.0522744989198034,0.24041682586437702,-1.5718091894297412,0.0007842043564432598
0.0020070506994384583,-0.4627734114128685,2.048545423545321,0.2517890512934165,-1.5718777298567284,0.0007936647312511762
0.0021078009110435517,-0.4571847880265128,2.0446107988311577,0.26336613977825823,-1.571945904555961,0.0008000401119922374
0.002207427893546189,-0.4513838821992527,2.040468431076149,0.2751543294269484,-1.5720133545342014,0.000803382609416164
0.0023057858406920267,-0.4453808231696016,2.036116783880907,0.28715966716105257,-1.5720797292587196,0.00080377655823755
0.0024027721249348733,-0.4391859649984815,2.031554984418252,0.2993878224670376,-1.5721446887208732,0.0008013338993047806
0.002498324567067442,-0.43280972952261887,2.026782817364745,0.3118439240851515,-1.572207905165799,0.0007961891802689668
0.0025924179082715626,-0.4262624631991555,2.021800707659573,0.3245324230987875,-1.5722690645186503,0.0007884943435497475
0.0026850596916664386,-0.4195543117331698,2.016609693765275,0.33745698450190525,-1.5723278675265777,0.0007784134989037888
0.0027762857457676315,-0.4126951153169411,2.0112113934568603,0.3506204078846096,-1.5723840306472978,0.0007661178412458212
0.0028661554748065994,-0.405694326120639,2.005607964337915,0.3640245765084947,-1.57243728670635,0.0007517808732707785
0.0029547471312239668,-0.398560948486114,1.9998020612919591,0.37767043284659363,-1.5724873853529946,0.0007355740477721867
0.003042153238934127,-0.3913035011727142,1.9937967929384774,0.39155797771437545,-1.5725340933349463,0.0007176629313550882
0.0031284762956082794,-0.38393000007898026,1.9875956789179108,0.4056862894605474,-1.5725771946176934,0.0006982039446926651
0.0032138248673889537,-0.3764479591528812,1.981202609508567,0.4200535593285059,-1.5726164903623931,0.0006773417214920413
0.0032983101356587347,-0.3688644067428007,1.9746218087288858,0.4346571390205347,-1.572651798788137,0.0006552070748894328
0.003382042945663752,-0.36118591440652614,1.96785780172198,0.4494935966548461,-1.5726829549300019,0.0006319155588883271
0.003465131369509672,-0.35341863517793876,1.9609153868928673,0.4645587776459195,-1.5727098103080934,0.0006075665820293631
0.0035476787650467563,-0.3455683484428793,1.9537996129853998,0.47984786750082864,-1.5727322325274748,0.000582243007997952
0.0036297823041540537,-0.33764050884773544,1.9465157610526536,0.4953554540518963,-1.5727501048209596,0.0005560111807589785
0.003711531931310233,-0.3296402970179774,1.9390693310984137,0.5110755871905742,-1.572763325544283,0.0005289213087245294
0.0037930096913627595,-0.32157267025855124,1.9314660330468307,0.5270018346899514,-1.5727718076421309,0.0005010081280619129
0.003874289375401678,-0.31344241180013044,1.923711781619654,0.5431273331758664,-1.5727754780923846,0.0004722917844345685
0.003955436425015383,-0.3052541775314735,1.9158126946654355,0.5594448337141467,-1.5727742773402011,0.00044277886960936565
0.0040365080368078956,-0.2970125394939576,1.9077750944796499,0.5759467418154889,-1.572768158733277,0.0004124635563191619
0.004117553419948615,-0.2887220257005261,1.8996055116703918,0.5926251519199957,-1.5727570879629413,0.0003813287901480766
0.004198614162938658,-0.2803871560779243,1.891310691156318,0.609471876615765,-1.5727410425154402,0.0003493475032611112
0.004279724660283486,-0.27201247451878463,1.882897599925805,0.6264784709779948,-1.5727200111466644,0.0003164838105924652
0.0043609125764916545,-0.2636025771634602,1.8743734362271487,0.6436362524949703,-1.5726939933754518,0.0002826941779148849
0.0044421993152570435,-0.25516213713211383,1.8657456399060952,0.6609363170881793,-1.572662999001969,0.0002479285410372303
0.00452360047470596,-0.2466959259876027,1.8570219036470061,0.6783695517420532,-1.5726270476509,0.00021213136866360166
0.004605126273316744,-0.23820883224344777,1.848210184910457,0.695926644245076,-1.5725861683391553,0.00017524266438955435
0.004686781933373052,-0.22970587724255434,1.839318718390633,0.7135980905151215,-1.5725403990691862,0.00013719890469346662
0.004768568017156173,-0.22119222872503855,1.8303560288383607,0.7313741999436285,-1.5724897864441845,9.79339171117869e-05
0.0048504807095457155,-0.21267321238556328,1.8213309441120906,0.7492450991516121,-1.5724343853051985,5.737970003864964e-05
0.004932512049851393,-0.20415432169085065,1.8122526083259283,0.7672007345079243,-1.5723742583835363,1.546719349001165e-05
0.005014650107679015,-0.19564122619546828,1.8031304949651956,0.7852308737215492,-1.572309475971215,-2.787299892384536e-05
0.005096879106351185,-0.18713977855283803,1.7939744198302563,0.8033251067845607,-1.5722401156056502,-7.270992908189399e-05
0.005179179502897438,-0.1786560203748991,1.7847945536514194,0.8214728465138101,-1.5721662617598982,-0.00011911165292732479
0.005261528020224115,-0.1701961870517697,1.7756014341941486,0.8396633289196087,-1.572088005544373,-0.00016714461081290921
0.005343897644234954,-0.16176671159176623,1.766405977636104,0.8578856136149637,-1.5720054444097342,-0.000216873026764452
0.005426257589691751,-0.15337422749518298,1.7572194889548816,0.8761285844747992,-1.5719186818500117,-0.00026835832377624606
0.005508573234230831,-0.14502557062498905,1.7480536710126928,0.8943809507580888,-1.571827827111143,-0.0003216585571420693
0.005590806041191146,-0.13672777998016797,1.7389206319580877,0.9126312489147566,-1.5717329948879835,-0.00037682785014286625
0.0056729134659245645,-0.1284880972282718,1.7298328904977933,0.9308678453206362,-1.5716343050210602,-0.00043391584144745316
0.005754848861374764,-0.12031396479258227,1.7208033785089827,0.9490789402069699,-1.571531882183027,-0.0004929671359771142
0.005836561393524194,-0.11221302223295263,1.7118454403772652,0.9672525730831614,-1.5714258555503868,-0.0005540207579402955
0.0059179959668463405,-0.1041931006035863,1.7029728283572452,0.9853766299890658,-1.5713163584691616,-0.0006171096152279422
0.005999093182922625,-0.09626221440949945,1.6941996931570749,1.0034388529496927,-1.5712035280982561,-0.0006822599669100739
0.006079789338780337,-0.08842855073361189,1.6855405688624838,1.0214268520476104,-1.5710875050332747,-0.0007494909022292468
0.006160016472655834,-0.08070045505852141,1.6770103512353558,1.0393281205665705,-1.5709684329140066,-0.0008188138401169467
0.006239702479607305,-0.07308641326619937,1.668624268354508,1.0571300536909238,-1.570846458002302,-0.0008902320488996266
0.00631877130677697,-0.06559502927769403,1.6603978425273844,1.074819971270696,-1.5707217287320672,-0.0009637401985232995
0.006397143241503713,-0.05823499778950021,1.6523468423936498,1.0923851451708722,-1.5705943952300179,-0.0010393239565037258
0.00647473530698131,-0.051015071583458374,1.6444872241793203,1.1098128317126081,-1.5704646088041034,-0.001116959639411833
0.006551461780319741,-0.043944022939046125,1.6368350611551106,1.1270903096777116,-1.5703325213957933,-0.0011966139327908522
0.00662723484550095,-0.03703059876729348,1.6294064605175416,1.1442049242800207,-1.570198284994169,-0.001278243694560271
0.006701965385622206,-0.030283469220681255,1.6222174671578182,1.161144137403145,-1.5700620510180603,-0.0013617958619669837
0.006775563926421984,-0.023711169713790354,1.6152839541168902,1.1778955842551577,-1.569923969660407,-0.0014472074747039704
0.006847941723354114,-0.017322036525850563,1.608621499957639,1.194447136401469,-1.5697841892096835,-0.0015344058373136988
0.006919011997510799,-0.011124136436143578,1.6022452538057532,1.2107869708965735,-1.5696428553422055,-0.0016233088296125136
0.006988691299153666,-0.00512519117526531,1.5961697894228644,1.226903644959517,-1.569500110406258,-0.001713825385253687
0.007056900979237197,0.0006675021640848884,1.5904089503492516,1.2427861753222413,-1.569356092710428,-0.001805856147902074
0.007123568743678538,0.006247153232963548,1.5849756888655069,1.2584241210433154,-1.569210935827574,-0.0018992943081686797
0.007188630243295932,0.011607561146045157,1.5798819022345176,1.273807668241509,-1.5690647679456042,-0.001994026626282995
0.007252030660934434,0.01674319557141936,1.5751382703390786,1.2889277148777756,-1.5689177112769446,-0.002089934627230099
0.007313726231181101,0.021649273661321935,1.5707540993801923,1.3037759534395221,-1.5687698815644568,-0.0021868959583854325
0.007373685636373638,0.02632183011171695,1.5667371766754108,1.3183449491718509,-1.5686213877045332,-0.0022847858819141616
0.007431891212836347,0.03075777757799819,1.56309364174766,1.3326282113945196,-1.568472331516074,-0.0023834788697123755
0.007488339904357174,0.03495495476613517,1.559827878771868,1.3466202554574007,-1.5683228076781313,-0.002482850258631541
0.0075430439019298365,0.038912159775354234,1.5569424350232832,1.3603166530397637,-1.5681729038575054,-0.0025827779180453395
0.007596030923001989,0.042629166693640086,1.554437969240832,1.37371406879199,-1.5680227010333974,-0.0026831438737967106
0.007647344087796972,0.04610672402301111,1.5523132328082236,1.386810281749766,-1.5678722740285982,-0.0027838358345042865
0.007697041376485743,0.04934653421348878,1.5505650854113113,1.3996041904925358,-1.5677216922332535,-0.002884748561457028
0.0077451946597786635,0.05235121436227304,1.5491885454363865,1.4120958016458702,-1.5675710205094935,-0.0029857850322417244
0.007791888323145465,0.0551242389404066,1.5481768739207227,1.4242862019906295,-1.567420320244144,-0.003086857351131114
0.007837217520910197,0.05766986617947883,1.5475216894635786,1.4361775150997407,-1.5672696505117294,-0.0031878873710162498
0.00788128611546434,0.05999305043181962,1.5472131102527136,1.4477728440250177,-1.5671190693006123,-0.003288807003005807
0.007924204370261225,0.062099343359502894,1.5472399183474452,1.459076202061416,-1.5669686347516385,-0.003389558203755592
0.007966086476191072,0.06399478717614435,1.5475897406480397,1.4700924339912322,-1.5668184063560038,-0.0034900926441216147
0.008007047997603305,0.06568580334271176,1.548249240607418,1.4808271304370508,-1.566668446058929,-0.0035903710756313542
0.008047203322792231,0.06717908010356304,1.5492043147081955,1.491286538025571,-1.5665188192229653,-0.0036903624239841767
0.008086663202032903,0.0684814620592331,1.5504402880080619,1.5014774679914382,-1.566369595408699,-0.003790042647608729
0.008125532445286791,0.06959984463594876,1.551942103600699,1.5114072056531322,-1.5662208489436458,-0.0038893934076023977
0.008163907839717849,0.07054107586775706,1.5536945015806782,1.5210834228977068,-1.5660726592615357,-0.003988400599777798
0.008201876340398909,0.07131186739815915,1.5556821839651414,1.5305140954482277,-1.565925110996227,-0.004087052799001249
0.008239513561091724,0.07191871607081039,1.5578899629451943,1.5397074262959884,-1.5657782938416862,-0.004185339669153395
0.0082768825884468,0.07236783695625058,1.5603028907450995,1.548671776277328,-1.5656323021845495,-0.004283250384982339
0.008314033122621349,0.0726651081762895,1.5629063702123975,1.5574156023972539,-1.5654872345335107,-0.004380772109740888
0.008351000939532578,0.07281602746506385,1.5656862460052832,1.5659474041594454,-1.565343192770688,-0.004477888564973412
0.008387807654261724,0.07282568005495917,1.5686288768656769,1.5742756778718483,-1.5652002812625185,-0.0045745787236708725
0.008424460764537716,0.07269871720513807,1.5717211899544306,1.58240887865844,-1.5650586058606006,-0.004670815648874638
0.008460953944408066,0.07243934449527692,1.5749507185842653,1.59035538972785,-1.5649182728282496,-0.004766565494127226
0.008497267550789923,0.07205131888287769,1.5783056249245826,1.5981234983223072,-1.5647793877330798,-0.004861786676437034
0.008533369310254795,0.07153795346209592,1.581774709383246,1.605721377687128,-1.564642054335387,-0.004956429225035517
0.008569215152665415,0.07090212885226417,1.5853474084141912,1.6131570743591375,-1.5645063735001694,-0.00505043430476843
0.008604750154718614,0.07014631017474016,1.5890137824744244,1.6204385000632835,-1.5643724421634595,-0.005143733909803143
0.008639909563659193,0.06927256863924963,1.5927644957749518,1.6275734275187894,-1.5642403523728126,-0.0052362507189604056
0.008674619874898008,0.06828260684397502,1.596590789355589,1.6345694894865974,-1.564110190416966,-0.0053278981018513765
0.008708799937654166,0.06717778698931606,1.6004844488770607,1.64143418043218,-1.5639820360595744,-0.005418580264054187
0.008742362066735994,0.06595916130800394,1.6044377683753934,1.6481748602251223,-1.5638559618873988,-0.005508192518523464
0.008775213148246185,0.06462750411932407,1.6084435110716089,1.6547987593448,-1.5637320327717468,-0.005596621669502771
0.00880725572237679,0.06318334501545322,1.612494868184009,1.6613129851125938,-1.5636103054497976,-0.005683746496957
0.008838389036538063,0.06162700278505745,1.6165854165509235,1.6677245285150601,-1.5634908282207165,-0.005769438329197611
0.008868510062403825,0.059958619767593986,1.6207090757455598,1.6740402712250517,-1.563373640753041,-0.005853561693142278
0.008897514475437998,0.05817819641214564,1.6248600652511944,1.6802669924640463,-1.5632587739952097,-0.005935975032799797
0.008925297596484227,0.05628562588498953,1.6290328621666232,1.686411375381097,-1.5631462501818287,-0.006016531488433058
0.008951755298424293,0.054280728631035946,1.6332221598277714,1.692480012650164,-1.5630360829257322,-0.006095079730434026
0.008976784882698272,0.052163286844960764,1.637422827662007,1.6984794110096917,-1.5629282773855087,-0.006171464843796961
0.00900028593414675,0.04993307884878652,1.6416298725358518,1.7044159944857715,-1.5628228304952405,-0.006245529260796197
0.009022161160159818,0.04758991340250817,1.6458384018150045,1.7102961060561295,-1.5627197312482195,-0.006317113741519185
0.0090423172255943,0.045133663995287406,1.6500435883246731,1.7161260075233813,-1.5626189610207806,-0.006386058403225127
0.009060665592036589,0.04256430317410533,1.654240637379797,1.721911877378302,-1.5625204939276345,-0.006452203801330416
0.009077123373808393,0.03988193696672001,1.6584247560454002,1.7276598064440412,-1.5624242971962663,-0.006515392065956397
0.009091614220607752,0.03708683944405253,1.6625911247880405,1.7333757911053775,-1.562330331552228,-0.0065754680992830584
0.009104069237714224,0.034179487444919915,1.6667348716874137,1.7390657239417304,-1.5622385516064081,-0.00663228083967193
0.00911442795447408,0.0311605954523187,1.6708510493920905,1.7447353816017022,-1.562148906235971,-0.006685684599074689
0.009122639349304136,0.028031150564756357,1.6749346150239255,1.750390409782241,-1.5620613389537406,-0.00673554048034709
0.009128668742800872,0.024792448450359415,1.6789804122363186,1.7560363036511728,-1.5619757809530264,-0.006781718123067321
0.009132487015457805,0.02144612622981924,1.6829831596612963,1.761678390220115,-1.5618921668327752,-0.006824097192567934
0.009134078004880617,0.01799419762288379,1.6869374402458657,1.767321802245917,-1.5618104267310788,-0.006862568807034947
0.009133439813412511,0.01443908641714101,1.6908376954911457,1.7729714510458872,-1.561730486646704,-0.006897037435253587
0.009130586172901758,0.010783658660884024,1.6946782240267457,1.7786319964274822,-1.5616522687160999,-0.006927422778104251
0.009125547865584468,0.007031253020263958,1.6984531848516973,1.7843078139475679,-1.5615756914760182,-0.006953661738057019
0.009118374184068868,0.0031857086296827658,1.7021566055690958,1.7900029598281708,-1.5615006701200118,-0.006975710465418071
0.009109134408139298,-0.0007486103437268068,1.705782395922783,1.7957211339730532,-1.5614271167575566,-0.006993546463984333
0.009097919265392515,-0.004766794302361946,1.7093243669071085,1.8014656416588115,-1.5613549406909835,-0.007007170731363227
0.009084842339356013,-0.008863372954136844,1.7127762556595316,1.807239354608441,-1.5612840487216935,-0.007016609901323937
0.009070041373751739,-0.013032306214710764,1.716131756260791,1.8130446722948919,-1.5612143455073728,-0.0070219183461828856
0.009053679418752814,-0.01726698234058835,1.71938455645277,1.8188834844536153,-1.561145733986252,-0.007023180187970917
0.009035945750731819,-0.021560224350707403,1.7225283801431637,1.8247571359052666,-1.5610781158932598,-0.0070205111569528415
0.009017056494481326,-0.025904305735094682,1.7255570353960097,1.8306663948863333,-1.5610113923871487,-0.0070140602268682125
0.008997254866870846,-0.030290976332988613,1.7284644674144813,1.8366114261518531,-1.560945464812372,-0.007004010947380563
0.008976810959175631,-0.03471149908101877,1.7312448158104135,1.842591770135317,-1.5608802356154188,-0.006990582387337776
0.008956020975489755,-0.039156698082676876,1.7338924752333755,1.8486063294183794,-1.5608156094315326,-0.006974029598155184
0.008935205846791285,-0.043617018134968544,1.7364021582119624,1.8546533636688034,-1.5607514943548455,-0.0069546435054956045
0.008914709150435924,-0.04808259547258053,1.7387689588538602,1.8607304940420941,-1.5606878033963194,-0.00693275014096248
0.008894894281463627,-0.05254333906697847,1.7409884158744604,1.8668347178098847,-1.5606244561225224,-0.00690870913456437
0.0088761408413522,-0.05698902136689645,1.7430565732926055,1.8729624336811166,-1.5605613804592677,-0.00688291140322715
0.008858840237451608,-0.06140937691092227,1.7449700370603332,1.879109477928199,-1.5604985146306882,-0.0068557759915544225
0.0088433905212492,-0.06579420681066345,1.7467260258937793,1.8852711710352381,-1.5604358091877808,-0.006827746048466333
0.008830190530087387,-0.07013348672562522,1.7483224146540766,1.8914423741711004,-1.5603732290672256,-0.006799283955963433
0.008819633437854336,-0.07441747565782603,1.7497577687928019,1.8976175543798959,-1.5603107556066294,-0.006770865663388447
0.008812093832261805,-0.0786368238283727,1.7510313696744795,1.9037908585877281,-1.5602483954971667,-0.006742973171235597
0.008807932839374647,-0.0827826724618689,1.752143225757705,1.9099561879422697,-1.5601861676271798,-0.006716089532375252
0.008807484697887048,-0.08684674874721185,1.7530940750505506,1.916107280991527,-1.5601241122183043,-0.006690690830248492
0.008811049762367903,-0.09082144957832121,1.7538853748794128,1.9222377961137336,-1.5600622917066673,-0.00666723858628574
0.008818887973391592,-0.09469991275248417,1.7545192801777438,1.9283413929168365,-1.5600007911268197,-0.006646172262464399
0.008831213036394402,-0.09847607389436429,1.7549986109833609,1.9344118104903256,-1.5599397179013388,-0.0066279020329078195
0.00884818754975857,-0.1021447079266375,1.7553268102014994,1.9404429405654746,-1.559879200975247,-0.006612802064563875
0.008869919286180724,-0.10570145450821182,1.7555078929961958,1.946428893918044,-1.5598193892674543,-0.006601204533433408
0.00889645878839429,-0.1091428274643264,1.7555463894001926,1.9523640586905637,-1.559760449440233,-0.006593394577268018
0.008927798389684953,-0.11246620880277575,1.7554472818746278,1.9582431496949695,-1.5597025630152308,-0.006589606349410892
0.008963872696391598,-0.11566982841815344,1.7552159396052123,1.964061248158569,-1.5596459229099788,-0.006590020289801035
0.009004560516220325,-0.11875273099972575,1.7548580512894039,1.9698138317607101,-1.5595907294849596,-0.006594761678830496
0.009049688140155719,-0.1217147319703786,1.7543795580668053,1.9754967951653373,-1.5595371862314704,-0.006603900482269022
0.009099033837322593,-0.12455636447947883,1.7537865880790755,1.9811064615558724,-1.5594854952385926,-0.006617452443387607
0.009152333369425286,-0.1272788195594928,1.75308539393807,1.9866395859227293,-1.5594358525944876,-0.006635381328498843
0.009209286295510608,-0.12988388154121988,1.7522822941457417,1.9920933510299077,-1.5593884438803576,-0.006657602190511362
0.009269562822932544,-0.13237386071971755,1.7513836192621557,1.9974653570954206,-1.5593434399022872,-0.006683985484960739
0.009332810940553772,-0.13475152509549645,1.7503956633774496,2.002753606272793,-1.5593009928077843,-0.006714361849356463
0.009398663599354831,-0.13702003279300085,1.7493246412121173,2.0079564830105796,-1.5592612326883608,-0.006748527352237924
0.009466745695524408,-0.1391828665154697,1.7481766509705003,2.0130727313275383,-1.5592242647783876,-0.006786249012897654
0.00953668067842822,-0.14124377112799003,1.7469576428905635,2.018101429950625,-1.5591901672882575,-0.006827270412045867
0.009608096598287971,-0.14320669521048762,1.745673393296457,2.023041966173006,-1.5591589899307348,-0.006871317221793083
0.009680631487867084,-0.14507573717164154,1.7443294838421013,2.027894009163692,-1.559130753125013,-0.006918102515869611
0.009753937983748634,-0.14685509629877322,1.7429312855577972,2.032657483349611,-1.5591054478707993,-0.006967331741126256
0.009827687150597465,-0.1485490289222031,1.7414839472556052,2.037332542368731,-1.559083036240619,-0.007018707263701524
0.009901571490606026,-0.15016180971293266,1.7399923878232015,2.0419195439872557,-1.5590634524395206,-0.007071932426805368
0.009975307169707749,-0.15169769799739732,1.7384612919242954,2.046419026268661,-1.559046604346643,-0.007126715087410172
0.01004863549149249,-0.1531609088758364,1.7368951086358118,2.050831685201105,-1.5590323754735034,-0.00718277061562027
0.01012132369615526,-0.15455558885122245,1.7352980525677344,2.0551583539067897,-1.559020627238476,-0.007239824366700192
0.01019316515605565,-0.15588579562864968,1.7336741070438364,2.059399983499345,-1.559011201478281,-0.007297613646844465
0.010263979047745689,-0.15715548171529303,1.7320270289565785,2.0635576256043584,-1.5590039231194774,-0.007355889205516135
0.01033360959552037,-0.15836848143598187,1.7303603549458295,2.0676324165151976,-1.5589986029249185,-0.007414416298737439
0.01040192496535541,-0.15952850098302995,1.7286774085933039,2.0716255629304956,-1.5589950402549135,-0.007472975368894636
0.010468815891480368,-0.1606391111287925,1.7269813083627485,2.0755383291960157,-1.5589930257831202,-0.007531362390771772
0.010534194111909992,-0.16170374224802397,1.7252749760536585,2.0793720259589894,-1.5589923441162274,-0.007589388933800797
0.010597990680118673,-0.16272568132118267,1.7235611455719755,2.0831280001345918,-1.5589927762774987,-0.007646881988528499
0.010660154209394935,-0.16370807061719483,1.7218423718541358,2.0868076260805,-1.5589941020256444,-0.007703683601786651
0.010720649099162073,-0.1646539077824029,1.7201210398099451,2.0904122978743387,-1.5589961019871557,-0.007759650361661936
0.010779453786383493,-0.16556604709071823,1.7183993731753993,2.093943422590092,-1.5589985595850773,-0.00781465276978606
0.01083655905002332,-0.1664472016394608,1.7166794431905872,2.097402414475332,-1.5590012627615994,-0.00786857453201995
0.010891966397463593,-0.1672999463006191,1.7149631770361076,2.1007906899340227,-1.559004005488064,-0.007921311796392213
0.01094568654597926,-0.16812672126407346,1.7132523659798025,2.1041096632281953,-1.5590065890707936,-0.007972772360294289
0.010997738015712525,-0.16892983603067616,1.71154867319823,2.1073607428158394,-1.5590088232546404,-0.008022874867392575
0.011048145838558624,-0.1697114737353421,1.709853641250293,2.1105453282510034,-1.5590105271369215,-0.00807154800907273
0.01109694038571481,-0.17047369569862475,1.7081686991897151,2.113664807578101,-1.5590115299037233,-0.008118729742559
0.011144156315515333,-0.17121844612147036,1.7064951693105166,2.116720555158347,-1.5590116713995767,-0.008164366535599474
0.011189831635311686,-0.17194755685347426,1.7048342735267874,2.1197139298738468,-1.559010802548164,-0.008208412643618376
0.011234006874465106,-0.1726627521767085,1.7031871393920448,2.122646273659276,-1.5590087856362214,-0.008250829424611349
0.011276724363092705,-0.17336565355837663,1.7015548057673526,2.1255189103167873,-1.55900549447394,-0.008291584695068594
0.011318027605907107,-0.17405778433583588,1.6999382281509017,2.1283331445759317,-1.5590008144496192,-0.008330652127517093
0.011357960747472575,-0.17474057430412865,1.6983382836824223,2.1310902613629152,-1.558994642487432,-0.008368010691307003
0.01139656811813631,-0.17541536418425385,1.6967557758382854,2.1337915252494772,-1.5589868869239845,-0.008403644135444642
0.011433893851917915,-0.17608340995574595,1.6951914388335843,2.136438180054845,-1.5589774673162327,-0.008437540512145535
0.011469981571191315,-0.17674588704123073,1.6936459417472858,2.1390314485766733,-1.5589663141887118,-0.008469691740285074
0.011504874130366643,-0.17740389433511114,1.6921198923870582,2.1415725324306782,-1.5589533687303823,-0.008500093206745779
0.011538613410220208,-0.17805845807195425,1.6906138409103355,2.1440626119815818,-1.5589385824515134,-0.008528743403129244
0.01157124015514864,-0.17871053553274924,1.68912828321773,2.146502846350293,-1.5589219168099244,-0.008555643595192423
0.011602793850620133,-0.17936101858844233,1.687663664133573,2.148894373483166,-1.5589033428101093,-0.008580797523643168
0.011633312633966832,-0.18001073708270535,1.6862203803884874,2.1512383102722703,-1.5588828405830937,-0.008604211133588923
0.011662833233498008,-0.18066046205695205,1.6847987834179385,2.153535752716871,-1.5588603989526368,-0.00862589233034589
0.011691390930310882,-0.18131090882183148,1.68339918199013,2.15578777611804,-1.5588360149939002,-0.008645850759059659
0.011719019541424224,-0.1819627398794422,1.6820218446751687,2.157995435298572,-1.558809693585924,-0.008664097606807676
0.011745751419220539,-0.18261656770182547,1.6806670021673247,2.1601597648425566,-1.558781446963186,-0.008680645424771505
0.011771617464210259,-0.1832729573713532,1.679334849471155,2.162281779349497,-1.558751294269206,-0.008695507968648868
0.011796647148712569,-0.18393242908880827,1.6780255479614588,2.164362473698624,-1.5587192611144822,-0.00870870005566376
0.011820868549306092,-0.18459546055507708,1.6767392273263055,2.166402823319809,-1.5586853791407402,-0.008720237436635
0.011844308386299556,-0.18526248923237343,1.675475987401664,2.1684037844680906,-1.558649685593019,-0.00873013668171386
0.011866992067896999,-0.1859339144910235,1.6742358999056244,2.170366294499583,-1.5586122229017432,-0.008738415078262503
0.011888943738591963,-0.1866100996474196,1.6730190100793079,2.1722912721465804,-1.5585730382748875,-0.008745090539938629
0.011910186329306191,-0.18729137389902803,1.6718253382413395,2.174179617790664,-1.5585321833025554,-0.008750181525490366
0.011930741609708998,-0.18797803416162606,1.6706548812617374,2.176032213732231,-1.558489713573097,-0.008753706966677299
0.011950630241152378,-0.1886703468141481,1.669507613960927,2.1778499244557468,-1.5584456883021043,-0.00875568620418553
0.011969871829288202,-0.18936854935620898,1.6683834904390231,2.17963359689012,-1.5584001699749253,-0.00875613893062618
0.011988484976682572,-0.19007285198291965,1.667282445339885,2.1813840606635337,-1.5583532240019935,-0.008755085140124894
0.012006487334342378,-0.19078343908166248,1.666204395054299,2.183102128352625,-1.5583049183878126,-0.008752545083633073
0.012023895651778542,-0.19150047065513828,1.665149238866163,2.1847885957258932,-1.5582553234136647,-0.008748539229335493
0.012040725826186625,-0.19222408367458904,1.6641168600450413,2.1864442419811128,-1.5582045113330865,-0.00874308822785742
0.012056992948704494,-0.19295439336738904,1.6631071268886168,2.1880698299773216,-1.5581525560820242,-0.008736212881216846
0.012072711350433465,-0.1936914944420694,1.6621198937174633,2.18966610646081,-1.5580995330004281,-0.008727934115921513
0.012087894645089215,-0.19443546225475367,1.6611550018253154,2.1912338022861544,-1.558045518568423,-0.00871827295889702
0.012102555770480031,-0.19518635391975714,1.6602122803868582,2.192773632631973,-1.5579905901543585,-0.00870725051655118
0.01211670702816331,-0.195944209367452,1.6592915473253427,2.1942862972118906,-1.5579348257751848,-0.008694887956466479
0.012130360120479473,-0.1967090523523502,1.6583926101421629,2.195772480481276,-1.5578783038697563,-0.008681206491180685
0.012143526186019582,-0.1974808914138232,1.657515266710043,2.197232851839824,-1.557821103083646,-0.008666227364097926
0.012156215833019655,-0.1982597207920101,1.6566593060315933,2.19866806583051,-1.5577633020657733,-0.00864997183712923
0.012168439171151893,-0.19904552130112282,1.655824508964685,2.200078762335163,-1.557704979276085,-0.008632461179973698
0.01218020584114384,-0.19983826116240985,1.6550106489161507,2.2014655667672076,-1.5576462128046693,-0.008613716660657293
0.012191525042948962,-0.2006378967986541,1.654217492504976,2.202829090261746,-1.5575870802012706,-0.008593759537351477
0.012202405562158718,-0.20144437359214892,1.653444800196234,2.2041699298634403,-1.5575276583153184,-0.008572611051202531
0.012212855794861617,-0.20225762660787805,1.6526923269068277,2.2054886687124893,-1.557468023146011,-0.008550292420070027
0.01222288377107931,-0.20307758128352668,1.6519598225840444,2.206785876229005,-1.557408249702091,-0.00852682483306574
0.012232497176453324,-0.2039041540879368,1.651247032757936,2.20806210829619,-1.557348411871445,-0.008502229445657804
0.012241703373037335,-0.20473725314929297,1.6505536990682688,2.2093179074423897,-1.557288582299374,-0.008476527375474158
0.01225050941859265,-0.20557677885451697,1.6498795597669864,2.2105538030224525,-1.5572288322759809,-0.008449739698514085
0.012258922084592566,-0.20642262442111253,1.6492243501969452,2.211770311398599,-1.5571692316322316,-0.008421887445725187
0.012266947873197848,-0.20727467644261288,1.6485878032476249,2.2129679361209544,-1.557109848644194,-0.00839299159993212
0.012274593033399703,-0.20813281540872478,1.6479696497884966,2.2141471681079055,-1.5570507499450326,-0.008363073093095098
0.012281863575817798,-0.20899691620133587,1.6473696190808196,2.2153084858265966,-1.556992000445109,-0.00833215280366807
0.012288765286851265,-0.20986684856725885,1.6467874391684039,2.2164523554735402,-1.5569336632592239,-0.00830025155419752
0.01229530374156807,-0.21074247756878375,1.6462228372480754,2.2175792311556424,-1.5568757996414613,-0.008267390108915881
0.012301484316374933,-0.21162366401273816,1.6456755400202805,2.2186895550714802,-1.5568184689263012,-0.008233589171589279
0.012307312200425611,-0.2125102648591107,1.6451452740206018,2.2197837576932065,-1.556761728476937,-0.008198869383259345
0.012312792406574636,-0.2134021336098953,1.6446317659326297,2.220862257948934,-1.5567056336397171,-0.008163251320075912
0.012317929781731837,-0.21429912067895468,1.6441347428827793,2.2219254634057015,-1.556650237704672,-0.008126755491141821
0.01232272901628702,-0.21520107374370445,1.6436539327176707,2.2229737704531356,-1.5565955918722925,-0.008089402336235148
0.012327194653198842,-0.21610783807920514,1.6431890642645137,2.2240075644876747,-1.556541745225715,-0.008051212223556965
0.012331331096632106,-0.21701925687535512,1.6427398675750589,2.2250272200973855,-1.5564887447082516,-0.008012205447447268
0.0123351426198863,-0.21793517153787748,1.6423060741536881,2.226033101247432,-1.5564366351063532,-0.007972402225969132
0.012338633372997366,-0.21885542197364413,1.6418874171701054,2.2270255614660615,-1.5563854590374033,-0.00793182269845617
0.012341807389833714,-0.21977984686096408,1.6414836316571755,2.2280049440311225,-1.556335256942346,-0.007890486922954576
0.012344668594852184,-0.22070828390537342,1.6410944546943962,2.2289715821570137,-1.556286067082789,-0.007848414873596294
0.012347220809439723,-0.2216405700814907,1.6407196255775227,2.229925799182026,-1.5562379255424748,-0.007805626437870622
0.012349467757922275,-0.22257654186145143,1.640358885974834,2.2308679087559797,-1.5561908662328565,-0.007762141413810126
0.012351413073216098,-0.22351603543043777,1.6400119800705382,2.231798215028087,-1.5561449209026208,-0.00771797950707688
0.012353060302224248,-0.22445888688977858,1.6396786546957953,2.2327170128349234,-1.5561001191508745,-0.007673160327975264
0.012354412910916605,-0.22540493244810944,1.6393586594478486,2.2336245878884324,-1.556056488443887,-0.0076277033883700605
0.012355478716041953,-0.2263540077220286,1.639051746038842,2.2345212158134533,-1.5560140493589958,-0.007581629460690131
0.012356262510922204,-0.22730594933010567,1.6387576696521635,2.2354071643277424,-1.5559728236624961,-0.0075349583823504755
0.012356766932338342,-0.22826059490848574,1.6384761888844803,2.2362826931547057,-1.555932833335957,-0.007487709263490275
0.012356994618714172,-0.22921778285030361,1.6382070654568106,2.23714805361316,-1.555894098237346,-0.0074399011082287
0.012356948207722958,-0.23017735244399534,1.6379500642825344,2.2380034888061067,-1.5558566361423602,-0.007391552810745051
0.012356630333634674,-0.2311391440023419,1.6377049535256152,2.2388492338095642,-1.5558204627869827,-0.007342683151265231
0.012356043625174428,-0.2321029989824812,1.6374715046500643,2.2396855158603177,-1.5557855919113903,-0.00729331079206693
0.012355190703930256,-0.23306876009724817,1.6372494924610708,2.2405125545424696,-1.555752035305045,-0.007243454273535118
0.012354074183031092,-0.2340362714182551,1.6370386951382592,2.24133056197277,-1.5557198028531314,-0.007193132010202606
0.012352696666225432,-0.2350053784710358,1.6368388942614633,2.2421397429845884,-1.5556889025840697,-0.007142362286831161
